%
(Header)
(Generated by gcodetools from Inkscape.)
(Using default header. To add your own header create file "header" in the output dir.)
M3
(Header end.)
G21 (All units in mm)

(Start cutting path id: path13998)
(Change tool to Default tool)

G00 Z5.000000
G00 X6.291275 Y51.726846

G01 Z-0.125000 F100.0(Penetrate)
G01 X6.354792 Y49.199069 Z-0.125000 F400.000000
G01 X6.543300 Y46.704473 Z-0.125000
G01 X6.853733 Y44.246148 Z-0.125000
G01 X7.283018 Y41.827182 Z-0.125000
G01 X7.828097 Y39.450657 Z-0.125000
G01 X8.485895 Y37.119662 Z-0.125000
G01 X9.253347 Y34.837280 Z-0.125000
G01 X10.127386 Y32.606601 Z-0.125000
G01 X11.104948 Y30.430713 Z-0.125000
G01 X12.182960 Y28.312697 Z-0.125000
G01 X13.358360 Y26.255641 Z-0.125000
G01 X14.628080 Y24.262636 Z-0.125000
G01 X15.989052 Y22.336763 Z-0.125000
G01 X17.438206 Y20.481109 Z-0.125000
G01 X18.972479 Y18.698763 Z-0.125000
G01 X20.588805 Y16.992809 Z-0.125000
G01 X22.284112 Y15.366337 Z-0.125000
G01 X24.055335 Y13.822429 Z-0.125000
G01 X25.899409 Y12.364173 Z-0.125000
G01 X27.813263 Y10.994655 Z-0.125000
G01 X29.793833 Y9.716962 Z-0.125000
G01 X31.838051 Y8.534183 Z-0.125000
G01 X33.942850 Y7.449400 Z-0.125000
G01 X36.105163 Y6.465700 Z-0.125000
G01 X38.321920 Y5.586171 Z-0.125000
G01 X40.590058 Y4.813898 Z-0.125000
G01 X42.906507 Y4.151972 Z-0.125000
G01 X45.268202 Y3.603473 Z-0.125000
G01 X47.672075 Y3.171489 Z-0.125000
G01 X50.115058 Y2.859109 Z-0.125000
G01 X52.594087 Y2.669419 Z-0.125000
G01 X55.106091 Y2.605501 Z-0.125000
G01 X57.618094 Y2.669419 Z-0.125000
G01 X60.097123 Y2.859109 Z-0.125000
G01 X62.540106 Y3.171489 Z-0.125000
G01 X64.943979 Y3.603473 Z-0.125000
G01 X67.305674 Y4.151972 Z-0.125000
G01 X69.622123 Y4.813898 Z-0.125000
G01 X71.890261 Y5.586171 Z-0.125000
G01 X74.107021 Y6.465700 Z-0.125000
G01 X76.269331 Y7.449400 Z-0.125000
G01 X78.374130 Y8.534183 Z-0.125000
G01 X80.418348 Y9.716962 Z-0.125000
G01 X82.398918 Y10.994655 Z-0.125000
G01 X84.312773 Y12.364173 Z-0.125000
G01 X86.156846 Y13.822429 Z-0.125000
G01 X87.928070 Y15.366337 Z-0.125000
G01 X89.623377 Y16.992809 Z-0.125000
G01 X91.239701 Y18.698763 Z-0.125000
G01 X92.773975 Y20.481109 Z-0.125000
G01 X94.223131 Y22.336763 Z-0.125000
G01 X95.584102 Y24.262633 Z-0.125000
G01 X96.853821 Y26.255641 Z-0.125000
G01 X98.029221 Y28.312697 Z-0.125000
G01 X99.107235 Y30.430710 Z-0.125000
G01 X100.084796 Y32.606601 Z-0.125000
G01 X100.958836 Y34.837280 Z-0.125000
G01 X101.726289 Y37.119662 Z-0.125000
G01 X102.384087 Y39.450657 Z-0.125000
G01 X102.929163 Y41.827182 Z-0.125000
G01 X103.358450 Y44.246148 Z-0.125000
G01 X103.668881 Y46.704473 Z-0.125000
G01 X103.857389 Y49.199069 Z-0.125000
G01 X103.920907 Y51.726846 Z-0.125000
G01 X103.857389 Y54.254623 Z-0.125000
G01 X103.668882 Y56.749219 Z-0.125000
G01 X103.358451 Y59.207544 Z-0.125000
G01 X102.929164 Y61.626510 Z-0.125000
G01 X102.384088 Y64.003036 Z-0.125000
G01 X101.726290 Y66.334034 Z-0.125000
G01 X100.958837 Y68.616413 Z-0.125000
G01 X100.084797 Y70.847092 Z-0.125000
G01 X99.107237 Y73.022983 Z-0.125000
G01 X98.029223 Y75.140998 Z-0.125000
G01 X96.853823 Y77.198053 Z-0.125000
G01 X95.584104 Y79.191060 Z-0.125000
G01 X94.223132 Y81.116933 Z-0.125000
G01 X92.773977 Y82.972586 Z-0.125000
G01 X91.239703 Y84.754932 Z-0.125000
G01 X89.623379 Y86.460885 Z-0.125000
G01 X87.928071 Y88.087359 Z-0.125000
G01 X86.156847 Y89.631267 Z-0.125000
G01 X84.312774 Y91.089523 Z-0.125000
G01 X82.398919 Y92.459040 Z-0.125000
G01 X80.418348 Y93.736733 Z-0.125000
G01 X78.374130 Y94.919514 Z-0.125000
G01 X76.269331 Y96.004297 Z-0.125000
G01 X74.107021 Y96.987996 Z-0.125000
G01 X71.890261 Y97.867524 Z-0.125000
G01 X69.622123 Y98.639796 Z-0.125000
G01 X67.305674 Y99.301725 Z-0.125000
G01 X64.943979 Y99.850224 Z-0.125000
G01 X62.540106 Y100.282206 Z-0.125000
G01 X60.097123 Y100.594587 Z-0.125000
G01 X57.618094 Y100.784278 Z-0.125000
G01 X55.106091 Y100.848195 Z-0.125000
G01 X52.594087 Y100.784278 Z-0.125000
G01 X50.115058 Y100.594587 Z-0.125000
G01 X47.672075 Y100.282206 Z-0.125000
G01 X45.268202 Y99.850223 Z-0.125000
G01 X42.906507 Y99.301724 Z-0.125000
G01 X40.590058 Y98.639796 Z-0.125000
G01 X38.321920 Y97.867524 Z-0.125000
G01 X36.105160 Y96.987995 Z-0.125000
G01 X33.942850 Y96.004296 Z-0.125000
G01 X31.838051 Y94.919513 Z-0.125000
G01 X29.793833 Y93.736732 Z-0.125000
G01 X27.813263 Y92.459040 Z-0.125000
G01 X25.899406 Y91.089522 Z-0.125000
G01 X24.055335 Y89.631267 Z-0.125000
G01 X22.284112 Y88.087358 Z-0.125000
G01 X20.588803 Y86.460885 Z-0.125000
G01 X18.972479 Y84.754931 Z-0.125000
G01 X17.438206 Y82.972585 Z-0.125000
G01 X15.989049 Y81.116932 Z-0.125000
G01 X14.628077 Y79.191059 Z-0.125000
G01 X13.358360 Y77.198052 Z-0.125000
G01 X12.182960 Y75.140998 Z-0.125000
G01 X11.104945 Y73.022983 Z-0.125000
G01 X10.127384 Y70.847092 Z-0.125000
G01 X9.253344 Y68.616413 Z-0.125000
G01 X8.485892 Y66.334034 Z-0.125000
G01 X7.828094 Y64.003036 Z-0.125000
G01 X7.283018 Y61.626510 Z-0.125000
G01 X6.853730 Y59.207544 Z-0.125000
G01 X6.543300 Y56.749219 Z-0.125000
G01 X6.354792 Y54.254623 Z-0.125000
G01 X6.291275 Y51.726846 Z-0.125000
G00 Z5.000000

(End cutting path id: path13998)


(Start cutting path id: path13959)
(Change tool to Default tool)

G00 Z5.000000
G00 X53.776144 Y58.684807

G01 Z-0.125000 F100.0(Penetrate)
G01 X53.024882 Y59.404301 Z-0.125000 F400.000000
G01 X52.290489 Y60.133095 Z-0.125000
G01 X51.569270 Y60.869119 Z-0.125000
G01 X50.857528 Y61.610308 Z-0.125000
G01 X50.151567 Y62.354593 Z-0.125000
G01 X49.447693 Y63.099905 Z-0.125000
G01 X48.742211 Y63.844184 Z-0.125000
G01 X48.031423 Y64.585359 Z-0.125000
G01 X47.311638 Y65.321361 Z-0.125000
G01 X46.579161 Y66.050124 Z-0.125000
G01 X45.830293 Y66.769584 Z-0.125000
G01 X45.061339 Y67.477671 Z-0.125000
G01 X44.268605 Y68.172319 Z-0.125000
G01 X43.448396 Y68.851459 Z-0.125000
G01 X42.597019 Y69.513027 Z-0.125000
G01 X41.710774 Y70.154956 Z-0.125000
G01 X40.956261 Y70.495499 Z-0.125000
G01 X40.210159 Y70.800731 Z-0.125000
G01 X39.471524 Y71.072463 Z-0.125000
G01 X38.739425 Y71.312504 Z-0.125000
G01 X38.012915 Y71.522667 Z-0.125000
G01 X37.291058 Y71.704754 Z-0.125000
G01 X36.572913 Y71.860577 Z-0.125000
G01 X35.857541 Y71.991949 Z-0.125000
G01 X35.144005 Y72.100675 Z-0.125000
G01 X34.431362 Y72.188564 Z-0.125000
G01 X33.718675 Y72.257427 Z-0.125000
G01 X33.005003 Y72.309073 Z-0.125000
G01 X32.289409 Y72.345311 Z-0.125000
G01 X31.570950 Y72.367945 Z-0.125000
G01 X30.848687 Y72.378782 Z-0.125000
G01 X30.121682 Y72.379629 Z-0.125000
G01 X29.741919 Y72.411235 Z-0.125000
G01 X29.362217 Y72.448514 Z-0.125000
G01 X28.982851 Y72.491812 Z-0.125000
G01 X28.604094 Y72.541486 Z-0.125000
G01 X28.226219 Y72.597882 Z-0.125000
G01 X27.849497 Y72.661354 Z-0.125000
G01 X27.474198 Y72.732251 Z-0.125000
G01 X27.100598 Y72.810926 Z-0.125000
G01 X26.728968 Y72.897729 Z-0.125000
G01 X26.359578 Y72.993008 Z-0.125000
G01 X25.992704 Y73.097119 Z-0.125000
G01 X25.628614 Y73.210409 Z-0.125000
G01 X25.267584 Y73.333232 Z-0.125000
G01 X24.909885 Y73.465936 Z-0.125000
G01 X24.555786 Y73.608873 Z-0.125000
G01 X24.205565 Y73.762396 Z-0.125000
G01 X23.745622 Y73.779753 Z-0.125000
G01 X23.298847 Y73.735571 Z-0.125000
G01 X22.867885 Y73.634250 Z-0.125000
G01 X22.455367 Y73.480191 Z-0.125000
G01 X22.063933 Y73.277793 Z-0.125000
G01 X21.696220 Y73.031446 Z-0.125000
G01 X21.354870 Y72.745552 Z-0.125000
G01 X21.042514 Y72.424511 Z-0.125000
G01 X20.761796 Y72.072712 Z-0.125000
G01 X20.515352 Y71.694560 Z-0.125000
G01 X20.305818 Y71.294445 Z-0.125000
G01 X20.135833 Y70.876770 Z-0.125000
G01 X20.008034 Y70.445930 Z-0.125000
G01 X19.925058 Y70.006320 Z-0.125000
G01 X19.889549 Y69.562343 Z-0.125000
G01 X19.904140 Y69.118387 Z-0.125000
G01 X19.850676 Y68.629584 Z-0.125000
G01 X19.806426 Y68.140256 Z-0.125000
G01 X19.770285 Y67.650462 Z-0.125000
G01 X19.741148 Y67.160265 Z-0.125000
G01 X19.717893 Y66.669726 Z-0.125000
G01 X19.699436 Y66.178907 Z-0.125000
G01 X19.684676 Y65.687872 Z-0.125000
G01 X19.672484 Y65.196681 Z-0.125000
G01 X19.661759 Y64.705394 Z-0.125000
G01 X19.651402 Y64.214073 Z-0.125000
G01 X19.640310 Y63.722784 Z-0.125000
G01 X19.627356 Y63.231584 Z-0.125000
G01 X19.611439 Y62.740538 Z-0.125000
G01 X19.591458 Y62.249705 Z-0.125000
G01 X19.566312 Y61.759146 Z-0.125000
G01 X19.534889 Y61.268929 Z-0.125000
G01 X19.678309 Y60.722389 Z-0.125000
G01 X19.912830 Y60.227800 Z-0.125000
G01 X20.227047 Y59.787522 Z-0.125000
G01 X20.609552 Y59.403912 Z-0.125000
G01 X21.048932 Y59.079328 Z-0.125000
G01 X21.533781 Y58.816133 Z-0.125000
G01 X22.052687 Y58.616684 Z-0.125000
G01 X22.594243 Y58.483339 Z-0.125000
G01 X23.147040 Y58.418459 Z-0.125000
G01 X23.699668 Y58.424414 Z-0.125000
G01 X24.240716 Y58.503541 Z-0.125000
G01 X24.758777 Y58.658210 Z-0.125000
G01 X25.242441 Y58.890778 Z-0.125000
G01 X25.680300 Y59.203607 Z-0.125000
G01 X26.060945 Y59.599054 Z-0.125000
G01 X26.372967 Y60.079481 Z-0.125000
G01 X26.585356 Y60.397630 Z-0.125000
G01 X26.793272 Y60.727675 Z-0.125000
G01 X26.999133 Y61.065896 Z-0.125000
G01 X27.205353 Y61.408578 Z-0.125000
G01 X27.414353 Y61.752006 Z-0.125000
G01 X27.628545 Y62.092462 Z-0.125000
G01 X27.850349 Y62.426229 Z-0.125000
G01 X28.082181 Y62.749591 Z-0.125000
G01 X28.326458 Y63.058833 Z-0.125000
G01 X28.585600 Y63.350234 Z-0.125000
G01 X28.862020 Y63.620080 Z-0.125000
G01 X29.158136 Y63.864654 Z-0.125000
G01 X29.476364 Y64.080241 Z-0.125000
G01 X29.819126 Y64.263118 Z-0.125000
G01 X30.188834 Y64.409577 Z-0.125000
G01 X30.587905 Y64.515896 Z-0.125000
G01 X31.419332 Y64.603882 Z-0.125000
G01 X32.245052 Y64.621351 Z-0.125000
G01 X33.063239 Y64.571844 Z-0.125000
G01 X33.872060 Y64.458929 Z-0.125000
G01 X34.669685 Y64.286176 Z-0.125000
G01 X35.454285 Y64.057141 Z-0.125000
G01 X36.224030 Y63.775387 Z-0.125000
G01 X36.977083 Y63.444476 Z-0.125000
G01 X37.711623 Y63.067972 Z-0.125000
G01 X38.425814 Y62.649436 Z-0.125000
G01 X39.117823 Y62.192431 Z-0.125000
G01 X39.785826 Y61.700518 Z-0.125000
G01 X40.427989 Y61.177258 Z-0.125000
G01 X41.042483 Y60.626213 Z-0.125000
G01 X41.627473 Y60.050948 Z-0.125000
G01 X42.181134 Y59.455025 Z-0.125000
G01 X42.854406 Y58.759040 Z-0.125000
G01 X43.513104 Y58.049967 Z-0.125000
G01 X44.157562 Y57.328370 Z-0.125000
G01 X44.788111 Y56.594804 Z-0.125000
G01 X45.405091 Y55.849825 Z-0.125000
G01 X46.008835 Y55.093997 Z-0.125000
G01 X46.599676 Y54.327874 Z-0.125000
G01 X47.177949 Y53.552014 Z-0.125000
G01 X47.743991 Y52.766976 Z-0.125000
G01 X48.298137 Y51.973319 Z-0.125000
G01 X48.840720 Y51.171599 Z-0.125000
G01 X49.372074 Y50.362378 Z-0.125000
G01 X49.892537 Y49.546211 Z-0.125000
G01 X50.402442 Y48.723658 Z-0.125000
G01 X50.902122 Y47.895273 Z-0.125000
G01 X51.391916 Y47.061620 Z-0.125000
G00 Z5.000000

(End cutting path id: path13959)


(Start cutting path id: path13989)
(Change tool to Default tool)

G00 Z5.000000
G00 X59.872211 Y47.197109

G01 Z-0.125000 F100.0(Penetrate)
G01 X60.828996 Y45.072893 Z-0.125000 F400.000000
G01 X61.519921 Y42.874054 Z-0.125000
G01 X61.978549 Y40.617470 Z-0.125000
G01 X62.238442 Y38.320015 Z-0.125000
G01 X62.333167 Y35.998559 Z-0.125000
G01 X62.296280 Y33.669981 Z-0.125000
G01 X62.161350 Y31.351150 Z-0.125000
G01 X61.961937 Y29.058941 Z-0.125000
G01 X61.666103 Y27.937776 Z-0.125000
G01 X61.294061 Y26.838972 Z-0.125000
G01 X60.851373 Y25.764854 Z-0.125000
G01 X60.343610 Y24.717748 Z-0.125000
G01 X59.776335 Y23.699981 Z-0.125000
G01 X59.155113 Y22.713877 Z-0.125000
G01 X58.485515 Y21.761763 Z-0.125000
G01 X57.773102 Y20.845969 Z-0.125000
G01 X57.210766 Y20.118908 Z-0.125000
G01 X56.607290 Y19.429245 Z-0.125000
G01 X55.964867 Y18.777907 Z-0.125000
G01 X55.285700 Y18.165829 Z-0.125000
G01 X54.571977 Y17.593939 Z-0.125000
G01 X53.825894 Y17.063170 Z-0.125000
G01 X53.049650 Y16.574454 Z-0.125000
G01 X52.245441 Y16.128721 Z-0.125000
G01 X50.729733 Y15.288695 Z-0.125000
G01 X49.138708 Y14.681750 Z-0.125000
G01 X47.489122 Y14.279344 Z-0.125000
G01 X45.797719 Y14.052923 Z-0.125000
G01 X44.081252 Y13.973937 Z-0.125000
G01 X42.356467 Y14.013843 Z-0.125000
G01 X40.640116 Y14.144086 Z-0.125000
G01 X38.948947 Y14.336121 Z-0.125000
G01 X37.518157 Y14.620178 Z-0.125000
G01 X36.118684 Y15.016141 Z-0.125000
G01 X34.749997 Y15.510462 Z-0.125000
G01 X33.411578 Y16.089576 Z-0.125000
G01 X32.102899 Y16.739929 Z-0.125000
G01 X30.823436 Y17.447963 Z-0.125000
G01 X29.572664 Y18.200125 Z-0.125000
G01 X28.350061 Y18.982851 Z-0.125000
G01 X27.472832 Y19.586434 Z-0.125000
G01 X26.593165 Y20.198887 Z-0.125000
G01 X25.721838 Y20.828051 Z-0.125000
G01 X24.869634 Y21.481765 Z-0.125000
G01 X24.047329 Y22.167873 Z-0.125000
G01 X23.265703 Y22.894214 Z-0.125000
G01 X22.535538 Y23.668626 Z-0.125000
G01 X21.867614 Y24.498949 Z-0.125000
G01 X21.627355 Y25.302252 Z-0.125000
G01 X21.578889 Y26.127182 Z-0.125000
G01 X21.703154 Y26.948407 Z-0.125000
G01 X21.981090 Y27.740596 Z-0.125000
G01 X22.393631 Y28.478421 Z-0.125000
G01 X22.921716 Y29.136546 Z-0.125000
G01 X23.546280 Y29.689645 Z-0.125000
G01 X24.248263 Y30.112383 Z-0.125000
G01 X25.139438 Y30.230713 Z-0.125000
G01 X25.985267 Y30.132562 Z-0.125000
G01 X26.792253 Y29.861637 Z-0.125000
G01 X27.566905 Y29.461644 Z-0.125000
G01 X28.315723 Y28.976286 Z-0.125000
G01 X29.045211 Y28.449273 Z-0.125000
G01 X29.761874 Y27.924309 Z-0.125000
G01 X30.472219 Y27.445101 Z-0.125000
G01 X31.330962 Y26.822214 Z-0.125000
G01 X32.190735 Y26.191741 Z-0.125000
G01 X33.059156 Y25.571281 Z-0.125000
G01 X33.943835 Y24.978439 Z-0.125000
G01 X34.852382 Y24.430810 Z-0.125000
G01 X35.792413 Y23.945997 Z-0.125000
G01 X36.771541 Y23.541598 Z-0.125000
G01 X37.797376 Y23.235212 Z-0.125000
G01 X38.595038 Y22.957000 Z-0.125000
G01 X39.404093 Y22.709039 Z-0.125000
G01 X40.223000 Y22.497596 Z-0.125000
G01 X41.050222 Y22.328931 Z-0.125000
G01 X41.884214 Y22.209309 Z-0.125000
G01 X42.723441 Y22.144990 Z-0.125000
G01 X43.566357 Y22.142168 Z-0.125000
G01 X44.411429 Y22.207251 Z-0.125000
G01 X45.282042 Y22.214617 Z-0.125000
G01 X46.130481 Y22.334398 Z-0.125000
G01 X46.952451 Y22.556882 Z-0.125000
G01 X47.743666 Y22.872336 Z-0.125000
G01 X48.499833 Y23.271040 Z-0.125000
G01 X49.216663 Y23.743263 Z-0.125000
G01 X49.889865 Y24.279279 Z-0.125000
G01 X50.515145 Y24.869360 Z-0.125000
G01 X51.191474 Y25.508932 Z-0.125000
G01 X51.828274 Y26.196589 Z-0.125000
G01 X52.413211 Y26.930175 Z-0.125000
G01 X52.933956 Y27.707539 Z-0.125000
G01 X53.378177 Y28.526537 Z-0.125000
G01 X53.733539 Y29.385012 Z-0.125000
G01 X53.987712 Y30.280816 Z-0.125000
G01 X54.128366 Y31.211800 Z-0.125000
G00 Z5.000000

(End cutting path id: path13989)


(Start cutting path id: path13941)
(Change tool to Default tool)

G00 Z5.000000
G00 X75.342677 Y57.086283

G01 Z-0.125000 F100.0(Penetrate)
G01 X74.150556 Y59.050572 Z-0.125000 F400.000000
G01 X72.958438 Y61.014859 Z-0.125000
G01 X71.766318 Y62.979148 Z-0.125000
G01 X70.574197 Y64.943437 Z-0.125000
G01 X69.382076 Y66.907726 Z-0.125000
G01 X68.189958 Y68.872013 Z-0.125000
G01 X66.997837 Y70.836302 Z-0.125000
G01 X65.805716 Y72.800591 Z-0.125000
G01 X65.393791 Y72.686509 Z-0.125000
G01 X65.115754 Y72.453831 Z-0.125000
G01 X64.943516 Y72.130108 Z-0.125000
G01 X64.848992 Y71.742893 Z-0.125000
G01 X64.804084 Y71.319738 Z-0.125000
G01 X64.780716 Y70.888192 Z-0.125000
G01 X64.750784 Y70.475814 Z-0.125000
G01 X64.686203 Y70.110150 Z-0.125000
G01 X64.481928 Y68.985579 Z-0.125000
G01 X64.261998 Y67.864034 Z-0.125000
G01 X64.030753 Y66.744664 Z-0.125000
G01 X63.792541 Y65.626621 Z-0.125000
G01 X63.551703 Y64.509061 Z-0.125000
G01 X63.312585 Y63.391128 Z-0.125000
G01 X63.079529 Y62.271975 Z-0.125000
G01 X62.856875 Y61.150754 Z-0.125000
G01 X62.741903 Y60.844145 Z-0.125000
G01 X62.678562 Y60.552178 Z-0.125000
G01 X62.671562 Y60.282283 Z-0.125000
G01 X62.725616 Y60.041892 Z-0.125000
G01 X62.845434 Y59.838435 Z-0.125000
G01 X63.035722 Y59.679341 Z-0.125000
G01 X63.301192 Y59.572040 Z-0.125000
G01 X63.646553 Y59.523961 Z-0.125000
G01 X64.864085 Y59.283019 Z-0.125000
G01 X66.080609 Y59.035298 Z-0.125000
G01 X67.296380 Y58.782484 Z-0.125000
G01 X68.511655 Y58.526249 Z-0.125000
G01 X69.726692 Y58.268278 Z-0.125000
G01 X70.941752 Y58.010250 Z-0.125000
G01 X72.157088 Y57.753843 Z-0.125000
G01 X73.372958 Y57.500738 Z-0.125000
G01 X73.619174 Y57.448930 Z-0.125000
G01 X73.865388 Y57.397125 Z-0.125000
G01 X74.111604 Y57.345318 Z-0.125000
G01 X74.357817 Y57.293510 Z-0.125000
G01 X74.604034 Y57.241703 Z-0.125000
G01 X74.850250 Y57.189895 Z-0.125000
G01 X75.096464 Y57.138091 Z-0.125000
G01 X75.342677 Y57.086283 Z-0.125000
G00 Z5.000000

(End cutting path id: path13941)


(Start cutting path id: path13943)
(Change tool to Default tool)

G00 Z5.000000
G00 X86.315597 Y54.783324

G01 Z-0.125000 F100.0(Penetrate)
G01 X85.096764 Y56.779135 Z-0.125000 F400.000000
G01 X83.888314 Y58.782769 Z-0.125000
G01 X82.686729 Y60.791751 Z-0.125000
G01 X81.488492 Y62.803609 Z-0.125000
G01 X80.290083 Y64.815870 Z-0.125000
G01 X79.087986 Y66.826060 Z-0.125000
G01 X77.878681 Y68.831706 Z-0.125000
G01 X76.658651 Y70.830336 Z-0.125000
G01 X75.424380 Y72.819478 Z-0.125000
G01 X74.172349 Y74.796657 Z-0.125000
G01 X72.899042 Y76.759401 Z-0.125000
G01 X71.600935 Y78.705237 Z-0.125000
G01 X70.274516 Y80.631693 Z-0.125000
G01 X68.916265 Y82.536295 Z-0.125000
G01 X67.522663 Y84.416569 Z-0.125000
G01 X66.090194 Y86.270045 Z-0.125000
G01 X65.675502 Y86.807035 Z-0.125000
G01 X65.208577 Y87.227289 Z-0.125000
G01 X64.699899 Y87.536420 Z-0.125000
G01 X64.159957 Y87.740041 Z-0.125000
G01 X63.599238 Y87.843767 Z-0.125000
G01 X63.028226 Y87.853210 Z-0.125000
G01 X62.457412 Y87.773984 Z-0.125000
G01 X61.897280 Y87.611702 Z-0.125000
G01 X61.358312 Y87.371979 Z-0.125000
G01 X60.851000 Y87.060427 Z-0.125000
G01 X60.385828 Y86.682660 Z-0.125000
G01 X59.973284 Y86.244291 Z-0.125000
G01 X59.623850 Y85.750934 Z-0.125000
G01 X59.348018 Y85.208203 Z-0.125000
G01 X59.156270 Y84.621711 Z-0.125000
G01 X59.059093 Y83.997072 Z-0.125000
G01 X58.731334 Y82.490227 Z-0.125000
G01 X58.425007 Y80.978729 Z-0.125000
G01 X58.136071 Y79.463456 Z-0.125000
G01 X57.860492 Y77.945288 Z-0.125000
G01 X57.594235 Y76.425103 Z-0.125000
G01 X57.333259 Y74.903780 Z-0.125000
G01 X57.073527 Y73.382198 Z-0.125000
G01 X56.811001 Y71.861235 Z-0.125000
G01 X56.541651 Y70.341770 Z-0.125000
G01 X56.261432 Y68.824681 Z-0.125000
G01 X55.966310 Y67.310847 Z-0.125000
G01 X55.652250 Y65.801150 Z-0.125000
G01 X55.315209 Y64.296465 Z-0.125000
G01 X54.951156 Y62.797671 Z-0.125000
G01 X54.556054 Y61.305646 Z-0.125000
G01 X54.125862 Y59.821273 Z-0.125000
G01 X53.890486 Y58.760891 Z-0.125000
G01 X53.661691 Y57.698965 Z-0.125000
G01 X53.437926 Y56.635865 Z-0.125000
G01 X53.217632 Y55.571960 Z-0.125000
G01 X52.999248 Y54.507624 Z-0.125000
G01 X52.781223 Y53.443223 Z-0.125000
G01 X52.561993 Y52.379130 Z-0.125000
G01 X52.340008 Y51.315711 Z-0.125000
G01 X52.113705 Y50.253336 Z-0.125000
G01 X51.881529 Y49.192375 Z-0.125000
G01 X51.641923 Y48.133201 Z-0.125000
G01 X51.393330 Y47.076182 Z-0.125000
G01 X51.134194 Y46.021687 Z-0.125000
G01 X50.862953 Y44.970088 Z-0.125000
G01 X50.578055 Y43.921751 Z-0.125000
G01 X50.277940 Y42.877049 Z-0.125000
G01 X50.150370 Y42.254887 Z-0.125000
G01 X49.986774 Y41.639366 Z-0.125000
G01 X49.794197 Y41.029281 Z-0.125000
G01 X49.579686 Y40.423429 Z-0.125000
G01 X49.350278 Y39.820605 Z-0.125000
G01 X49.113023 Y39.219610 Z-0.125000
G01 X48.874960 Y38.619241 Z-0.125000
G01 X48.643137 Y38.018294 Z-0.125000
G01 X48.424592 Y37.415566 Z-0.125000
G01 X48.226376 Y36.809858 Z-0.125000
G01 X48.055527 Y36.199962 Z-0.125000
G01 X47.919093 Y35.584678 Z-0.125000
G01 X47.824114 Y34.962801 Z-0.125000
G01 X47.777637 Y34.333132 Z-0.125000
G01 X47.786697 Y33.694469 Z-0.125000
G01 X47.858350 Y33.045603 Z-0.125000
G01 X47.987605 Y32.433049 Z-0.125000
G01 X48.210165 Y31.890773 Z-0.125000
G01 X48.514692 Y31.419309 Z-0.125000
G01 X48.889838 Y31.019205 Z-0.125000
G01 X49.324269 Y30.690992 Z-0.125000
G01 X49.806635 Y30.435212 Z-0.125000
G01 X50.325596 Y30.252405 Z-0.125000
G01 X50.869811 Y30.143106 Z-0.125000
G01 X51.427936 Y30.107856 Z-0.125000
G01 X51.988630 Y30.147195 Z-0.125000
G01 X52.540552 Y30.261659 Z-0.125000
G01 X53.072358 Y30.451789 Z-0.125000
G01 X53.572707 Y30.718122 Z-0.125000
G01 X54.030257 Y31.061200 Z-0.125000
G01 X54.433662 Y31.481559 Z-0.125000
G01 X54.771584 Y31.979738 Z-0.125000
G01 X55.169836 Y32.620379 Z-0.125000
G01 X55.540024 Y33.275377 Z-0.125000
G01 X55.884177 Y33.943488 Z-0.125000
G01 X56.204324 Y34.623474 Z-0.125000
G01 X56.502492 Y35.314092 Z-0.125000
G01 X56.780707 Y36.014104 Z-0.125000
G01 X57.040995 Y36.722268 Z-0.125000
G01 X57.285388 Y37.437345 Z-0.125000
G01 X57.515910 Y38.158093 Z-0.125000
G01 X57.734590 Y38.883271 Z-0.125000
G01 X57.943454 Y39.611639 Z-0.125000
G01 X58.144529 Y40.341957 Z-0.125000
G01 X58.339846 Y41.072983 Z-0.125000
G01 X58.531430 Y41.803478 Z-0.125000
G01 X58.721309 Y42.532201 Z-0.125000
G01 X58.911510 Y43.257913 Z-0.125000
G01 X59.025892 Y43.743454 Z-0.125000
G01 X59.138786 Y44.229370 Z-0.125000
G01 X59.249830 Y44.715710 Z-0.125000
G01 X59.358657 Y45.202523 Z-0.125000
G01 X59.464908 Y45.689856 Z-0.125000
G01 X59.568221 Y46.177756 Z-0.125000
G01 X59.668233 Y46.666274 Z-0.125000
G01 X59.764580 Y47.155456 Z-0.125000
G01 X59.856898 Y47.645351 Z-0.125000
G01 X59.944827 Y48.136006 Z-0.125000
G01 X60.028001 Y48.627468 Z-0.125000
G01 X60.106061 Y49.119787 Z-0.125000
G01 X60.178643 Y49.613010 Z-0.125000
G01 X60.245383 Y50.107187 Z-0.125000
G01 X60.305919 Y50.602366 Z-0.125000
G01 X60.359889 Y51.098591 Z-0.125000
G01 X61.610596 Y50.851805 Z-0.125000
G01 X62.861806 Y50.607559 Z-0.125000
G01 X64.113419 Y50.365358 Z-0.125000
G01 X65.365340 Y50.124702 Z-0.125000
G01 X66.617467 Y49.885092 Z-0.125000
G01 X67.869704 Y49.646030 Z-0.125000
G01 X69.121946 Y49.407013 Z-0.125000
G01 X70.374098 Y49.167548 Z-0.125000
G01 X71.626064 Y48.927131 Z-0.125000
G01 X72.877740 Y48.685267 Z-0.125000
G01 X74.129028 Y48.441452 Z-0.125000
G01 X75.379832 Y48.195194 Z-0.125000
G01 X76.630051 Y47.945986 Z-0.125000
G01 X77.879584 Y47.693335 Z-0.125000
G01 X79.128335 Y47.436738 Z-0.125000
G01 X80.376204 Y47.175700 Z-0.125000
G01 X80.735241 Y46.718042 Z-0.125000
G01 X81.065500 Y46.243898 Z-0.125000
G01 X81.370261 Y45.755126 Z-0.125000
G01 X81.652810 Y45.253597 Z-0.125000
G01 X81.916431 Y44.741169 Z-0.125000
G01 X82.164406 Y44.219707 Z-0.125000
G01 X82.400020 Y43.691079 Z-0.125000
G01 X82.626556 Y43.157143 Z-0.125000
G01 X82.847300 Y42.619769 Z-0.125000
G01 X83.065534 Y42.080815 Z-0.125000
G01 X83.284543 Y41.542149 Z-0.125000
G01 X83.507609 Y41.005633 Z-0.125000
G01 X83.738018 Y40.473134 Z-0.125000
G01 X83.979053 Y39.946510 Z-0.125000
G01 X84.233998 Y39.427630 Z-0.125000
G01 X84.506136 Y38.918357 Z-0.125000
G01 X84.822675 Y38.352953 Z-0.125000
G01 X85.115268 Y37.746641 Z-0.125000
G01 X85.391093 Y37.109222 Z-0.125000
G01 X85.657325 Y36.450513 Z-0.125000
G01 X85.921143 Y35.780314 Z-0.125000
G01 X86.189723 Y35.108436 Z-0.125000
G01 X86.470242 Y34.444692 Z-0.125000
G01 X86.769876 Y33.798883 Z-0.125000
G01 X87.095803 Y33.180822 Z-0.125000
G01 X87.455199 Y32.600313 Z-0.125000
G01 X87.855242 Y32.067170 Z-0.125000
G01 X88.303107 Y31.591197 Z-0.125000
G01 X88.805973 Y31.182203 Z-0.125000
G01 X89.371016 Y30.849996 Z-0.125000
G01 X90.005412 Y30.604384 Z-0.125000
G01 X90.716339 Y30.455179 Z-0.125000
G01 X91.322040 Y30.438584 Z-0.125000
G01 X91.885966 Y30.506171 Z-0.125000
G01 X92.406064 Y30.650948 Z-0.125000
G01 X92.880283 Y30.865931 Z-0.125000
G01 X93.306569 Y31.144134 Z-0.125000
G01 X93.682873 Y31.478570 Z-0.125000
G01 X94.007140 Y31.862257 Z-0.125000
G01 X94.277320 Y32.288206 Z-0.125000
G01 X94.491360 Y32.749431 Z-0.125000
G01 X94.647208 Y33.238951 Z-0.125000
G01 X94.742813 Y33.749776 Z-0.125000
G01 X94.776121 Y34.274921 Z-0.125000
G01 X94.745081 Y34.807401 Z-0.125000
G01 X94.647642 Y35.340231 Z-0.125000
G01 X94.481750 Y35.866423 Z-0.125000
G01 X94.245354 Y36.378995 Z-0.125000
G01 X93.988939 Y37.181686 Z-0.125000
G01 X93.707001 Y37.975537 Z-0.125000
G01 X93.403805 Y38.762000 Z-0.125000
G01 X93.083615 Y39.542520 Z-0.125000
G01 X92.750692 Y40.318549 Z-0.125000
G01 X92.409302 Y41.091530 Z-0.125000
G01 X92.063706 Y41.862914 Z-0.125000
G01 X91.718169 Y42.634151 Z-0.125000
G01 X91.376953 Y43.406687 Z-0.125000
G01 X91.044323 Y44.181974 Z-0.125000
G01 X90.724540 Y44.961455 Z-0.125000
G01 X90.421870 Y45.746580 Z-0.125000
G01 X90.140575 Y46.538800 Z-0.125000
G01 X89.884918 Y47.339561 Z-0.125000
G01 X89.659162 Y48.150312 Z-0.125000
G01 X89.467572 Y48.972501 Z-0.125000
G01 X89.568842 Y49.439689 Z-0.125000
G01 X89.633684 Y49.900234 Z-0.125000
G01 X89.661881 Y50.352246 Z-0.125000
G01 X89.653214 Y50.793834 Z-0.125000
G01 X89.607465 Y51.223097 Z-0.125000
G01 X89.524417 Y51.638147 Z-0.125000
G01 X89.403850 Y52.037088 Z-0.125000
G01 X89.245547 Y52.418025 Z-0.125000
G01 X89.049290 Y52.779070 Z-0.125000
G01 X88.814861 Y53.118320 Z-0.125000
G01 X88.542042 Y53.433890 Z-0.125000
G01 X88.230614 Y53.723879 Z-0.125000
G01 X87.880360 Y53.986399 Z-0.125000
G01 X87.491061 Y54.219554 Z-0.125000
G01 X87.062499 Y54.421450 Z-0.125000
G01 X86.594456 Y54.590194 Z-0.125000
G01 X86.577026 Y54.602273 Z-0.125000
G01 X86.559596 Y54.614352 Z-0.125000
G01 X86.542166 Y54.626431 Z-0.125000
G01 X86.524736 Y54.638510 Z-0.125000
G01 X86.507306 Y54.650590 Z-0.125000
G01 X86.489876 Y54.662669 Z-0.125000
G01 X86.472446 Y54.674748 Z-0.125000
G01 X86.455016 Y54.686827 Z-0.125000
G01 X86.437586 Y54.698906 Z-0.125000
G01 X86.420156 Y54.710985 Z-0.125000
G01 X86.402726 Y54.723064 Z-0.125000
G01 X86.385296 Y54.735143 Z-0.125000
G01 X86.367866 Y54.747222 Z-0.125000
G01 X86.350436 Y54.759302 Z-0.125000
G01 X86.333006 Y54.771381 Z-0.125000
G01 X86.315576 Y54.783460 Z-0.125000
G01 X86.315576 Y54.783460 Z-0.125000
G01 X86.315576 Y54.783460 Z-0.125000
G01 X86.315576 Y54.783460 Z-0.125000
G01 X86.315576 Y54.783460 Z-0.125000
G01 X86.315576 Y54.783460 Z-0.125000
G01 X86.315576 Y54.783460 Z-0.125000
G01 X86.315576 Y54.783460 Z-0.125000
G01 X86.315576 Y54.783460 Z-0.125000
G01 X86.315576 Y54.783460 Z-0.125000
G01 X86.315576 Y54.783460 Z-0.125000
G01 X86.315576 Y54.783460 Z-0.125000
G01 X86.315576 Y54.783460 Z-0.125000
G01 X86.315576 Y54.783460 Z-0.125000
G01 X86.315576 Y54.783460 Z-0.125000
G01 X86.315576 Y54.783460 Z-0.125000
G01 X86.315597 Y54.783324 Z-0.125000
G00 Z5.000000

(End cutting path id: path13943)


(Footer)
M5
G00 X0.0000 Y0.0000
M2
(Using default footer. To add your own footer create file "footer" in the output dir.)
(end)
%