%
(Header)
(Generated by gcodetools from Inkscape.)
(Using default header. To add your own header create file "header" in the output dir.)
M3
(Header end.)
G21 (All units in mm)

(Start cutting path id: path3372)
(Change tool to Cylindrical cutter)

G00 Z5.000000
G00 X58.345877 Y3.264129

G01 Z-0.125000 F100.0(Penetrate)
G01 X58.309505 Y3.452340 Z-0.125000 F400.000000
G01 X57.498161 Y3.557750 Z-0.125000
G01 X55.766612 Y3.588108 Z-0.125000
G01 X52.969620 Y3.551171 Z-0.125000
G01 X50.669210 Y3.527352 Z-0.125000
G01 X48.771195 Y3.550381 Z-0.125000
G01 X47.472442 Y3.614872 Z-0.125000
G01 X46.969824 Y3.715422 Z-0.125000
G01 X46.313844 Y4.053899 Z-0.125000
G01 X45.014617 Y4.298868 Z-0.125000
G01 X43.716245 Y4.371566 Z-0.125000
G01 X43.062827 Y4.193218 Z-0.125000
G01 X42.960544 Y4.066049 Z-0.125000
G01 X42.788428 Y4.055353 Z-0.125000
G01 X42.552262 Y4.159792 Z-0.125000
G01 X42.257836 Y4.378040 Z-0.125000
G01 X41.963371 Y4.587288 Z-0.125000
G01 X41.656082 Y4.734676 Z-0.125000
G01 X41.372367 Y4.806696 Z-0.125000
G01 X41.148618 Y4.789819 Z-0.125000
G01 X40.884458 Y4.785473 Z-0.125000
G01 X40.490705 Y4.891569 Z-0.125000
G01 X40.020562 Y5.089392 Z-0.125000
G01 X39.527232 Y5.360230 Z-0.125000
G01 X38.967151 Y5.656648 Z-0.125000
G01 X38.315262 Y5.924127 Z-0.125000
G01 X37.652526 Y6.133313 Z-0.125000
G01 X37.059901 Y6.254852 Z-0.125000
G01 X36.525460 Y6.347689 Z-0.125000
G01 X36.021134 Y6.478724 Z-0.125000
G01 X35.603691 Y6.630543 Z-0.125000
G01 X35.329899 Y6.785720 Z-0.125000
G01 X34.108227 Y7.516489 Z-0.125000
G01 X32.036413 Y8.588894 Z-0.125000
G01 X30.007340 Y9.558359 Z-0.125000
G01 X28.913893 Y9.980329 Z-0.125000
G01 X28.687517 Y10.063838 Z-0.125000
G01 X28.352073 Y10.291214 Z-0.125000
G01 X27.952807 Y10.627733 Z-0.125000
G01 X27.534966 Y11.038662 Z-0.125000
G01 X26.823379 Y11.700118 Z-0.125000
G01 X26.270870 Y12.053615 Z-0.125000
G01 X25.984527 Y12.053897 Z-0.125000
G01 X26.071454 Y11.655944 Z-0.125000
G01 X26.065471 Y11.589111 Z-0.125000
G01 X25.884488 Y11.733118 Z-0.125000
G01 X25.559661 Y12.059028 Z-0.125000
G01 X25.122138 Y12.537903 Z-0.125000
G01 X24.630696 Y13.051573 Z-0.125000
G01 X24.159060 Y13.472219 Z-0.125000
G01 X23.760802 Y13.756440 Z-0.125000
G01 X23.489491 Y13.860820 Z-0.125000
G01 X22.081492 Y14.964345 Z-0.125000
G01 X19.537928 Y17.435333 Z-0.125000
G01 X17.100911 Y20.014359 Z-0.125000
G01 X16.012546 Y21.441997 Z-0.125000
G01 X15.929037 Y21.677958 Z-0.125000
G01 X15.701661 Y22.012848 Z-0.125000
G01 X15.365145 Y22.402078 Z-0.125000
G01 X14.954213 Y22.801050 Z-0.125000
G01 X14.543283 Y23.198486 Z-0.125000
G01 X14.206767 Y23.583530 Z-0.125000
G01 X13.979389 Y23.912235 Z-0.125000
G01 X13.895879 Y24.140637 Z-0.125000
G01 X13.836415 Y24.390852 Z-0.125000
G01 X13.674502 Y24.778942 Z-0.125000
G01 X13.434872 Y25.251881 Z-0.125000
G01 X13.142250 Y25.756644 Z-0.125000
G01 X12.763965 Y26.319856 Z-0.125000
G01 X12.477202 Y26.617840 Z-0.125000
G01 X12.250733 Y26.672024 Z-0.125000
G01 X12.053316 Y26.503842 Z-0.125000
G01 X11.909535 Y26.332087 Z-0.125000
G01 X11.836374 Y26.326245 Z-0.125000
G01 X11.831661 Y26.490761 Z-0.125000
G01 X11.893205 Y26.830068 Z-0.125000
G01 X11.902773 Y27.273846 Z-0.125000
G01 X11.741082 Y27.780847 Z-0.125000
G01 X11.398526 Y28.372017 Z-0.125000
G01 X10.865490 Y29.068311 Z-0.125000
G01 X10.398418 Y29.691996 Z-0.125000
G01 X10.015928 Y30.325800 Z-0.125000
G01 X9.757486 Y30.895603 Z-0.125000
G01 X9.662569 Y31.327279 Z-0.125000
G01 X9.631253 Y31.655786 Z-0.125000
G01 X9.545986 Y31.944677 Z-0.125000
G01 X9.419793 Y32.162733 Z-0.125000
G01 X9.265694 Y32.278738 Z-0.125000
G01 X9.111595 Y32.405495 Z-0.125000
G01 X8.985402 Y32.652832 Z-0.125000
G01 X8.900134 Y32.985053 Z-0.125000
G01 X8.868819 Y33.366473 Z-0.125000
G01 X8.846326 Y33.737451 Z-0.125000
G01 X8.785114 Y34.041250 Z-0.125000
G01 X8.694524 Y34.246521 Z-0.125000
G01 X8.583898 Y34.321911 Z-0.125000
G01 X8.301185 Y34.554513 Z-0.125000
G01 X8.037849 Y35.115444 Z-0.125000
G01 X7.865711 Y35.799384 Z-0.125000
G01 X7.856595 Y36.401014 Z-0.125000
G01 X7.865090 Y36.609734 Z-0.125000
G01 X7.817101 Y36.814622 Z-0.125000
G01 X7.721461 Y36.992131 Z-0.125000
G01 X7.587016 Y37.118708 Z-0.125000
G01 X7.432807 Y37.330801 Z-0.125000
G01 X7.283362 Y37.741146 Z-0.125000
G01 X7.155741 Y38.290636 Z-0.125000
G01 X7.067008 Y38.920161 Z-0.125000
G01 X6.874311 Y40.408313 Z-0.125000
G01 X6.622630 Y41.592229 Z-0.125000
G01 X6.324449 Y42.426103 Z-0.125000
G01 X5.992252 Y42.864117 Z-0.125000
G01 X5.708933 Y45.032482 Z-0.125000
G01 X5.642075 Y49.778649 Z-0.125000
G01 X5.778895 Y55.237900 Z-0.125000
G01 X6.106609 Y59.545522 Z-0.125000
G01 X6.315395 Y60.917498 Z-0.125000
G01 X6.567759 Y62.306008 Z-0.125000
G01 X6.831892 Y63.549000 Z-0.125000
G01 X7.075988 Y64.484411 Z-0.125000
G01 X8.058542 Y67.988101 Z-0.125000
G01 X9.332507 Y71.264007 Z-0.125000
G01 X10.783076 Y74.338611 Z-0.125000
G01 X12.295440 Y77.238398 Z-0.125000
G01 X12.641944 Y77.866778 Z-0.125000
G01 X13.073382 Y78.574480 Z-0.125000
G01 X13.534773 Y79.274795 Z-0.125000
G01 X13.971134 Y79.881011 Z-0.125000
G01 X15.120120 Y82.025582 Z-0.125000
G01 X16.634824 Y83.857802 Z-0.125000
G01 X18.359359 Y85.531501 Z-0.125000
G01 X20.137836 Y87.200510 Z-0.125000
G01 X21.947671 Y88.976555 Z-0.125000
G01 X23.535761 Y90.450260 Z-0.125000
G01 X24.730718 Y91.468182 Z-0.125000
G01 X25.361152 Y91.876877 Z-0.125000
G01 X25.662892 Y91.989882 Z-0.125000
G01 X25.962886 Y92.202710 Z-0.125000
G01 X26.226434 Y92.484877 Z-0.125000
G01 X26.418825 Y92.805899 Z-0.125000
G01 X26.597353 Y93.107480 Z-0.125000
G01 X26.823145 Y93.336714 Z-0.125000
G01 X27.067264 Y93.471202 Z-0.125000
G01 X27.300769 Y93.488544 Z-0.125000
G01 X27.645673 Y93.528873 Z-0.125000
G01 X28.193102 Y93.725951 Z-0.125000
G01 X28.867794 Y94.047819 Z-0.125000
G01 X29.594488 Y94.462517 Z-0.125000
G01 X31.307766 Y95.429020 Z-0.125000
G01 X33.332231 Y96.416078 Z-0.125000
G01 X35.516792 Y97.354569 Z-0.125000
G01 X37.710364 Y98.175374 Z-0.125000
G01 X38.515358 Y98.481885 Z-0.125000
G01 X39.260351 Y98.818668 Z-0.125000
G01 X39.862396 Y99.144893 Z-0.125000
G01 X40.238533 Y99.419728 Z-0.125000
G01 X40.477068 Y99.615971 Z-0.125000
G01 X40.704454 Y99.728206 Z-0.125000
G01 X40.894954 Y99.748286 Z-0.125000
G01 X41.022838 Y99.668062 Z-0.125000
G01 X41.344280 Y99.584833 Z-0.125000
G01 X42.069038 Y99.612742 Z-0.125000
G01 X43.117776 Y99.744637 Z-0.125000
G01 X44.411155 Y99.973369 Z-0.125000
G01 X48.083817 Y100.410408 Z-0.125000
G01 X52.873597 Y100.620110 Z-0.125000
G01 X57.692691 Y100.582943 Z-0.125000
G01 X61.453302 Y100.279373 Z-0.125000
G01 X64.163595 Y100.029708 Z-0.125000
G01 X66.451743 Y99.477430 Z-0.125000
G01 X68.442578 Y98.795843 Z-0.125000
G01 X70.260939 Y98.158246 Z-0.125000
G01 X71.142561 Y97.865175 Z-0.125000
G01 X72.050024 Y97.600936 Z-0.125000
G01 X72.876537 Y97.394513 Z-0.125000
G01 X73.515322 Y97.274893 Z-0.125000
G01 X74.040958 Y97.156681 Z-0.125000
G01 X74.559398 Y96.954094 Z-0.125000
G01 X75.010908 Y96.695532 Z-0.125000
G01 X75.335757 Y96.409394 Z-0.125000
G01 X75.608305 Y96.135987 Z-0.125000
G01 X75.917411 Y95.912091 Z-0.125000
G01 X76.225090 Y95.760809 Z-0.125000
G01 X76.493359 Y95.705248 Z-0.125000
G01 X76.731433 Y95.663493 Z-0.125000
G01 X76.956901 Y95.549805 Z-0.125000
G01 X77.144333 Y95.381547 Z-0.125000
G01 X77.268302 Y95.176081 Z-0.125000
G01 X77.371465 Y94.970616 Z-0.125000
G01 X77.502244 Y94.802357 Z-0.125000
G01 X77.643863 Y94.688669 Z-0.125000
G01 X77.779547 Y94.646915 Z-0.125000
G01 X78.051514 Y94.549487 Z-0.125000
G01 X78.564196 Y94.284215 Z-0.125000
G01 X79.244145 Y93.891612 Z-0.125000
G01 X80.017917 Y93.412192 Z-0.125000
G01 X80.796543 Y92.932773 Z-0.125000
G01 X81.489711 Y92.540170 Z-0.125000
G01 X82.021960 Y92.274897 Z-0.125000
G01 X82.317819 Y92.177470 Z-0.125000
G01 X82.461374 Y92.148213 Z-0.125000
G01 X82.578937 Y92.068553 Z-0.125000
G01 X82.658371 Y91.950657 Z-0.125000
G01 X82.687544 Y91.806691 Z-0.125000
G01 X82.784970 Y91.622017 Z-0.125000
G01 X83.050245 Y91.393283 Z-0.125000
G01 X83.442847 Y91.149583 Z-0.125000
G01 X83.922267 Y90.920012 Z-0.125000
G01 X84.401686 Y90.691743 Z-0.125000
G01 X84.794288 Y90.451587 Z-0.125000
G01 X85.059563 Y90.228099 Z-0.125000
G01 X85.156989 Y90.049831 Z-0.125000
G01 X85.353452 Y89.726936 Z-0.125000
G01 X85.888379 Y89.109663 Z-0.125000
G01 X86.680069 Y88.286707 Z-0.125000
G01 X87.646827 Y87.346763 Z-0.125000
G01 X89.143290 Y85.844945 Z-0.125000
G01 X90.675548 Y84.095876 Z-0.125000
G01 X92.431848 Y81.872135 Z-0.125000
G01 X94.600444 Y78.946302 Z-0.125000
G01 X95.483697 Y77.437538 Z-0.125000
G01 X96.829065 Y74.890729 Z-0.125000
G01 X98.148237 Y72.255541 Z-0.125000
G01 X98.952903 Y70.481636 Z-0.125000
G01 X99.450119 Y69.116161 Z-0.125000
G01 X100.046932 Y67.385278 Z-0.125000
G01 X100.618011 Y65.589060 Z-0.125000
G01 X101.038026 Y64.027578 Z-0.125000
G01 X101.961719 Y58.658108 Z-0.125000
G01 X102.256291 Y55.744350 Z-0.125000
G01 X102.213540 Y53.889366 Z-0.125000
G01 X102.125258 Y51.696220 Z-0.125000
G01 X102.096737 Y49.808376 Z-0.125000
G01 X101.991841 Y47.732431 Z-0.125000
G01 X101.827175 Y45.720150 Z-0.125000
G01 X101.619341 Y44.023303 Z-0.125000
G01 X101.096392 Y41.288208 Z-0.125000
G01 X100.372850 Y38.317515 Z-0.125000
G01 X99.590319 Y35.642076 Z-0.125000
G01 X98.890399 Y33.792747 Z-0.125000
G01 X98.746663 Y33.463120 Z-0.125000
G01 X98.608535 Y33.087192 Z-0.125000
G01 X98.491715 Y32.711263 Z-0.125000
G01 X98.411905 Y32.381636 Z-0.125000
G01 X98.155332 Y31.202102 Z-0.125000
G01 X97.898346 Y30.340444 Z-0.125000
G01 X97.631437 Y29.770649 Z-0.125000
G01 X97.345091 Y29.466715 Z-0.125000
G01 X96.621911 Y28.650893 Z-0.125000
G01 X95.642922 Y27.195354 Z-0.125000
G01 X94.822287 Y25.764397 Z-0.125000
G01 X94.574177 Y25.022319 Z-0.125000
G01 X94.559135 Y24.856821 Z-0.125000
G01 X94.374959 Y24.549436 Z-0.125000
G01 X94.052831 Y24.144058 Z-0.125000
G01 X93.623926 Y23.684577 Z-0.125000
G01 X93.152545 Y23.162387 Z-0.125000
G01 X92.714756 Y22.586259 Z-0.125000
G01 X92.359407 Y22.026166 Z-0.125000
G01 X92.135340 Y21.552081 Z-0.125000
G01 X91.967632 Y21.168264 Z-0.125000
G01 X91.765733 Y20.853953 Z-0.125000
G01 X91.555051 Y20.641578 Z-0.125000
G01 X91.360998 Y20.563580 Z-0.125000
G01 X90.730181 Y20.190855 Z-0.125000
G01 X89.866236 Y19.350609 Z-0.125000
G01 X89.149762 Y18.459738 Z-0.125000
G01 X88.961364 Y17.935129 Z-0.125000
G01 X88.920685 Y17.570055 Z-0.125000
G01 X88.515848 Y17.055409 Z-0.125000
G01 X87.969700 Y16.614992 Z-0.125000
G01 X87.505092 Y16.472608 Z-0.125000
G01 X87.369320 Y16.497162 Z-0.125000
G01 X87.301121 Y16.493973 Z-0.125000
G01 X87.304480 Y16.465000 Z-0.125000
G01 X87.383406 Y16.412227 Z-0.125000
G01 X87.438739 Y16.067888 Z-0.125000
G01 X86.989909 Y15.537804 Z-0.125000
G01 X86.214656 Y14.979944 Z-0.125000
G01 X85.290711 Y14.552275 Z-0.125000
G01 X84.827706 Y14.366881 Z-0.125000
G01 X84.448261 Y14.152925 Z-0.125000
G01 X84.191555 Y13.936887 Z-0.125000
G01 X84.096759 Y13.745247 Z-0.125000
G01 X83.522868 Y13.047032 Z-0.125000
G01 X82.201775 Y11.973371 Z-0.125000
G01 X80.729904 Y10.968155 Z-0.125000
G01 X79.703674 Y10.475285 Z-0.125000
G01 X79.205351 Y10.284215 Z-0.125000
G01 X78.254440 Y9.823554 Z-0.125000
G01 X76.987527 Y9.162392 Z-0.125000
G01 X75.541192 Y8.369808 Z-0.125000
G01 X74.096429 Y7.585552 Z-0.125000
G01 X72.833801 Y6.947058 Z-0.125000
G01 X71.889231 Y6.519954 Z-0.125000
G01 X71.398647 Y6.369860 Z-0.125000
G01 X70.699571 Y6.277480 Z-0.125000
G01 X69.885501 Y6.015335 Z-0.125000
G01 X69.210646 Y5.684641 Z-0.125000
G01 X68.929202 Y5.386612 Z-0.125000
G01 X68.830343 Y5.279952 Z-0.125000
G01 X68.561168 Y5.192604 Z-0.125000
G01 X68.162791 Y5.133586 Z-0.125000
G01 X67.676322 Y5.111911 Z-0.125000
G01 X66.593591 Y4.998534 Z-0.125000
G01 X65.510227 Y4.715143 Z-0.125000
G01 X64.676605 Y4.346854 Z-0.125000
G01 X64.343091 Y3.978780 Z-0.125000
G01 X64.141277 Y3.860882 Z-0.125000
G01 X63.591785 Y3.740517 Z-0.125000
G01 X62.778536 Y3.631791 Z-0.125000
G01 X61.785452 Y3.548815 Z-0.125000
G01 X60.736695 Y3.466259 Z-0.125000
G01 X59.771862 Y3.358684 Z-0.125000
G01 X58.998025 Y3.240021 Z-0.125000
G01 X58.522258 Y3.124203 Z-0.125000
G01 X58.188660 Y3.006776 Z-0.125000
G01 X58.053216 Y2.986851 Z-0.125000
G01 X58.108198 Y3.070564 Z-0.125000
G01 X58.345877 Y3.264129 Z-0.125000
G00 Z5.000000

(Change tool to Cylindrical cutter)

G00 Z5.000000
G00 X60.815322 Y4.716673

G01 Z-0.125000 F100.0(Penetrate)
G01 X65.096915 Y5.548554 Z-0.125000 F400.000000
G01 X69.452733 Y6.879424 Z-0.125000
G01 X73.943665 Y8.731182 Z-0.125000
G01 X78.630600 Y11.125742 Z-0.125000
G01 X80.044474 Y11.937760 Z-0.125000
G01 X81.218795 Y12.734349 Z-0.125000
G01 X82.677232 Y13.907248 Z-0.125000
G01 X84.943462 Y15.848209 Z-0.125000
G01 X93.263035 Y25.307959 Z-0.125000
G01 X98.909627 Y36.570059 Z-0.125000
G01 X101.541191 Y48.669248 Z-0.125000
G01 X100.815688 Y60.640274 Z-0.125000
G01 X100.597031 Y61.654594 Z-0.125000
G01 X100.392614 Y62.617729 Z-0.125000
G01 X100.225330 Y63.420899 Z-0.125000
G01 X100.118066 Y63.955329 Z-0.125000
G01 X99.136807 Y67.251961 Z-0.125000
G01 X97.493475 Y71.467238 Z-0.125000
G01 X95.776334 Y75.208359 Z-0.125000
G01 X94.573647 Y77.082530 Z-0.125000
G01 X94.430413 Y77.186840 Z-0.125000
G01 X94.351504 Y77.273074 Z-0.125000
G01 X94.342360 Y77.332274 Z-0.125000
G01 X94.408380 Y77.355484 Z-0.125000
G01 X93.816176 Y78.522236 Z-0.125000
G01 X91.692141 Y81.273968 Z-0.125000
G01 X88.927452 Y84.517736 Z-0.125000
G01 X86.413295 Y87.160598 Z-0.125000
G01 X83.984525 Y89.252433 Z-0.125000
G01 X81.108646 Y91.468644 Z-0.125000
G01 X78.579007 Y93.226044 Z-0.125000
G01 X77.188941 Y93.941441 Z-0.125000
G01 X77.032226 Y93.991950 Z-0.125000
G01 X76.763220 Y94.129475 Z-0.125000
G01 X76.419643 Y94.333012 Z-0.125000
G01 X76.039224 Y94.581557 Z-0.125000
G01 X73.020332 Y96.141788 Z-0.125000
G01 X68.823262 Y97.690514 Z-0.125000
G01 X64.237108 Y98.973347 Z-0.125000
G01 X60.050968 Y99.735894 Z-0.125000
G01 X59.938774 Y99.767014 Z-0.125000
G01 X59.807151 Y99.832246 Z-0.125000
G01 X59.672494 Y99.922043 Z-0.125000
G01 X59.551203 Y100.026857 Z-0.125000
G01 X57.561856 Y100.229682 Z-0.125000
G01 X53.530306 Y100.285523 Z-0.125000
G01 X49.525126 Y100.201607 Z-0.125000
G01 X47.614891 Y99.985162 Z-0.125000
G01 X47.404644 Y99.848099 Z-0.125000
G01 X46.972119 Y99.701320 Z-0.125000
G01 X46.380392 Y99.562417 Z-0.125000
G01 X45.692540 Y99.448984 Z-0.125000
G01 X42.019663 Y98.647297 Z-0.125000
G01 X37.753674 Y97.232891 Z-0.125000
G01 X33.476701 Y95.425317 Z-0.125000
G01 X29.770877 Y93.444125 Z-0.125000
G01 X25.420291 Y90.452253 Z-0.125000
G01 X21.416639 Y87.113859 Z-0.125000
G01 X17.974132 Y83.625344 Z-0.125000
G01 X15.306988 Y80.183108 Z-0.125000
G01 X15.043912 Y79.798366 Z-0.125000
G01 X14.718792 Y79.344928 Z-0.125000
G01 X14.372948 Y78.879387 Z-0.125000
G01 X14.047704 Y78.458338 Z-0.125000
G01 X13.005968 Y76.734754 Z-0.125000
G01 X11.534859 Y73.920198 Z-0.125000
G01 X10.186921 Y71.115973 Z-0.125000
G01 X9.514701 Y69.423385 Z-0.125000
G01 X9.403576 Y69.003924 Z-0.125000
G01 X9.202781 Y68.383402 Z-0.125000
G01 X8.940808 Y67.645469 Z-0.125000
G01 X8.646162 Y66.873792 Z-0.125000
G01 X7.452227 Y62.674303 Z-0.125000
G01 X6.630094 Y57.475436 Z-0.125000
G01 X6.281587 Y52.189186 Z-0.125000
G01 X6.508529 Y47.727551 Z-0.125000
G01 X6.635056 Y46.844927 Z-0.125000
G01 X6.769464 Y45.876061 Z-0.125000
G01 X6.895701 Y44.938363 Z-0.125000
G01 X6.997716 Y44.149250 Z-0.125000
G01 X7.586048 Y41.111074 Z-0.125000
G01 X8.569770 Y37.519085 Z-0.125000
G01 X9.719674 Y34.123904 Z-0.125000
G01 X10.806545 Y31.676162 Z-0.125000
G01 X11.026408 Y31.282496 Z-0.125000
G01 X11.328848 Y30.732205 Z-0.125000
G01 X11.673986 Y30.098221 Z-0.125000
G01 X12.021941 Y29.453473 Z-0.125000
G01 X14.580624 Y25.338007 Z-0.125000
G01 X17.795700 Y21.146796 Z-0.125000
G01 X21.326410 Y17.286557 Z-0.125000
G01 X24.831988 Y14.164008 Z-0.125000
G01 X32.893294 Y9.146165 Z-0.125000
G01 X41.774412 Y5.847328 Z-0.125000
G01 X51.180151 Y4.344997 Z-0.125000
G01 X60.815322 Y4.716673 Z-0.125000
G00 Z5.000000

(Change tool to Cylindrical cutter)

G00 Z5.000000
G00 X62.755600 Y13.860885

G01 Z-0.125000 F100.0(Penetrate)
G01 X62.405097 Y13.980564 Z-0.125000 F400.000000
G01 X61.972323 Y14.082296 Z-0.125000
G01 X61.512264 Y14.155316 Z-0.125000
G01 X61.079905 Y14.188866 Z-0.125000
G01 X60.703218 Y14.226328 Z-0.125000
G01 X60.394743 Y14.310004 Z-0.125000
G01 X60.186316 Y14.427505 Z-0.125000
G01 X60.109766 Y14.566440 Z-0.125000
G01 X60.056412 Y14.703417 Z-0.125000
G01 X59.911144 Y14.815589 Z-0.125000
G01 X59.696147 Y14.891382 Z-0.125000
G01 X59.433607 Y14.919209 Z-0.125000
G01 X59.161790 Y14.940094 Z-0.125000
G01 X58.921529 Y14.996936 Z-0.125000
G01 X58.738872 Y15.081067 Z-0.125000
G01 X58.639857 Y15.183798 Z-0.125000
G01 X58.464194 Y15.351856 Z-0.125000
G01 X58.072822 Y15.613851 Z-0.125000
G01 X57.523668 Y15.933934 Z-0.125000
G01 X56.874653 Y16.276261 Z-0.125000
G01 X54.855655 Y17.604551 Z-0.125000
G01 X52.870354 Y19.489245 Z-0.125000
G01 X51.055262 Y21.780342 Z-0.125000
G01 X49.546891 Y24.327849 Z-0.125000
G01 X48.577379 Y26.458376 Z-0.125000
G01 X47.992829 Y28.403971 Z-0.125000
G01 X47.675349 Y30.721848 Z-0.125000
G01 X47.507051 Y33.969215 Z-0.125000
G01 X47.522009 Y37.368669 Z-0.125000
G01 X47.815142 Y40.431796 Z-0.125000
G01 X48.392357 Y43.198085 Z-0.125000
G01 X49.259550 Y45.707024 Z-0.125000
G01 X49.586750 Y46.588133 Z-0.125000
G01 X49.769226 Y47.381160 Z-0.125000
G01 X49.819024 Y48.167996 Z-0.125000
G01 X49.748178 Y49.030535 Z-0.125000
G01 X49.651274 Y49.676894 Z-0.125000
G01 X49.553580 Y50.224544 Z-0.125000
G01 X49.466481 Y50.615667 Z-0.125000
G01 X49.401355 Y50.792454 Z-0.125000
G01 X49.217575 Y50.811250 Z-0.125000
G01 X48.807407 Y50.772230 Z-0.125000
G01 X48.231572 Y50.683268 Z-0.125000
G01 X47.550793 Y50.552243 Z-0.125000
G01 X45.442892 Y50.118318 Z-0.125000
G01 X42.946662 Y49.617038 Z-0.125000
G01 X40.291896 Y49.094091 Z-0.125000
G01 X37.708391 Y48.595176 Z-0.125000
G01 X36.529067 Y48.360226 Z-0.125000
G01 X35.404312 Y48.118697 Z-0.125000
G01 X34.461459 Y47.898999 Z-0.125000
G01 X33.827836 Y47.729530 Z-0.125000
G01 X33.302603 Y47.584634 Z-0.125000
G01 X32.654870 Y47.431836 Z-0.125000
G01 X31.966888 Y47.289325 Z-0.125000
G01 X31.320924 Y47.175285 Z-0.125000
G01 X30.958779 Y47.118471 Z-0.125000
G01 X30.596634 Y47.061656 Z-0.125000
G01 X30.234489 Y47.004842 Z-0.125000
G01 X29.872345 Y46.948028 Z-0.125000
G01 X29.508809 Y46.088410 Z-0.125000
G01 X29.145273 Y45.228795 Z-0.125000
G01 X28.781736 Y44.369177 Z-0.125000
G01 X28.418200 Y43.509560 Z-0.125000
G01 X26.653919 Y39.495211 Z-0.125000
G01 X24.888644 Y35.735588 Z-0.125000
G01 X23.404751 Y32.811540 Z-0.125000
G01 X22.484613 Y31.303925 Z-0.125000
G01 X20.978526 Y30.208804 Z-0.125000
G01 X19.247578 Y29.857158 Z-0.125000
G01 X17.517753 Y30.246523 Z-0.125000
G01 X16.015041 Y31.374441 Z-0.125000
G01 X15.096732 Y32.904021 Z-0.125000
G01 X15.083552 Y34.927046 Z-0.125000
G01 X16.108039 Y38.128045 Z-0.125000
G01 X18.302700 Y43.191537 Z-0.125000
G01 X19.498422 Y45.886198 Z-0.125000
G01 X20.132914 Y47.581442 Z-0.125000
G01 X20.356731 Y48.785921 Z-0.125000
G01 X20.320434 Y50.008277 Z-0.125000
G01 X20.303162 Y51.608860 Z-0.125000
G01 X20.613621 Y52.774520 Z-0.125000
G01 X21.329943 Y53.661454 Z-0.125000
G01 X22.530265 Y54.425859 Z-0.125000
G01 X23.354368 Y54.936585 Z-0.125000
G01 X24.064355 Y55.628591 Z-0.125000
G01 X24.805377 Y56.675878 Z-0.125000
G01 X25.722597 Y58.252445 Z-0.125000
G01 X28.525216 Y63.167562 Z-0.125000
G01 X31.634842 Y68.398529 Z-0.125000
G01 X34.701861 Y73.367979 Z-0.125000
G01 X37.376662 Y77.498548 Z-0.125000
G01 X37.670275 Y77.937803 Z-0.125000
G01 X37.963712 Y78.380055 Z-0.125000
G01 X38.222942 Y78.773821 Z-0.125000
G01 X38.413930 Y79.067613 Z-0.125000
G01 X39.774523 Y81.123459 Z-0.125000
G01 X41.142974 Y83.073228 Z-0.125000
G01 X42.449457 Y84.820415 Z-0.125000
G01 X43.624145 Y86.268510 Z-0.125000
G01 X44.645177 Y87.419354 Z-0.125000
G01 X45.370863 Y88.023986 Z-0.125000
G01 X46.107353 Y88.257999 Z-0.125000
G01 X47.160770 Y88.296996 Z-0.125000
G01 X48.100240 Y88.257986 Z-0.125000
G01 X48.798842 Y88.115015 Z-0.125000
G01 X49.371978 Y87.829167 Z-0.125000
G01 X49.935060 Y87.361528 Z-0.125000
G01 X50.703827 Y86.244208 Z-0.125000
G01 X51.457163 Y83.858843 Z-0.125000
G01 X52.447981 Y79.181257 Z-0.125000
G01 X53.929193 Y71.187274 Z-0.125000
G01 X54.176865 Y69.870972 Z-0.125000
G01 X54.425966 Y68.634043 Z-0.125000
G01 X54.647508 Y67.615399 Z-0.125000
G01 X54.812509 Y66.953940 Z-0.125000
G01 X54.981568 Y66.299442 Z-0.125000
G01 X55.214165 Y65.299743 Z-0.125000
G01 X55.479623 Y64.090861 Z-0.125000
G01 X55.747271 Y62.808801 Z-0.125000
G01 X56.011640 Y61.610252 Z-0.125000
G01 X56.268166 Y60.628745 Z-0.125000
G01 X56.487543 Y59.965565 Z-0.125000
G01 X56.640462 Y59.721996 Z-0.125000
G01 X56.900045 Y59.815739 Z-0.125000
G01 X57.255233 Y60.143314 Z-0.125000
G01 X57.769055 Y60.774250 Z-0.125000
G01 X58.504546 Y61.778067 Z-0.125000
G01 X59.965779 Y63.521116 Z-0.125000
G01 X62.094737 Y65.761032 Z-0.125000
G01 X64.253768 Y67.853555 Z-0.125000
G01 X65.805220 Y69.154419 Z-0.125000
G01 X66.473598 Y69.564030 Z-0.125000
G01 X67.418419 Y70.095788 Z-0.125000
G01 X68.514020 Y70.680908 Z-0.125000
G01 X69.634750 Y71.250610 Z-0.125000
G01 X70.296208 Y71.577316 Z-0.125000
G01 X70.957666 Y71.904022 Z-0.125000
G01 X71.619125 Y72.230728 Z-0.125000
G01 X72.280583 Y72.557434 Z-0.125000
G01 X73.640011 Y72.581423 Z-0.125000
G01 X74.999436 Y72.605412 Z-0.125000
G01 X76.358863 Y72.629401 Z-0.125000
G01 X77.718291 Y72.653390 Z-0.125000
G01 X79.922788 Y72.719176 Z-0.125000
G01 X81.720569 Y72.825625 Z-0.125000
G01 X82.968011 Y72.961320 Z-0.125000
G01 X83.521486 Y73.114835 Z-0.125000
G01 X83.699585 Y73.256747 Z-0.125000
G01 X83.914328 Y73.372961 Z-0.125000
G01 X84.138675 Y73.451483 Z-0.125000
G01 X84.345583 Y73.480321 Z-0.125000
G01 X84.523654 Y73.508148 Z-0.125000
G01 X84.669478 Y73.583942 Z-0.125000
G01 X84.768008 Y73.696114 Z-0.125000
G01 X84.804194 Y73.833090 Z-0.125000
G01 X84.943375 Y73.970067 Z-0.125000
G01 X85.322337 Y74.082239 Z-0.125000
G01 X85.883197 Y74.158033 Z-0.125000
G01 X86.568083 Y74.185860 Z-0.125000
G01 X87.252969 Y74.158033 Z-0.125000
G01 X87.813829 Y74.082239 Z-0.125000
G01 X88.192791 Y73.970067 Z-0.125000
G01 X88.331972 Y73.833090 Z-0.125000
G01 X88.367724 Y73.696114 Z-0.125000
G01 X88.465071 Y73.583942 Z-0.125000
G01 X88.609145 Y73.508148 Z-0.125000
G01 X88.785077 Y73.480321 Z-0.125000
G01 X89.685812 Y72.644472 Z-0.125000
G01 X90.441543 Y70.399611 Z-0.125000
G01 X90.960990 Y67.139781 Z-0.125000
G01 X91.152873 Y63.259019 Z-0.125000
G01 X90.995811 Y61.500972 Z-0.125000
G01 X90.573951 Y60.036874 Z-0.125000
G01 X89.958108 Y59.035005 Z-0.125000
G01 X89.219101 Y58.663654 Z-0.125000
G01 X89.011622 Y58.635827 Z-0.125000
G01 X88.841716 Y58.560033 Z-0.125000
G01 X88.726914 Y58.447861 Z-0.125000
G01 X88.684750 Y58.310885 Z-0.125000
G01 X88.181516 Y58.013939 Z-0.125000
G01 X87.001986 Y57.971930 Z-0.125000
G01 X85.641418 Y58.156966 Z-0.125000
G01 X84.595070 Y58.541161 Z-0.125000
G01 X84.192308 Y58.881603 Z-0.125000
G01 X83.753486 Y59.377535 Z-0.125000
G01 X83.331612 Y59.962398 Z-0.125000
G01 X82.979687 Y60.569633 Z-0.125000
G01 X82.630149 Y61.221330 Z-0.125000
G01 X82.214774 Y61.927252 Z-0.125000
G01 X81.785573 Y62.602353 Z-0.125000
G01 X81.394557 Y63.161579 Z-0.125000
G01 X80.856642 Y63.810233 Z-0.125000
G01 X80.296586 Y64.152185 Z-0.125000
G01 X79.417526 Y64.285464 Z-0.125000
G01 X77.922597 Y64.308099 Z-0.125000
G01 X76.511150 Y64.272166 Z-0.125000
G01 X75.475443 Y64.129116 Z-0.125000
G01 X74.587419 Y63.826057 Z-0.125000
G01 X73.619025 Y63.310110 Z-0.125000
G01 X71.541880 Y62.006430 Z-0.125000
G01 X69.869248 Y60.737649 Z-0.125000
G01 X68.325780 Y59.269436 Z-0.125000
G01 X66.636138 Y57.367467 Z-0.125000
G01 X64.741682 Y55.119993 Z-0.125000
G01 X63.731933 Y53.885697 Z-0.125000
G01 X63.170162 Y53.104444 Z-0.125000
G01 X62.619631 Y52.216104 Z-0.125000
G01 X62.270017 Y51.664749 Z-0.125000
G01 X61.920648 Y51.148398 Z-0.125000
G01 X61.612044 Y50.724929 Z-0.125000
G01 X61.384728 Y50.452215 Z-0.125000
G01 X61.173324 Y50.181420 Z-0.125000
G01 X60.908049 Y49.763181 Z-0.125000
G01 X60.622810 Y49.254568 Z-0.125000
G01 X60.351507 Y48.712668 Z-0.125000
G01 X60.089159 Y48.189885 Z-0.125000
G01 X59.828303 Y47.733331 Z-0.125000
G01 X59.599122 Y47.392139 Z-0.125000
G01 X59.431790 Y47.215431 Z-0.125000
G01 X59.285074 Y46.681277 Z-0.125000
G01 X59.525496 Y45.379764 Z-0.125000
G01 X60.192937 Y43.156023 Z-0.125000
G01 X61.327282 Y39.855191 Z-0.125000
G01 X62.477140 Y36.319491 Z-0.125000
G01 X62.911965 Y33.950134 Z-0.125000
G01 X62.650670 Y32.310056 Z-0.125000
G01 X61.712179 Y30.962202 Z-0.125000
G01 X60.990689 Y30.246803 Z-0.125000
G01 X60.393679 Y29.874413 Z-0.125000
G01 X59.676149 Y29.753010 Z-0.125000
G01 X58.593110 Y29.790557 Z-0.125000
G01 X58.118291 Y29.820983 Z-0.125000
G01 X57.643472 Y29.851409 Z-0.125000
G01 X57.168650 Y29.881839 Z-0.125000
G01 X56.693830 Y29.912265 Z-0.125000
G01 X56.834188 Y29.600836 Z-0.125000
G01 X56.974548 Y29.289406 Z-0.125000
G01 X57.114906 Y28.977977 Z-0.125000
G01 X57.255264 Y28.666547 Z-0.125000
G01 X57.515010 Y28.135064 Z-0.125000
G01 X57.807217 Y27.608824 Z-0.125000
G01 X58.096094 Y27.148584 Z-0.125000
G01 X58.345861 Y26.815093 Z-0.125000
G01 X59.409353 Y25.624931 Z-0.125000
G01 X60.224295 Y24.773625 Z-0.125000
G01 X60.789716 Y24.262139 Z-0.125000
G01 X61.104634 Y24.091432 Z-0.125000
G01 X61.273465 Y24.036582 Z-0.125000
G01 X61.523813 Y23.887235 Z-0.125000
G01 X61.821904 Y23.666202 Z-0.125000
G01 X62.133963 Y23.396293 Z-0.125000
G01 X62.630680 Y23.058129 Z-0.125000
G01 X63.341233 Y22.803290 Z-0.125000
G01 X64.340193 Y22.612330 Z-0.125000
G01 X65.702121 Y22.465806 Z-0.125000
G01 X67.301714 Y22.369718 Z-0.125000
G01 X68.542750 Y22.433145 Z-0.125000
G01 X69.803115 Y22.707041 Z-0.125000
G01 X71.460693 Y23.242372 Z-0.125000
G01 X72.635864 Y23.668784 Z-0.125000
G01 X73.664784 Y24.081771 Z-0.125000
G01 X74.436566 Y24.434193 Z-0.125000
G01 X74.840310 Y24.678917 Z-0.125000
G01 X75.067852 Y24.861410 Z-0.125000
G01 X75.359867 Y25.044397 Z-0.125000
G01 X75.678736 Y25.206619 Z-0.125000
G01 X75.986838 Y25.326817 Z-0.125000
G01 X76.259981 Y25.436223 Z-0.125000
G01 X76.483662 Y25.569063 Z-0.125000
G01 X76.634798 Y25.708562 Z-0.125000
G01 X76.690305 Y25.837950 Z-0.125000
G01 X76.739019 Y25.966079 Z-0.125000
G01 X76.871655 Y26.102144 Z-0.125000
G01 X77.067955 Y26.229900 Z-0.125000
G01 X77.307666 Y26.333100 Z-0.125000
G01 X77.904270 Y26.590574 Z-0.125000
G01 X78.564726 Y26.983041 Z-0.125000
G01 X79.285567 Y27.508186 Z-0.125000
G01 X80.063312 Y28.163701 Z-0.125000
G01 X80.527449 Y28.522679 Z-0.125000
G01 X81.195289 Y28.967202 Z-0.125000
G01 X81.977535 Y29.440728 Z-0.125000
G01 X82.784883 Y29.886721 Z-0.125000
G01 X83.828970 Y30.396691 Z-0.125000
G01 X84.604815 Y30.655816 Z-0.125000
G01 X85.293271 Y30.701770 Z-0.125000
G01 X86.075190 Y30.572239 Z-0.125000
G01 X86.804249 Y30.350133 Z-0.125000
G01 X87.341025 Y30.020627 Z-0.125000
G01 X87.787029 Y29.495434 Z-0.125000
G01 X88.243777 Y28.686275 Z-0.125000
G01 X88.558675 Y27.949604 Z-0.125000
G01 X88.810319 Y27.137007 Z-0.125000
G01 X88.977129 Y26.331906 Z-0.125000
G01 X89.037527 Y25.617720 Z-0.125000
G01 X88.722488 Y24.140420 Z-0.125000
G01 X87.612218 Y22.610270 Z-0.125000
G01 X85.458986 Y20.771539 Z-0.125000
G01 X82.015062 Y18.368498 Z-0.125000
G01 X80.441419 Y17.449667 Z-0.125000
G01 X78.449910 Y16.433574 Z-0.125000
G01 X76.641102 Y15.610818 Z-0.125000
G01 X75.615561 Y15.271987 Z-0.125000
G01 X75.376326 Y15.246051 Z-0.125000
G01 X75.130065 Y15.175419 Z-0.125000
G01 X74.905760 Y15.070887 Z-0.125000
G01 X74.732388 Y14.943235 Z-0.125000
G01 X72.684951 Y14.271114 Z-0.125000
G01 X69.003737 Y13.776074 Z-0.125000
G01 X65.192648 Y13.594026 Z-0.125000
G01 X62.755600 Y13.860885 Z-0.125000
G00 Z5.000000

(Change tool to Cylindrical cutter)

G00 Z5.000000
G00 X70.340322 Y14.566440

G01 Z-0.125000 F100.0(Penetrate)
G01 X70.480378 Y14.703417 Z-0.125000 F400.000000
G01 X70.861716 Y14.815589 Z-0.125000
G01 X71.426099 Y14.891382 Z-0.125000
G01 X72.115282 Y14.919209 Z-0.125000
G01 X72.938982 Y14.949331 Z-0.125000
G01 X73.526224 Y15.044510 Z-0.125000
G01 X73.903510 Y15.211956 Z-0.125000
G01 X74.097338 Y15.458889 Z-0.125000
G01 X74.229638 Y15.672683 Z-0.125000
G01 X74.424690 Y15.800976 Z-0.125000
G01 X74.673785 Y15.840476 Z-0.125000
G01 X74.968211 Y15.787892 Z-0.125000
G01 X75.226692 Y15.735424 Z-0.125000
G01 X75.437670 Y15.749112 Z-0.125000
G01 X75.579862 Y15.823667 Z-0.125000
G01 X75.631989 Y15.953754 Z-0.125000
G01 X75.701579 Y16.099962 Z-0.125000
G01 X75.891060 Y16.219695 Z-0.125000
G01 X76.171490 Y16.300594 Z-0.125000
G01 X76.513933 Y16.330306 Z-0.125000
G01 X76.856376 Y16.358133 Z-0.125000
G01 X77.136806 Y16.433927 Z-0.125000
G01 X77.326287 Y16.546099 Z-0.125000
G01 X77.395878 Y16.683076 Z-0.125000
G01 X77.437632 Y16.820052 Z-0.125000
G01 X77.551320 Y16.932224 Z-0.125000
G01 X77.719578 Y17.008018 Z-0.125000
G01 X77.925044 Y17.035845 Z-0.125000
G01 X78.130511 Y17.063672 Z-0.125000
G01 X78.298769 Y17.139466 Z-0.125000
G01 X78.412456 Y17.251638 Z-0.125000
G01 X78.454211 Y17.388614 Z-0.125000
G01 X78.517657 Y17.525591 Z-0.125000
G01 X78.690406 Y17.637763 Z-0.125000
G01 X78.946073 Y17.713557 Z-0.125000
G01 X79.258276 Y17.741384 Z-0.125000
G01 X79.610605 Y17.797058 Z-0.125000
G01 X79.975530 Y17.948642 Z-0.125000
G01 X80.309977 Y18.172986 Z-0.125000
G01 X80.570878 Y18.446939 Z-0.125000
G01 X80.811715 Y18.720892 Z-0.125000
G01 X81.091535 Y18.945239 Z-0.125000
G01 X81.375609 Y19.096821 Z-0.125000
G01 X81.629211 Y19.152495 Z-0.125000
G01 X81.882813 Y19.208169 Z-0.125000
G01 X82.166887 Y19.359753 Z-0.125000
G01 X82.446707 Y19.584097 Z-0.125000
G01 X82.687544 Y19.858050 Z-0.125000
G01 X82.920609 Y20.132003 Z-0.125000
G01 X83.179263 Y20.356350 Z-0.125000
G01 X83.432015 Y20.507932 Z-0.125000
G01 X83.647368 Y20.563606 Z-0.125000
G01 X83.822594 Y20.591433 Z-0.125000
G01 X83.966090 Y20.667227 Z-0.125000
G01 X84.063047 Y20.779399 Z-0.125000
G01 X84.098655 Y20.916375 Z-0.125000
G01 X84.134162 Y21.053352 Z-0.125000
G01 X84.230840 Y21.165524 Z-0.125000
G01 X84.373921 Y21.241317 Z-0.125000
G01 X84.548645 Y21.269145 Z-0.125000
G01 X84.854878 Y21.404713 Z-0.125000
G01 X85.356037 Y21.773834 Z-0.125000
G01 X85.982667 Y22.320132 Z-0.125000
G01 X86.665311 Y22.987234 Z-0.125000
G01 X87.770355 Y24.288174 Z-0.125000
G01 X88.268190 Y25.407462 Z-0.125000
G01 X88.201258 Y26.569876 Z-0.125000
G01 X87.612012 Y28.000190 Z-0.125000
G01 X86.840509 Y29.147827 Z-0.125000
G01 X85.947792 Y29.771030 Z-0.125000
G01 X84.902769 Y29.881573 Z-0.125000
G01 X83.674360 Y29.491226 Z-0.125000
G01 X83.157044 Y29.222872 Z-0.125000
G01 X82.732801 Y28.963369 Z-0.125000
G01 X82.445448 Y28.742307 Z-0.125000
G01 X82.338814 Y28.589283 Z-0.125000
G01 X82.295594 Y28.486552 Z-0.125000
G01 X82.180605 Y28.402421 Z-0.125000
G01 X82.011419 Y28.345579 Z-0.125000
G01 X81.805600 Y28.324694 Z-0.125000
G01 X81.600134 Y28.296867 Z-0.125000
G01 X81.431876 Y28.221074 Z-0.125000
G01 X81.318188 Y28.108902 Z-0.125000
G01 X81.276433 Y27.971925 Z-0.125000
G01 X81.238807 Y27.834949 Z-0.125000
G01 X81.136361 Y27.722777 Z-0.125000
G01 X80.984740 Y27.646983 Z-0.125000
G01 X80.799588 Y27.619156 Z-0.125000
G01 X80.527054 Y27.535646 Z-0.125000
G01 X80.137506 Y27.308271 Z-0.125000
G01 X79.682927 Y26.971752 Z-0.125000
G01 X79.215302 Y26.560822 Z-0.125000
G01 X78.757213 Y26.149890 Z-0.125000
G01 X78.328597 Y25.813374 Z-0.125000
G01 X77.977476 Y25.585999 Z-0.125000
G01 X77.751867 Y25.502489 Z-0.125000
G01 X77.613643 Y25.474662 Z-0.125000
G01 X77.500449 Y25.398868 Z-0.125000
G01 X77.423967 Y25.286696 Z-0.125000
G01 X77.395886 Y25.149720 Z-0.125000
G01 X77.346359 Y25.012743 Z-0.125000
G01 X77.211507 Y24.900571 Z-0.125000
G01 X77.011926 Y24.824778 Z-0.125000
G01 X76.768210 Y24.796951 Z-0.125000
G01 X76.484370 Y24.741277 Z-0.125000
G01 X76.175532 Y24.589695 Z-0.125000
G01 X75.878981 Y24.365348 Z-0.125000
G01 X75.631997 Y24.091395 Z-0.125000
G01 X75.354324 Y23.806359 Z-0.125000
G01 X74.991423 Y23.583245 Z-0.125000
G01 X74.576565 Y23.437819 Z-0.125000
G01 X74.143007 Y23.385839 Z-0.125000
G01 X73.762314 Y23.358012 Z-0.125000
G01 X73.450560 Y23.282219 Z-0.125000
G01 X73.239918 Y23.170047 Z-0.125000
G01 X73.162553 Y23.033070 Z-0.125000
G01 X73.094605 Y22.896094 Z-0.125000
G01 X72.909597 Y22.783921 Z-0.125000
G01 X72.635788 Y22.708128 Z-0.125000
G01 X72.301431 Y22.680301 Z-0.125000
G01 X71.949866 Y22.652474 Z-0.125000
G01 X71.629214 Y22.576680 Z-0.125000
G01 X71.374881 Y22.464508 Z-0.125000
G01 X71.222275 Y22.327531 Z-0.125000
G01 X70.800711 Y22.185811 Z-0.125000
G01 X69.801134 Y22.074166 Z-0.125000
G01 X68.335765 Y22.001009 Z-0.125000
G01 X66.516835 Y21.974762 Z-0.125000
G01 X64.078886 Y21.994743 Z-0.125000
G01 X62.661343 Y22.086827 Z-0.125000
G01 X61.922562 Y22.299270 Z-0.125000
G01 X61.520886 Y22.680326 Z-0.125000
G01 X61.275779 Y22.954279 Z-0.125000
G01 X60.984336 Y23.178626 Z-0.125000
G01 X60.683059 Y23.330208 Z-0.125000
G01 X60.408448 Y23.385882 Z-0.125000
G01 X60.156294 Y23.441556 Z-0.125000
G01 X59.916159 Y23.593140 Z-0.125000
G01 X59.715211 Y23.817484 Z-0.125000
G01 X59.580608 Y24.091437 Z-0.125000
G01 X59.455654 Y24.365390 Z-0.125000
G01 X59.280979 Y24.589737 Z-0.125000
G01 X59.079726 Y24.741319 Z-0.125000
G01 X58.875053 Y24.796993 Z-0.125000
G01 X58.670379 Y24.852667 Z-0.125000
G01 X58.469127 Y25.004251 Z-0.125000
G01 X58.294451 Y25.228595 Z-0.125000
G01 X58.169497 Y25.502548 Z-0.125000
G01 X58.056586 Y25.776502 Z-0.125000
G01 X57.914698 Y26.000848 Z-0.125000
G01 X57.761974 Y26.152430 Z-0.125000
G01 X57.616556 Y26.208104 Z-0.125000
G01 X57.488811 Y26.263778 Z-0.125000
G01 X57.384197 Y26.415362 Z-0.125000
G01 X57.313514 Y26.639706 Z-0.125000
G01 X57.287550 Y26.913660 Z-0.125000
G01 X57.259723 Y27.187613 Z-0.125000
G01 X57.183929 Y27.411960 Z-0.125000
G01 X57.071757 Y27.563541 Z-0.125000
G01 X56.934780 Y27.619215 Z-0.125000
G01 X56.797804 Y27.674889 Z-0.125000
G01 X56.685632 Y27.826473 Z-0.125000
G01 X56.609838 Y28.050818 Z-0.125000
G01 X56.582011 Y28.324771 Z-0.125000
G01 X56.554184 Y28.598724 Z-0.125000
G01 X56.478390 Y28.823071 Z-0.125000
G01 X56.366218 Y28.974652 Z-0.125000
G01 X56.229242 Y29.030326 Z-0.125000
G01 X56.092265 Y29.084011 Z-0.125000
G01 X55.980093 Y29.230182 Z-0.125000
G01 X55.904300 Y29.446514 Z-0.125000
G01 X55.876473 Y29.710682 Z-0.125000
G01 X55.841677 Y30.011638 Z-0.125000
G01 X55.746935 Y30.328125 Z-0.125000
G01 X55.606722 Y30.622522 Z-0.125000
G01 X55.435500 Y30.857210 Z-0.125000
G01 X55.233692 Y31.107806 Z-0.125000
G01 X55.010194 Y31.445516 Z-0.125000
G01 X54.792200 Y31.826099 Z-0.125000
G01 X54.606896 Y32.205326 Z-0.125000
G01 X54.382927 Y32.707750 Z-0.125000
G01 X54.059664 Y33.423764 Z-0.125000
G01 X53.680369 Y34.257912 Z-0.125000
G01 X53.288311 Y35.114727 Z-0.125000
G01 X52.908765 Y36.020336 Z-0.125000
G01 X52.563534 Y36.987336 Z-0.125000
G01 X52.290678 Y37.899978 Z-0.125000
G01 X52.128271 Y38.642505 Z-0.125000
G01 X52.013079 Y39.276085 Z-0.125000
G01 X51.868787 Y39.892100 Z-0.125000
G01 X51.713822 Y40.420090 Z-0.125000
G01 X51.566615 Y40.789609 Z-0.125000
G01 X51.402288 Y41.212398 Z-0.125000
G01 X51.200711 Y41.885436 Z-0.125000
G01 X50.987427 Y42.716114 Z-0.125000
G01 X50.787989 Y43.611831 Z-0.125000
G01 X50.676474 Y44.155690 Z-0.125000
G01 X50.564960 Y44.699552 Z-0.125000
G01 X50.453448 Y45.243412 Z-0.125000
G01 X50.341934 Y45.787271 Z-0.125000
G01 X50.151806 Y45.415959 Z-0.125000
G01 X49.961679 Y45.044645 Z-0.125000
G01 X49.771551 Y44.673334 Z-0.125000
G01 X49.581424 Y44.302020 Z-0.125000
G01 X49.286135 Y43.632354 Z-0.125000
G01 X49.044316 Y42.906959 Z-0.125000
G01 X48.880926 Y42.213225 Z-0.125000
G01 X48.820917 Y41.638548 Z-0.125000
G01 X48.791524 Y41.151672 Z-0.125000
G01 X48.711491 Y40.697001 Z-0.125000
G01 X48.593042 Y40.325418 Z-0.125000
G01 X48.448401 Y40.087810 Z-0.125000
G01 X48.298995 Y39.619962 Z-0.125000
G01 X48.213518 Y38.596409 Z-0.125000
G01 X48.193085 Y37.044145 Z-0.125000
G01 X48.238786 Y34.990171 Z-0.125000
G01 X48.405870 Y31.442166 Z-0.125000
G01 X48.637320 Y28.989266 Z-0.125000
G01 X48.958235 Y27.450091 Z-0.125000
G01 X49.393712 Y26.643254 Z-0.125000
G01 X49.582240 Y26.401042 Z-0.125000
G01 X49.736629 Y26.100481 Z-0.125000
G01 X49.840947 Y25.779832 Z-0.125000
G01 X49.879262 Y25.477349 Z-0.125000
G01 X49.903674 Y25.213180 Z-0.125000
G01 X49.970131 Y24.996849 Z-0.125000
G01 X50.068492 Y24.850677 Z-0.125000
G01 X50.188603 Y24.796993 Z-0.125000
G01 X50.368584 Y24.657812 Z-0.125000
G01 X50.629967 Y24.278850 Z-0.125000
G01 X50.937702 Y23.717990 Z-0.125000
G01 X51.256737 Y23.033104 Z-0.125000
G01 X51.592929 Y22.346463 Z-0.125000
G01 X51.945416 Y21.785797 Z-0.125000
G01 X52.273104 Y21.407812 Z-0.125000
G01 X52.534905 Y21.269215 Z-0.125000
G01 X52.736564 Y21.244888 Z-0.125000
G01 X52.901704 Y21.178675 Z-0.125000
G01 X53.013283 Y21.080679 Z-0.125000
G01 X53.054264 Y20.961011 Z-0.125000
G01 X53.469289 Y20.256588 Z-0.125000
G01 X54.416424 Y19.172231 Z-0.125000
G01 X55.448762 Y18.177366 Z-0.125000
G01 X56.119393 Y17.741429 Z-0.125000
G01 X56.285480 Y17.720544 Z-0.125000
G01 X56.439156 Y17.663702 Z-0.125000
G01 X56.563314 Y17.579572 Z-0.125000
G01 X56.640840 Y17.476840 Z-0.125000
G01 X57.204466 Y17.026684 Z-0.125000
G01 X58.323376 Y16.407892 Z-0.125000
G01 X59.520692 Y15.860556 Z-0.125000
G01 X60.319548 Y15.624756 Z-0.125000
G01 X60.512069 Y15.596929 Z-0.125000
G01 X60.669726 Y15.521136 Z-0.125000
G01 X60.776251 Y15.408964 Z-0.125000
G01 X60.815376 Y15.271987 Z-0.125000
G01 X60.898885 Y15.135011 Z-0.125000
G01 X61.126260 Y15.022839 Z-0.125000
G01 X61.462779 Y14.947045 Z-0.125000
G01 X61.873709 Y14.919218 Z-0.125000
G01 X62.284639 Y14.891391 Z-0.125000
G01 X62.621158 Y14.815597 Z-0.125000
G01 X62.848533 Y14.703425 Z-0.125000
G01 X62.932042 Y14.566449 Z-0.125000
G01 X63.196626 Y14.421558 Z-0.125000
G01 X63.946278 Y14.310267 Z-0.125000
G01 X65.114856 Y14.238870 Z-0.125000
G01 X66.636209 Y14.213668 Z-0.125000
G01 X68.157562 Y14.238870 Z-0.125000
G01 X69.326140 Y14.310267 Z-0.125000
G01 X70.075792 Y14.421558 Z-0.125000
G01 X70.340322 Y14.566440 Z-0.125000
G00 Z5.000000

(Change tool to Cylindrical cutter)

G00 Z5.000000
G00 X20.332561 Y30.882412

G01 Z-0.125000 F100.0(Penetrate)
G01 X21.320300 Y31.614889 Z-0.125000 F400.000000
G01 X22.325775 Y32.618813 Z-0.125000
G01 X23.106724 Y33.621994 Z-0.125000
G01 X23.420877 Y34.352236 Z-0.125000
G01 X23.804078 Y35.541588 Z-0.125000
G01 X24.683610 Y37.499282 Z-0.125000
G01 X25.654355 Y39.384029 Z-0.125000
G01 X26.311202 Y40.354535 Z-0.125000
G01 X26.448469 Y40.475705 Z-0.125000
G01 X26.577101 Y40.649119 Z-0.125000
G01 X26.682671 Y40.851633 Z-0.125000
G01 X26.750760 Y41.060091 Z-0.125000
G01 X27.065001 Y42.428155 Z-0.125000
G01 X27.305186 Y43.282532 Z-0.125000
G01 X27.505044 Y43.722412 Z-0.125000
G01 X27.698304 Y43.846996 Z-0.125000
G01 X27.818161 Y43.885711 Z-0.125000
G01 X27.916310 Y43.991121 Z-0.125000
G01 X27.982629 Y44.147131 Z-0.125000
G01 X28.006985 Y44.337639 Z-0.125000
G01 X28.212773 Y45.320529 Z-0.125000
G01 X28.710543 Y46.385071 Z-0.125000
G01 X29.320899 Y47.223246 Z-0.125000
G01 X29.864457 Y47.527021 Z-0.125000
G01 X30.116659 Y47.517651 Z-0.125000
G01 X30.353028 Y47.558266 Z-0.125000
G01 X30.547056 Y47.641239 Z-0.125000
G01 X30.672241 Y47.758963 Z-0.125000
G01 X30.845142 Y47.883739 Z-0.125000
G01 X31.169094 Y47.985920 Z-0.125000
G01 X31.597747 Y48.054960 Z-0.125000
G01 X32.084752 Y48.080332 Z-0.125000
G01 X32.556089 Y48.108159 Z-0.125000
G01 X32.942073 Y48.183953 Z-0.125000
G01 X33.202872 Y48.296125 Z-0.125000
G01 X33.298655 Y48.433101 Z-0.125000
G01 X33.451755 Y48.570078 Z-0.125000
G01 X33.868611 Y48.682250 Z-0.125000
G01 X34.485560 Y48.758043 Z-0.125000
G01 X35.238933 Y48.785871 Z-0.125000
G01 X35.992305 Y48.813698 Z-0.125000
G01 X36.609254 Y48.889491 Z-0.125000
G01 X37.026111 Y49.001663 Z-0.125000
G01 X37.179211 Y49.138640 Z-0.125000
G01 X37.304475 Y49.275616 Z-0.125000
G01 X37.645538 Y49.387789 Z-0.125000
G01 X38.150315 Y49.463582 Z-0.125000
G01 X38.766711 Y49.491409 Z-0.125000
G01 X39.383107 Y49.516442 Z-0.125000
G01 X39.887884 Y49.584605 Z-0.125000
G01 X40.228946 Y49.685482 Z-0.125000
G01 X40.354211 Y49.808667 Z-0.125000
G01 X40.658475 Y50.041542 Z-0.125000
G01 X41.613901 Y50.271937 Z-0.125000
G01 X43.284448 Y50.511293 Z-0.125000
G01 X45.734072 Y50.771047 Z-0.125000
G01 X46.521689 Y50.871792 Z-0.125000
G01 X47.166680 Y51.002582 Z-0.125000
G01 X47.602485 Y51.146504 Z-0.125000
G01 X47.762544 Y51.286633 Z-0.125000
G01 X47.854433 Y51.411443 Z-0.125000
G01 X48.104623 Y51.513653 Z-0.125000
G01 X48.474907 Y51.582713 Z-0.125000
G01 X48.927075 Y51.608084 Z-0.125000
G01 X49.218207 Y51.608084 Z-0.125000
G01 X49.509339 Y51.608084 Z-0.125000
G01 X49.800471 Y51.608084 Z-0.125000
G01 X50.091603 Y51.608084 Z-0.125000
G01 X50.239411 Y50.689200 Z-0.125000
G01 X50.387219 Y49.770315 Z-0.125000
G01 X50.535027 Y48.851434 Z-0.125000
G01 X50.682836 Y47.932549 Z-0.125000
G01 X50.956924 Y46.384845 Z-0.125000
G01 X51.266152 Y44.887871 Z-0.125000
G01 X51.572598 Y43.612370 Z-0.125000
G01 X51.838352 Y42.729077 Z-0.125000
G01 X52.082590 Y42.010545 Z-0.125000
G01 X52.330455 Y41.183645 Z-0.125000
G01 X52.552981 Y40.350601 Z-0.125000
G01 X52.721200 Y39.613640 Z-0.125000
G01 X53.046577 Y38.395442 Z-0.125000
G01 X53.595375 Y36.847780 Z-0.125000
G01 X54.353441 Y35.007353 Z-0.125000
G01 X55.306618 Y32.910862 Z-0.125000
G01 X55.530234 Y32.559524 Z-0.125000
G01 X55.830829 Y32.254873 Z-0.125000
G01 X56.169058 Y32.029550 Z-0.125000
G01 X56.505583 Y31.916187 Z-0.125000
G01 X56.838049 Y31.822895 Z-0.125000
G01 X57.083483 Y31.655157 Z-0.125000
G01 X57.235457 Y31.419495 Z-0.125000
G01 X57.287544 Y31.122437 Z-0.125000
G01 X57.346526 Y30.777214 Z-0.125000
G01 X57.569772 Y30.569803 Z-0.125000
G01 X58.026729 Y30.468708 Z-0.125000
G01 X58.786850 Y30.442434 Z-0.125000
G01 X59.583958 Y30.481812 Z-0.125000
G01 X60.141895 Y30.635129 Z-0.125000
G01 X60.573522 Y30.956431 Z-0.125000
G01 X60.991711 Y31.499751 Z-0.125000
G01 X61.286543 Y31.909975 Z-0.125000
G01 X61.567729 Y32.246065 Z-0.125000
G01 X61.803444 Y32.473327 Z-0.125000
G01 X61.961850 Y32.557068 Z-0.125000
G01 X62.189386 Y33.375713 Z-0.125000
G01 X62.039311 Y35.208687 Z-0.125000
G01 X61.646125 Y37.127259 Z-0.125000
G01 X61.144320 Y38.202704 Z-0.125000
G01 X60.700432 Y39.028466 Z-0.125000
G01 X60.089695 Y40.766481 Z-0.125000
G01 X59.465148 Y42.932999 Z-0.125000
G01 X58.979836 Y45.044273 Z-0.125000
G01 X58.775183 Y45.952760 Z-0.125000
G01 X58.546478 Y46.693379 Z-0.125000
G01 X58.320873 Y47.192063 Z-0.125000
G01 X58.125521 Y47.374751 Z-0.125000
G01 X57.949993 Y47.501466 Z-0.125000
G01 X57.813152 Y47.867000 Z-0.125000
G01 X57.720312 Y48.449431 Z-0.125000
G01 X57.676785 Y49.226834 Z-0.125000
G01 X57.619728 Y50.126900 Z-0.125000
G01 X57.491348 Y51.208455 Z-0.125000
G01 X57.310681 Y52.335481 Z-0.125000
G01 X57.096759 Y53.371973 Z-0.125000
G01 X56.603491 Y55.478418 Z-0.125000
G01 X56.178292 Y57.372036 Z-0.125000
G01 X55.720102 Y59.514579 Z-0.125000
G01 X55.127853 Y62.367807 Z-0.125000
G01 X54.787950 Y63.895004 Z-0.125000
G01 X54.453658 Y65.184585 Z-0.125000
G01 X54.163437 Y66.100709 Z-0.125000
G01 X53.955750 Y66.507544 Z-0.125000
G01 X53.827875 Y66.608608 Z-0.125000
G01 X53.754977 Y66.692179 Z-0.125000
G01 X53.742305 Y66.749580 Z-0.125000
G01 X53.795160 Y66.772130 Z-0.125000
G01 X53.838487 Y66.975979 Z-0.125000
G01 X53.799896 Y67.527196 Z-0.125000
G01 X53.688621 Y68.341638 Z-0.125000
G01 X53.513900 Y69.335171 Z-0.125000
G01 X53.295968 Y70.490919 Z-0.125000
G01 X53.067069 Y71.747073 Z-0.125000
G01 X52.854397 Y72.952063 Z-0.125000
G01 X52.685143 Y73.954324 Z-0.125000
G01 X52.539147 Y74.780092 Z-0.125000
G01 X52.389795 Y75.504531 Z-0.125000
G01 X52.254610 Y76.049469 Z-0.125000
G01 X52.151117 Y76.336732 Z-0.125000
G01 X52.047629 Y76.717295 Z-0.125000
G01 X51.912464 Y77.516265 Z-0.125000
G01 X51.763140 Y78.616672 Z-0.125000
G01 X51.617180 Y79.901546 Z-0.125000
G01 X51.462873 Y81.176445 Z-0.125000
G01 X51.290830 Y82.249697 Z-0.125000
G01 X51.122036 Y83.008480 Z-0.125000
G01 X50.977481 Y83.339969 Z-0.125000
G01 X50.839517 Y83.507174 Z-0.125000
G01 X50.688664 Y83.818648 Z-0.125000
G01 X50.543167 Y84.229883 Z-0.125000
G01 X50.421281 Y84.696374 Z-0.125000
G01 X49.959830 Y85.919800 Z-0.125000
G01 X49.193783 Y86.829298 Z-0.125000
G01 X48.158242 Y87.396095 Z-0.125000
G01 X46.888324 Y87.591421 Z-0.125000
G01 X46.114471 Y87.560535 Z-0.125000
G01 X45.605477 Y87.450260 Z-0.125000
G01 X45.295002 Y87.234178 Z-0.125000
G01 X45.116711 Y86.885885 Z-0.125000
G01 X45.003802 Y86.611931 Z-0.125000
G01 X44.861912 Y86.387587 Z-0.125000
G01 X44.709188 Y86.236002 Z-0.125000
G01 X44.563770 Y86.180330 Z-0.125000
G01 X44.436025 Y86.152002 Z-0.125000
G01 X44.331413 Y86.074871 Z-0.125000
G01 X44.260728 Y85.960717 Z-0.125000
G01 X44.234763 Y85.821321 Z-0.125000
G01 X44.137338 Y85.587309 Z-0.125000
G01 X43.872063 Y85.215540 Z-0.125000
G01 X43.479461 Y84.757139 Z-0.125000
G01 X43.000041 Y84.263231 Z-0.125000
G01 X42.520622 Y83.766330 Z-0.125000
G01 X42.128020 Y83.299781 Z-0.125000
G01 X41.862745 Y82.915952 Z-0.125000
G01 X41.765319 Y82.667214 Z-0.125000
G01 X41.709645 Y82.453331 Z-0.125000
G01 X41.558061 Y82.164409 Z-0.125000
G01 X41.333717 Y81.838324 Z-0.125000
G01 X41.059763 Y81.512947 Z-0.125000
G01 X40.785810 Y81.182386 Z-0.125000
G01 X40.561466 Y80.842184 Z-0.125000
G01 X40.409882 Y80.532371 Z-0.125000
G01 X40.354208 Y80.292977 Z-0.125000
G01 X40.329090 Y80.113339 Z-0.125000
G01 X40.260711 Y79.966232 Z-0.125000
G01 X40.159511 Y79.866835 Z-0.125000
G01 X40.035937 Y79.830330 Z-0.125000
G01 X39.883247 Y79.746821 Z-0.125000
G01 X39.702785 Y79.519445 Z-0.125000
G01 X39.517094 Y79.182928 Z-0.125000
G01 X39.348729 Y78.771997 Z-0.125000
G01 X39.179571 Y78.361066 Z-0.125000
G01 X38.991718 Y78.024549 Z-0.125000
G01 X38.808056 Y77.797172 Z-0.125000
G01 X38.651462 Y77.713663 Z-0.125000
G01 X38.489679 Y77.630853 Z-0.125000
G01 X38.291886 Y77.405381 Z-0.125000
G01 X38.083123 Y77.071683 Z-0.125000
G01 X37.888430 Y76.664194 Z-0.125000
G01 X37.586435 Y76.016665 Z-0.125000
G01 X37.195980 Y75.378461 Z-0.125000
G01 X36.623298 Y74.612928 Z-0.125000
G01 X35.774630 Y73.583414 Z-0.125000
G01 X35.635114 Y73.390346 Z-0.125000
G01 X35.520862 Y73.179641 Z-0.125000
G01 X35.443665 Y72.976766 Z-0.125000
G01 X35.415313 Y72.807193 Z-0.125000
G01 X35.380518 Y72.648982 Z-0.125000
G01 X35.285779 Y72.477038 Z-0.125000
G01 X35.145563 Y72.312110 Z-0.125000
G01 X34.974341 Y72.174941 Z-0.125000
G01 X34.607272 Y71.834037 Z-0.125000
G01 X34.168055 Y71.222997 Z-0.125000
G01 X33.637596 Y70.311843 Z-0.125000
G01 X32.996799 Y69.070607 Z-0.125000
G01 X32.771721 Y68.645202 Z-0.125000
G01 X32.546852 Y68.269279 Z-0.125000
G01 X32.348275 Y67.983580 Z-0.125000
G01 X32.202058 Y67.828852 Z-0.125000
G01 X32.010198 Y67.591167 Z-0.125000
G01 X31.687338 Y67.079603 Z-0.125000
G01 X31.278534 Y66.369399 Z-0.125000
G01 X30.828844 Y65.535796 Z-0.125000
G01 X29.376333 Y62.801049 Z-0.125000
G01 X28.196342 Y60.665919 Z-0.125000
G01 X27.353816 Y59.244611 Z-0.125000
G01 X26.913687 Y58.651318 Z-0.125000
G01 X26.742878 Y58.446789 Z-0.125000
G01 X26.492465 Y58.029419 Z-0.125000
G01 X26.196123 Y57.459976 Z-0.125000
G01 X25.887522 Y56.799235 Z-0.125000
G01 X25.573657 Y56.153389 Z-0.125000
G01 X25.262981 Y55.624493 Z-0.125000
G01 X24.991362 Y55.267135 Z-0.125000
G01 X24.794653 Y55.135885 Z-0.125000
G01 X24.673204 Y55.108058 Z-0.125000
G01 X24.606501 Y55.032264 Z-0.125000
G01 X24.599107 Y54.920092 Z-0.125000
G01 X24.655588 Y54.783115 Z-0.125000
G01 X24.696846 Y54.646139 Z-0.125000
G01 X24.648013 Y54.533967 Z-0.125000
G01 X24.519974 Y54.458173 Z-0.125000
G01 X24.323629 Y54.430346 Z-0.125000
G01 X24.110080 Y54.402519 Z-0.125000
G01 X23.935201 Y54.326725 Z-0.125000
G01 X23.817041 Y54.214553 Z-0.125000
G01 X23.773643 Y54.077577 Z-0.125000
G01 X23.730621 Y53.940600 Z-0.125000
G01 X23.613488 Y53.828428 Z-0.125000
G01 X23.440133 Y53.752635 Z-0.125000
G01 X23.228441 Y53.724807 Z-0.125000
G01 X22.948787 Y53.656848 Z-0.125000
G01 X22.590390 Y53.471807 Z-0.125000
G01 X22.199396 Y53.197947 Z-0.125000
G01 X21.821955 Y52.863525 Z-0.125000
G01 X21.366824 Y52.330895 Z-0.125000
G01 X21.117972 Y51.745755 Z-0.125000
G01 X21.026684 Y50.903703 Z-0.125000
G01 X21.044238 Y49.600330 Z-0.125000
G01 X21.049121 Y48.308125 Z-0.125000
G01 X20.933799 Y47.285747 Z-0.125000
G01 X20.659109 Y46.335115 Z-0.125000
G01 X20.185893 Y45.258141 Z-0.125000
G01 X19.802150 Y44.442135 Z-0.125000
G01 X19.453586 Y43.654656 Z-0.125000
G01 X19.178600 Y42.985411 Z-0.125000
G01 X19.015594 Y42.524113 Z-0.125000
G01 X18.899307 Y42.215915 Z-0.125000
G01 X18.751524 Y41.963527 Z-0.125000
G01 X18.591222 Y41.792994 Z-0.125000
G01 X18.437368 Y41.730363 Z-0.125000
G01 X18.318742 Y41.702536 Z-0.125000
G01 X18.254350 Y41.626742 Z-0.125000
G01 X18.248508 Y41.514570 Z-0.125000
G01 X18.305562 Y41.377594 Z-0.125000
G01 X18.360739 Y41.240617 Z-0.125000
G01 X18.349789 Y41.128445 Z-0.125000
G01 X18.277837 Y41.052651 Z-0.125000
G01 X18.149979 Y41.024824 Z-0.125000
G01 X18.004919 Y40.986470 Z-0.125000
G01 X17.886126 Y40.882037 Z-0.125000
G01 X17.805862 Y40.727478 Z-0.125000
G01 X17.776381 Y40.538739 Z-0.125000
G01 X17.729708 Y40.242216 Z-0.125000
G01 X17.602617 Y39.794180 Z-0.125000
G01 X17.414527 Y39.255404 Z-0.125000
G01 X17.184844 Y38.686656 Z-0.125000
G01 X16.754545 Y37.677370 Z-0.125000
G01 X16.483425 Y36.937959 Z-0.125000
G01 X16.253756 Y36.096872 Z-0.125000
G01 X15.947813 Y34.782551 Z-0.125000
G01 X15.842956 Y34.324414 Z-0.125000
G01 X15.738099 Y33.866275 Z-0.125000
G01 X15.633242 Y33.408138 Z-0.125000
G01 X15.528385 Y32.949998 Z-0.125000
G01 X15.870718 Y32.636435 Z-0.125000
G01 X16.213048 Y32.322872 Z-0.125000
G01 X16.555381 Y32.009309 Z-0.125000
G01 X16.897711 Y31.695746 Z-0.125000
G01 X17.877420 Y30.904290 Z-0.125000
G01 X18.698162 Y30.523462 Z-0.125000
G01 X19.477377 Y30.525438 Z-0.125000
G01 X20.332561 Y30.882412 Z-0.125000
G00 Z5.000000

(Change tool to Cylindrical cutter)

G00 Z5.000000
G00 X34.450215 Y57.517135

G01 Z-0.125000 F100.0(Penetrate)
G01 X34.665469 Y57.946750 Z-0.125000 F400.000000
G01 X34.933035 Y58.399339 Z-0.125000
G01 X35.218833 Y58.821055 Z-0.125000
G01 X35.488787 Y59.158059 Z-0.125000
G01 X35.711201 Y59.440423 Z-0.125000
G01 X35.867560 Y59.713368 Z-0.125000
G01 X35.943551 Y59.945776 Z-0.125000
G01 X35.924868 Y60.106518 Z-0.125000
G01 X35.903081 Y60.239422 Z-0.125000
G01 X35.970586 Y60.396027 Z-0.125000
G01 X36.114386 Y60.556789 Z-0.125000
G01 X36.321464 Y60.702165 Z-0.125000
G01 X36.542029 Y60.843366 Z-0.125000
G01 X36.722547 Y60.992766 Z-0.125000
G01 X36.844399 Y61.132559 Z-0.125000
G01 X36.888965 Y61.244932 Z-0.125000
G01 X36.954994 Y61.759149 Z-0.125000
G01 X37.119707 Y62.298594 Z-0.125000
G01 X37.329234 Y62.724222 Z-0.125000
G01 X37.529700 Y62.896996 Z-0.125000
G01 X37.693707 Y63.036177 Z-0.125000
G01 X37.942007 Y63.415139 Z-0.125000
G01 X38.240902 Y63.975999 Z-0.125000
G01 X38.556692 Y64.660885 Z-0.125000
G01 X38.892884 Y65.347526 Z-0.125000
G01 X39.245371 Y65.908191 Z-0.125000
G01 X39.573059 Y66.286177 Z-0.125000
G01 X39.834860 Y66.424774 Z-0.125000
G01 X40.036519 Y66.479180 Z-0.125000
G01 X40.201658 Y66.627322 Z-0.125000
G01 X40.313238 Y66.846569 Z-0.125000
G01 X40.354219 Y67.114296 Z-0.125000
G01 X40.420973 Y67.448778 Z-0.125000
G01 X40.602733 Y67.849784 Z-0.125000
G01 X40.871739 Y68.266928 Z-0.125000
G01 X41.200228 Y68.649825 Z-0.125000
G01 X41.887626 Y69.458778 Z-0.125000
G01 X42.487912 Y70.407542 Z-0.125000
G01 X42.971813 Y71.442538 Z-0.125000
G01 X43.310043 Y72.510190 Z-0.125000
G01 X43.441589 Y72.886875 Z-0.125000
G01 X43.627797 Y73.195350 Z-0.125000
G01 X43.843894 Y73.403779 Z-0.125000
G01 X44.065106 Y73.480329 Z-0.125000
G01 X44.267961 Y73.514131 Z-0.125000
G01 X44.434083 Y73.606164 Z-0.125000
G01 X44.546328 Y73.742373 Z-0.125000
G01 X44.587553 Y73.908703 Z-0.125000
G01 X44.628404 Y74.048115 Z-0.125000
G01 X44.746511 Y74.064682 Z-0.125000
G01 X44.935197 Y73.960288 Z-0.125000
G01 X45.187783 Y73.736858 Z-0.125000
G01 X45.466457 Y73.305270 Z-0.125000
G01 X45.702469 Y72.610647 Z-0.125000
G01 X45.895749 Y71.653271 Z-0.125000
G01 X46.046221 Y70.433416 Z-0.125000
G01 X46.178592 Y69.363960 Z-0.125000
G01 X46.348131 Y68.450384 Z-0.125000
G01 X46.533015 Y67.789637 Z-0.125000
G01 X46.711413 Y67.478673 Z-0.125000
G01 X46.904823 Y67.119704 Z-0.125000
G01 X47.130578 Y66.328248 Z-0.125000
G01 X47.360609 Y65.221226 Z-0.125000
G01 X47.566846 Y63.915547 Z-0.125000
G01 X47.758542 Y62.587963 Z-0.125000
G01 X47.948983 Y61.421290 Z-0.125000
G01 X48.116140 Y60.541555 Z-0.125000
G01 X48.237995 Y60.074785 Z-0.125000
G01 X48.331967 Y59.480419 Z-0.125000
G01 X48.015254 Y59.042563 Z-0.125000
G01 X47.250077 Y58.735192 Z-0.125000
G01 X45.998664 Y58.532285 Z-0.125000
G01 X43.154507 Y58.216868 Z-0.125000
G01 X41.432254 Y57.979917 Z-0.125000
G01 X40.582094 Y57.778904 Z-0.125000
G01 X40.354219 Y57.571293 Z-0.125000
G01 X40.228955 Y57.447536 Z-0.125000
G01 X39.887892 Y57.346190 Z-0.125000
G01 X39.383115 Y57.277712 Z-0.125000
G01 X38.766719 Y57.252566 Z-0.125000
G01 X38.150323 Y57.224738 Z-0.125000
G01 X37.645546 Y57.148945 Z-0.125000
G01 X37.304484 Y57.036773 Z-0.125000
G01 X37.179219 Y56.899796 Z-0.125000
G01 X37.054553 Y56.762820 Z-0.125000
G01 X36.715113 Y56.650648 Z-0.125000
G01 X36.212744 Y56.574854 Z-0.125000
G01 X35.599283 Y56.547027 Z-0.125000
G01 X35.204299 Y56.547027 Z-0.125000
G01 X34.809314 Y56.547027 Z-0.125000
G01 X34.414330 Y56.547027 Z-0.125000
G01 X34.019346 Y56.547027 Z-0.125000
G01 X34.127065 Y56.789563 Z-0.125000
G01 X34.234783 Y57.032096 Z-0.125000
G01 X34.342505 Y57.274632 Z-0.125000
G01 X34.450215 Y57.517135 Z-0.125000
G00 Z5.000000

(Change tool to Cylindrical cutter)

G00 Z5.000000
G00 X44.149688 Y58.933823

G01 Z-0.125000 F100.0(Penetrate)
G01 X45.869770 Y59.249883 Z-0.125000 F400.000000
G01 X46.953986 Y59.518268 Z-0.125000
G01 X47.494574 Y59.768407 Z-0.125000
G01 X47.583776 Y60.029742 Z-0.125000
G01 X47.470774 Y60.457885 Z-0.125000
G01 X47.299852 Y61.265732 Z-0.125000
G01 X47.094197 Y62.337530 Z-0.125000
G01 X46.877001 Y63.557520 Z-0.125000
G01 X46.632498 Y64.891517 Z-0.125000
G01 X46.352494 Y66.273726 Z-0.125000
G01 X46.071533 Y67.540982 Z-0.125000
G01 X45.824160 Y68.530126 Z-0.125000
G01 X45.617534 Y69.349589 Z-0.125000
G01 X45.447512 Y70.154851 Z-0.125000
G01 X45.331699 Y70.853306 Z-0.125000
G01 X45.287698 Y71.352348 Z-0.125000
G01 X45.262749 Y71.735296 Z-0.125000
G01 X45.198651 Y72.117653 Z-0.125000
G01 X45.105142 Y72.455089 Z-0.125000
G01 X44.991971 Y72.703278 Z-0.125000
G01 X44.757315 Y72.948826 Z-0.125000
G01 X44.480717 Y72.823576 Z-0.125000
G01 X44.054466 Y72.215079 Z-0.125000
G01 X43.370842 Y71.010885 Z-0.125000
G01 X43.007565 Y70.381572 Z-0.125000
G01 X42.521336 Y69.580837 Z-0.125000
G01 X41.975693 Y68.711530 Z-0.125000
G01 X41.434188 Y67.876497 Z-0.125000
G01 X40.527648 Y66.502856 Z-0.125000
G01 X39.842536 Y65.423178 Z-0.125000
G01 X38.909371 Y63.875125 Z-0.125000
G01 X37.258662 Y61.096342 Z-0.125000
G01 X36.651052 Y60.072914 Z-0.125000
G01 X36.043441 Y59.049486 Z-0.125000
G01 X35.435831 Y58.026055 Z-0.125000
G01 X34.828221 Y57.002627 Z-0.125000
G01 X35.541018 Y57.167555 Z-0.125000
G01 X36.253815 Y57.332480 Z-0.125000
G01 X36.966610 Y57.497407 Z-0.125000
G01 X37.679407 Y57.662335 Z-0.125000
G01 X39.072038 Y57.966760 Z-0.125000
G01 X40.756163 Y58.307961 Z-0.125000
G01 X42.519482 Y58.644223 Z-0.125000
G01 X44.149688 Y58.933823 Z-0.125000
G00 Z5.000000

(Change tool to Cylindrical cutter)

G00 Z5.000000
G00 X59.404211 Y48.785885

G01 Z-0.125000 F100.0(Penetrate)
G01 X59.432038 Y49.059838 Z-0.125000 F400.000000
G01 X59.507832 Y49.284185 Z-0.125000
G01 X59.620004 Y49.435766 Z-0.125000
G01 X59.756980 Y49.491440 Z-0.125000
G01 X59.893957 Y49.536889 Z-0.125000
G01 X60.006129 Y49.660635 Z-0.125000
G01 X60.081922 Y49.843781 Z-0.125000
G01 X60.109749 Y50.067422 Z-0.125000
G01 X60.161303 Y50.336083 Z-0.125000
G01 X60.301669 Y50.641806 Z-0.125000
G01 X60.509410 Y50.946968 Z-0.125000
G01 X60.763091 Y51.213950 Z-0.125000
G01 X61.065608 Y51.530295 Z-0.125000
G01 X61.406321 Y51.969868 Z-0.125000
G01 X61.743483 Y52.474521 Z-0.125000
G01 X62.035352 Y52.986099 Z-0.125000
G01 X62.472861 Y53.799371 Z-0.125000
G01 X62.926920 Y54.479749 Z-0.125000
G01 X63.624300 Y55.328369 Z-0.125000
G01 X64.791774 Y56.646366 Z-0.125000
G01 X67.038596 Y59.067923 Z-0.125000
G01 X69.038016 Y61.056032 Z-0.125000
G01 X70.569012 Y62.401967 Z-0.125000
G01 X71.410562 Y62.896996 Z-0.125000
G01 X71.939915 Y63.252579 Z-0.125000
G01 X72.492537 Y63.634107 Z-0.125000
G01 X73.074457 Y63.999858 Z-0.125000
G01 X73.691694 Y64.308107 Z-0.125000
G01 X74.686886 Y64.721602 Z-0.125000
G01 X75.702889 Y64.929634 Z-0.125000
G01 X76.708060 Y65.003291 Z-0.125000
G01 X77.670759 Y65.013677 Z-0.125000
G01 X79.533409 Y64.991635 Z-0.125000
G01 X80.643025 Y64.893348 Z-0.125000
G01 X81.258696 Y64.670613 Z-0.125000
G01 X81.639509 Y64.275225 Z-0.125000
G01 X81.884876 Y63.936700 Z-0.125000
G01 X82.169407 Y63.560867 Z-0.125000
G01 X82.457815 Y63.193499 Z-0.125000
G01 X82.714818 Y62.880356 Z-0.125000
G01 X82.981668 Y62.512858 Z-0.125000
G01 X83.296890 Y61.997480 Z-0.125000
G01 X83.621102 Y61.402604 Z-0.125000
G01 X83.914926 Y60.796594 Z-0.125000
G01 X84.202369 Y60.242380 Z-0.125000
G01 X84.509204 Y59.788527 Z-0.125000
G01 X84.798710 Y59.481867 Z-0.125000
G01 X85.034160 Y59.369241 Z-0.125000
G01 X85.218821 Y59.341414 Z-0.125000
G01 X85.370044 Y59.265620 Z-0.125000
G01 X85.472223 Y59.153448 Z-0.125000
G01 X85.509750 Y59.016471 Z-0.125000
G01 X85.607176 Y58.879495 Z-0.125000
G01 X85.872450 Y58.767323 Z-0.125000
G01 X86.265052 Y58.691529 Z-0.125000
G01 X86.744472 Y58.663702 Z-0.125000
G01 X87.223891 Y58.691529 Z-0.125000
G01 X87.616493 Y58.767323 Z-0.125000
G01 X87.881768 Y58.879495 Z-0.125000
G01 X87.979194 Y59.016471 Z-0.125000
G01 X88.032991 Y59.153448 Z-0.125000
G01 X88.179467 Y59.265620 Z-0.125000
G01 X88.396254 Y59.341414 Z-0.125000
G01 X88.660975 Y59.369241 Z-0.125000
G01 X88.943370 Y59.424915 Z-0.125000
G01 X89.208266 Y59.576499 Z-0.125000
G01 X89.425947 Y59.800843 Z-0.125000
G01 X89.566694 Y60.074796 Z-0.125000
G01 X89.681290 Y60.348749 Z-0.125000
G01 X89.827767 Y60.573096 Z-0.125000
G01 X89.987281 Y60.724678 Z-0.125000
G01 X90.140991 Y60.780352 Z-0.125000
G01 X90.328158 Y61.897238 Z-0.125000
G01 X90.335242 Y64.537763 Z-0.125000
G01 X90.188190 Y67.636735 Z-0.125000
G01 X89.912998 Y70.128963 Z-0.125000
G01 X89.613952 Y71.120523 Z-0.125000
G01 X89.140922 Y71.965789 Z-0.125000
G01 X88.574169 Y72.554101 Z-0.125000
G01 X87.993957 Y72.774796 Z-0.125000
G01 X87.851254 Y72.802623 Z-0.125000
G01 X87.734392 Y72.878417 Z-0.125000
G01 X87.655432 Y72.990589 Z-0.125000
G01 X87.626430 Y73.127566 Z-0.125000
G01 X87.542921 Y73.264542 Z-0.125000
G01 X87.315546 Y73.376714 Z-0.125000
G01 X86.979027 Y73.452508 Z-0.125000
G01 X86.568097 Y73.480335 Z-0.125000
G01 X86.157167 Y73.452508 Z-0.125000
G01 X85.820648 Y73.376714 Z-0.125000
G01 X85.593273 Y73.264542 Z-0.125000
G01 X85.509764 Y73.127566 Z-0.125000
G01 X85.456410 Y72.990589 Z-0.125000
G01 X85.311141 Y72.878417 Z-0.125000
G01 X85.096144 Y72.802623 Z-0.125000
G01 X84.833604 Y72.774796 Z-0.125000
G01 X84.561788 Y72.748521 Z-0.125000
G01 X84.321526 Y72.676944 Z-0.125000
G01 X84.138869 Y72.571015 Z-0.125000
G01 X84.039854 Y72.441658 Z-0.125000
G01 X83.567795 Y72.305938 Z-0.125000
G01 X82.364939 Y72.185265 Z-0.125000
G01 X80.603971 Y72.092101 Z-0.125000
G01 X78.457586 Y72.038902 Z-0.125000
G01 X76.293732 Y71.990907 Z-0.125000
G01 X74.441722 Y71.911682 Z-0.125000
G01 X73.098339 Y71.812232 Z-0.125000
G01 X72.460364 Y71.703560 Z-0.125000
G01 X72.065693 Y71.509783 Z-0.125000
G01 X71.384762 Y71.178610 Z-0.125000
G01 X70.513186 Y70.756433 Z-0.125000
G01 X69.546569 Y70.289649 Z-0.125000
G01 X68.621972 Y69.823536 Z-0.125000
G01 X67.864810 Y69.403195 Z-0.125000
G01 X67.353214 Y69.074736 Z-0.125000
G01 X67.165319 Y68.884270 Z-0.125000
G01 X67.088769 Y68.751992 Z-0.125000
G01 X66.880340 Y68.581956 Z-0.125000
G01 X66.571865 Y68.396082 Z-0.125000
G01 X66.195180 Y68.216284 Z-0.125000
G01 X65.284703 Y67.681292 Z-0.125000
G01 X64.207492 Y66.868060 Z-0.125000
G01 X63.308326 Y66.059508 Z-0.125000
G01 X62.931986 Y65.538554 Z-0.125000
G01 X62.813681 Y65.341613 Z-0.125000
G01 X62.491564 Y64.946324 Z-0.125000
G01 X62.014831 Y64.410057 Z-0.125000
G01 X61.432680 Y63.790173 Z-0.125000
G01 X60.221058 Y62.511658 Z-0.125000
G01 X59.467285 Y61.643667 Z-0.125000
G01 X58.998166 Y60.967502 Z-0.125000
G01 X58.640503 Y60.264458 Z-0.125000
G01 X58.445375 Y59.916868 Z-0.125000
G01 X58.215604 Y59.632218 Z-0.125000
G01 X57.979855 Y59.439889 Z-0.125000
G01 X57.766803 Y59.369252 Z-0.125000
G01 X57.325808 Y59.086979 Z-0.125000
G01 X57.072420 Y58.353218 Z-0.125000
G01 X57.034840 Y57.337551 Z-0.125000
G01 X57.241274 Y56.209560 Z-0.125000
G01 X57.396217 Y55.606815 Z-0.125000
G01 X57.523098 Y54.950259 Z-0.125000
G01 X57.608832 Y54.319187 Z-0.125000
G01 X57.640319 Y53.792894 Z-0.125000
G01 X57.664477 Y53.356756 Z-0.125000
G01 X57.730289 Y52.971158 Z-0.125000
G01 X57.827686 Y52.677904 Z-0.125000
G01 X57.946623 Y52.518799 Z-0.125000
G01 X58.084528 Y52.277651 Z-0.125000
G01 X58.233570 Y51.761004 Z-0.125000
G01 X58.375810 Y51.044789 Z-0.125000
G01 X58.493310 Y50.204923 Z-0.125000
G01 X58.613094 Y49.379996 Z-0.125000
G01 X58.761551 Y48.704452 Z-0.125000
G01 X58.919796 Y48.248003 Z-0.125000
G01 X59.068936 Y48.080363 Z-0.125000
G01 X59.199111 Y48.136037 Z-0.125000
G01 X59.305715 Y48.287621 Z-0.125000
G01 X59.377744 Y48.511965 Z-0.125000
G01 X59.404211 Y48.785885 Z-0.125000
G00 Z5.000000

(End cutting path id: path3372)


(Footer)
M5
G00 X0.0000 Y0.0000
M2
(Using default footer. To add your own footer create file "footer" in the output dir.)
(end)
%