%
(Header)
(Generated by gcodetools from Inkscape.)
(Using default header. To add your own header create file "header" in the output dir.)
M3
(Header end.)
G21 (All units in mm)

(Start cutting path id: path13998)
(Change tool to Default tool)

G00 Z5.000000
G00 X103.920906 Y51.726846

G01 Z-0.125000 F100.0(Penetrate)
G01 X103.857389 Y49.199069 Z-0.125000 F400.000000
G01 X103.668881 Y46.704473 Z-0.125000
G01 X103.358448 Y44.246148 Z-0.125000
G01 X102.929163 Y41.827182 Z-0.125000
G01 X102.384084 Y39.450657 Z-0.125000
G01 X101.726287 Y37.119662 Z-0.125000
G01 X100.958834 Y34.837280 Z-0.125000
G01 X100.084795 Y32.606601 Z-0.125000
G01 X99.107233 Y30.430713 Z-0.125000
G01 X98.029221 Y28.312697 Z-0.125000
G01 X96.853821 Y26.255641 Z-0.125000
G01 X95.584101 Y24.262636 Z-0.125000
G01 X94.223129 Y22.336763 Z-0.125000
G01 X92.773975 Y20.481109 Z-0.125000
G01 X91.239702 Y18.698763 Z-0.125000
G01 X89.623376 Y16.992809 Z-0.125000
G01 X87.928070 Y15.366337 Z-0.125000
G01 X86.156846 Y13.822429 Z-0.125000
G01 X84.312772 Y12.364173 Z-0.125000
G01 X82.398918 Y10.994655 Z-0.125000
G01 X80.418348 Y9.716962 Z-0.125000
G01 X78.374130 Y8.534183 Z-0.125000
G01 X76.269331 Y7.449400 Z-0.125000
G01 X74.107018 Y6.465700 Z-0.125000
G01 X71.890261 Y5.586171 Z-0.125000
G01 X69.622123 Y4.813898 Z-0.125000
G01 X67.305674 Y4.151972 Z-0.125000
G01 X64.943979 Y3.603473 Z-0.125000
G01 X62.540106 Y3.171489 Z-0.125000
G01 X60.097123 Y2.859109 Z-0.125000
G01 X57.618094 Y2.669419 Z-0.125000
G01 X55.106091 Y2.605501 Z-0.125000
G01 X52.594087 Y2.669419 Z-0.125000
G01 X50.115058 Y2.859109 Z-0.125000
G01 X47.672075 Y3.171489 Z-0.125000
G01 X45.268202 Y3.603473 Z-0.125000
G01 X42.906507 Y4.151972 Z-0.125000
G01 X40.590058 Y4.813898 Z-0.125000
G01 X38.321920 Y5.586171 Z-0.125000
G01 X36.105160 Y6.465700 Z-0.125000
G01 X33.942850 Y7.449400 Z-0.125000
G01 X31.838051 Y8.534183 Z-0.125000
G01 X29.793833 Y9.716962 Z-0.125000
G01 X27.813263 Y10.994655 Z-0.125000
G01 X25.899408 Y12.364173 Z-0.125000
G01 X24.055335 Y13.822429 Z-0.125000
G01 X22.284112 Y15.366337 Z-0.125000
G01 X20.588804 Y16.992809 Z-0.125000
G01 X18.972480 Y18.698763 Z-0.125000
G01 X17.438206 Y20.481109 Z-0.125000
G01 X15.989050 Y22.336763 Z-0.125000
G01 X14.628079 Y24.262633 Z-0.125000
G01 X13.358360 Y26.255641 Z-0.125000
G01 X12.182960 Y28.312697 Z-0.125000
G01 X11.104946 Y30.430710 Z-0.125000
G01 X10.127385 Y32.606601 Z-0.125000
G01 X9.253345 Y34.837280 Z-0.125000
G01 X8.485892 Y37.119662 Z-0.125000
G01 X7.828094 Y39.450657 Z-0.125000
G01 X7.283018 Y41.827182 Z-0.125000
G01 X6.853731 Y44.246148 Z-0.125000
G01 X6.543300 Y46.704473 Z-0.125000
G01 X6.354792 Y49.199069 Z-0.125000
G01 X6.291274 Y51.726846 Z-0.125000
G01 X6.354792 Y54.254623 Z-0.125000
G01 X6.543299 Y56.749219 Z-0.125000
G01 X6.853730 Y59.207544 Z-0.125000
G01 X7.283017 Y61.626510 Z-0.125000
G01 X7.828093 Y64.003036 Z-0.125000
G01 X8.485891 Y66.334034 Z-0.125000
G01 X9.253344 Y68.616413 Z-0.125000
G01 X10.127384 Y70.847092 Z-0.125000
G01 X11.104944 Y73.022983 Z-0.125000
G01 X12.182958 Y75.140998 Z-0.125000
G01 X13.358358 Y77.198053 Z-0.125000
G01 X14.628077 Y79.191060 Z-0.125000
G01 X15.989049 Y81.116933 Z-0.125000
G01 X17.438204 Y82.972586 Z-0.125000
G01 X18.972478 Y84.754932 Z-0.125000
G01 X20.588802 Y86.460885 Z-0.125000
G01 X22.284110 Y88.087359 Z-0.125000
G01 X24.055334 Y89.631267 Z-0.125000
G01 X25.899407 Y91.089523 Z-0.125000
G01 X27.813262 Y92.459040 Z-0.125000
G01 X29.793833 Y93.736733 Z-0.125000
G01 X31.838051 Y94.919514 Z-0.125000
G01 X33.942850 Y96.004297 Z-0.125000
G01 X36.105160 Y96.987996 Z-0.125000
G01 X38.321920 Y97.867524 Z-0.125000
G01 X40.590058 Y98.639796 Z-0.125000
G01 X42.906507 Y99.301725 Z-0.125000
G01 X45.268202 Y99.850224 Z-0.125000
G01 X47.672075 Y100.282206 Z-0.125000
G01 X50.115058 Y100.594587 Z-0.125000
G01 X52.594087 Y100.784278 Z-0.125000
G01 X55.106091 Y100.848195 Z-0.125000
G01 X57.618094 Y100.784278 Z-0.125000
G01 X60.097123 Y100.594587 Z-0.125000
G01 X62.540106 Y100.282206 Z-0.125000
G01 X64.943979 Y99.850223 Z-0.125000
G01 X67.305674 Y99.301724 Z-0.125000
G01 X69.622123 Y98.639796 Z-0.125000
G01 X71.890261 Y97.867524 Z-0.125000
G01 X74.107021 Y96.987995 Z-0.125000
G01 X76.269331 Y96.004296 Z-0.125000
G01 X78.374130 Y94.919513 Z-0.125000
G01 X80.418348 Y93.736732 Z-0.125000
G01 X82.398918 Y92.459040 Z-0.125000
G01 X84.312775 Y91.089522 Z-0.125000
G01 X86.156846 Y89.631267 Z-0.125000
G01 X87.928070 Y88.087358 Z-0.125000
G01 X89.623378 Y86.460885 Z-0.125000
G01 X91.239702 Y84.754931 Z-0.125000
G01 X92.773975 Y82.972585 Z-0.125000
G01 X94.223132 Y81.116932 Z-0.125000
G01 X95.584104 Y79.191059 Z-0.125000
G01 X96.853821 Y77.198052 Z-0.125000
G01 X98.029221 Y75.140998 Z-0.125000
G01 X99.107236 Y73.022983 Z-0.125000
G01 X100.084797 Y70.847092 Z-0.125000
G01 X100.958837 Y68.616413 Z-0.125000
G01 X101.726289 Y66.334034 Z-0.125000
G01 X102.384087 Y64.003036 Z-0.125000
G01 X102.929163 Y61.626510 Z-0.125000
G01 X103.358451 Y59.207544 Z-0.125000
G01 X103.668881 Y56.749219 Z-0.125000
G01 X103.857389 Y54.254623 Z-0.125000
G01 X103.920906 Y51.726846 Z-0.125000
G00 Z5.000000

(End cutting path id: path13998)


(Start cutting path id: path13959)
(Change tool to Default tool)

G00 Z5.000000
G00 X56.436037 Y58.684807

G01 Z-0.125000 F100.0(Penetrate)
G01 X57.187299 Y59.404301 Z-0.125000 F400.000000
G01 X57.921692 Y60.133095 Z-0.125000
G01 X58.642911 Y60.869119 Z-0.125000
G01 X59.354653 Y61.610308 Z-0.125000
G01 X60.060615 Y62.354593 Z-0.125000
G01 X60.764488 Y63.099905 Z-0.125000
G01 X61.469970 Y63.844184 Z-0.125000
G01 X62.180758 Y64.585359 Z-0.125000
G01 X62.900543 Y65.321361 Z-0.125000
G01 X63.633020 Y66.050124 Z-0.125000
G01 X64.381888 Y66.769584 Z-0.125000
G01 X65.150842 Y67.477671 Z-0.125000
G01 X65.943576 Y68.172319 Z-0.125000
G01 X66.763785 Y68.851459 Z-0.125000
G01 X67.615162 Y69.513027 Z-0.125000
G01 X68.501407 Y70.154956 Z-0.125000
G01 X69.255920 Y70.495499 Z-0.125000
G01 X70.002022 Y70.800731 Z-0.125000
G01 X70.740657 Y71.072463 Z-0.125000
G01 X71.472756 Y71.312504 Z-0.125000
G01 X72.199266 Y71.522667 Z-0.125000
G01 X72.921123 Y71.704754 Z-0.125000
G01 X73.639268 Y71.860577 Z-0.125000
G01 X74.354640 Y71.991949 Z-0.125000
G01 X75.068176 Y72.100675 Z-0.125000
G01 X75.780819 Y72.188564 Z-0.125000
G01 X76.493506 Y72.257427 Z-0.125000
G01 X77.207178 Y72.309073 Z-0.125000
G01 X77.922772 Y72.345311 Z-0.125000
G01 X78.641231 Y72.367945 Z-0.125000
G01 X79.363494 Y72.378782 Z-0.125000
G01 X80.090499 Y72.379629 Z-0.125000
G01 X80.470263 Y72.411235 Z-0.125000
G01 X80.849964 Y72.448514 Z-0.125000
G01 X81.229330 Y72.491812 Z-0.125000
G01 X81.608087 Y72.541486 Z-0.125000
G01 X81.985962 Y72.597882 Z-0.125000
G01 X82.362684 Y72.661354 Z-0.125000
G01 X82.737983 Y72.732251 Z-0.125000
G01 X83.111583 Y72.810926 Z-0.125000
G01 X83.483213 Y72.897729 Z-0.125000
G01 X83.852603 Y72.993008 Z-0.125000
G01 X84.219478 Y73.097119 Z-0.125000
G01 X84.583567 Y73.210409 Z-0.125000
G01 X84.944597 Y73.333232 Z-0.125000
G01 X85.302297 Y73.465936 Z-0.125000
G01 X85.656395 Y73.608873 Z-0.125000
G01 X86.006616 Y73.762396 Z-0.125000
G01 X86.466559 Y73.779753 Z-0.125000
G01 X86.913334 Y73.735571 Z-0.125000
G01 X87.344296 Y73.634250 Z-0.125000
G01 X87.756814 Y73.480191 Z-0.125000
G01 X88.148248 Y73.277793 Z-0.125000
G01 X88.515961 Y73.031446 Z-0.125000
G01 X88.857312 Y72.745552 Z-0.125000
G01 X89.169667 Y72.424511 Z-0.125000
G01 X89.450385 Y72.072712 Z-0.125000
G01 X89.696830 Y71.694560 Z-0.125000
G01 X89.906363 Y71.294445 Z-0.125000
G01 X90.076348 Y70.876770 Z-0.125000
G01 X90.204147 Y70.445930 Z-0.125000
G01 X90.287123 Y70.006320 Z-0.125000
G01 X90.322632 Y69.562343 Z-0.125000
G01 X90.308041 Y69.118387 Z-0.125000
G01 X90.361505 Y68.629584 Z-0.125000
G01 X90.405755 Y68.140256 Z-0.125000
G01 X90.441896 Y67.650462 Z-0.125000
G01 X90.471033 Y67.160265 Z-0.125000
G01 X90.494288 Y66.669726 Z-0.125000
G01 X90.512745 Y66.178907 Z-0.125000
G01 X90.527506 Y65.687872 Z-0.125000
G01 X90.539698 Y65.196681 Z-0.125000
G01 X90.550422 Y64.705394 Z-0.125000
G01 X90.560780 Y64.214073 Z-0.125000
G01 X90.571871 Y63.722784 Z-0.125000
G01 X90.584825 Y63.231584 Z-0.125000
G01 X90.600742 Y62.740538 Z-0.125000
G01 X90.620724 Y62.249705 Z-0.125000
G01 X90.645870 Y61.759146 Z-0.125000
G01 X90.677292 Y61.268929 Z-0.125000
G01 X90.533872 Y60.722389 Z-0.125000
G01 X90.299351 Y60.227800 Z-0.125000
G01 X89.985134 Y59.787522 Z-0.125000
G01 X89.602629 Y59.403912 Z-0.125000
G01 X89.163249 Y59.079328 Z-0.125000
G01 X88.678400 Y58.816133 Z-0.125000
G01 X88.159495 Y58.616684 Z-0.125000
G01 X87.617938 Y58.483339 Z-0.125000
G01 X87.065141 Y58.418459 Z-0.125000
G01 X86.512513 Y58.424414 Z-0.125000
G01 X85.971465 Y58.503541 Z-0.125000
G01 X85.453404 Y58.658210 Z-0.125000
G01 X84.969740 Y58.890778 Z-0.125000
G01 X84.531881 Y59.203607 Z-0.125000
G01 X84.151236 Y59.599054 Z-0.125000
G01 X83.839214 Y60.079481 Z-0.125000
G01 X83.626825 Y60.397630 Z-0.125000
G01 X83.418909 Y60.727675 Z-0.125000
G01 X83.213048 Y61.065896 Z-0.125000
G01 X83.006828 Y61.408578 Z-0.125000
G01 X82.797828 Y61.752006 Z-0.125000
G01 X82.583636 Y62.092462 Z-0.125000
G01 X82.361832 Y62.426229 Z-0.125000
G01 X82.130000 Y62.749591 Z-0.125000
G01 X81.885723 Y63.058833 Z-0.125000
G01 X81.626581 Y63.350234 Z-0.125000
G01 X81.350161 Y63.620080 Z-0.125000
G01 X81.054045 Y63.864654 Z-0.125000
G01 X80.735817 Y64.080241 Z-0.125000
G01 X80.393055 Y64.263118 Z-0.125000
G01 X80.023347 Y64.409577 Z-0.125000
G01 X79.624276 Y64.515896 Z-0.125000
G01 X78.792849 Y64.603882 Z-0.125000
G01 X77.967129 Y64.621351 Z-0.125000
G01 X77.148942 Y64.571844 Z-0.125000
G01 X76.340121 Y64.458929 Z-0.125000
G01 X75.542496 Y64.286176 Z-0.125000
G01 X74.757896 Y64.057141 Z-0.125000
G01 X73.988151 Y63.775387 Z-0.125000
G01 X73.235098 Y63.444476 Z-0.125000
G01 X72.500558 Y63.067972 Z-0.125000
G01 X71.786367 Y62.649436 Z-0.125000
G01 X71.094358 Y62.192431 Z-0.125000
G01 X70.426355 Y61.700518 Z-0.125000
G01 X69.784192 Y61.177258 Z-0.125000
G01 X69.169698 Y60.626213 Z-0.125000
G01 X68.584708 Y60.050948 Z-0.125000
G01 X68.031047 Y59.455025 Z-0.125000
G01 X67.357775 Y58.759040 Z-0.125000
G01 X66.699077 Y58.049967 Z-0.125000
G01 X66.054619 Y57.328370 Z-0.125000
G01 X65.424070 Y56.594804 Z-0.125000
G01 X64.807090 Y55.849825 Z-0.125000
G01 X64.203346 Y55.093997 Z-0.125000
G01 X63.612505 Y54.327874 Z-0.125000
G01 X63.034232 Y53.552014 Z-0.125000
G01 X62.468190 Y52.766976 Z-0.125000
G01 X61.914044 Y51.973319 Z-0.125000
G01 X61.371461 Y51.171599 Z-0.125000
G01 X60.840107 Y50.362378 Z-0.125000
G01 X60.319644 Y49.546211 Z-0.125000
G01 X59.809739 Y48.723658 Z-0.125000
G01 X59.310059 Y47.895273 Z-0.125000
G01 X58.820265 Y47.061620 Z-0.125000
G00 Z5.000000

(End cutting path id: path13959)


(Start cutting path id: path13989)
(Change tool to Default tool)

G00 Z5.000000
G00 X50.339970 Y47.197109

G01 Z-0.125000 F100.0(Penetrate)
G01 X49.383185 Y45.072893 Z-0.125000 F400.000000
G01 X48.692260 Y42.874054 Z-0.125000
G01 X48.233632 Y40.617470 Z-0.125000
G01 X47.973739 Y38.320015 Z-0.125000
G01 X47.879014 Y35.998559 Z-0.125000
G01 X47.915901 Y33.669981 Z-0.125000
G01 X48.050831 Y31.351150 Z-0.125000
G01 X48.250244 Y29.058941 Z-0.125000
G01 X48.546078 Y27.937776 Z-0.125000
G01 X48.918120 Y26.838972 Z-0.125000
G01 X49.360808 Y25.764854 Z-0.125000
G01 X49.868571 Y24.717748 Z-0.125000
G01 X50.435846 Y23.699981 Z-0.125000
G01 X51.057068 Y22.713877 Z-0.125000
G01 X51.726666 Y21.761763 Z-0.125000
G01 X52.439079 Y20.845969 Z-0.125000
G01 X53.001415 Y20.118908 Z-0.125000
G01 X53.604891 Y19.429245 Z-0.125000
G01 X54.247314 Y18.777907 Z-0.125000
G01 X54.926481 Y18.165829 Z-0.125000
G01 X55.640205 Y17.593939 Z-0.125000
G01 X56.386287 Y17.063170 Z-0.125000
G01 X57.162531 Y16.574454 Z-0.125000
G01 X57.966740 Y16.128721 Z-0.125000
G01 X59.482448 Y15.288695 Z-0.125000
G01 X61.073473 Y14.681750 Z-0.125000
G01 X62.723060 Y14.279344 Z-0.125000
G01 X64.414462 Y14.052923 Z-0.125000
G01 X66.130930 Y13.973937 Z-0.125000
G01 X67.855714 Y14.013843 Z-0.125000
G01 X69.572065 Y14.144086 Z-0.125000
G01 X71.263234 Y14.336121 Z-0.125000
G01 X72.694024 Y14.620178 Z-0.125000
G01 X74.093497 Y15.016141 Z-0.125000
G01 X75.462184 Y15.510462 Z-0.125000
G01 X76.800603 Y16.089576 Z-0.125000
G01 X78.109282 Y16.739929 Z-0.125000
G01 X79.388745 Y17.447963 Z-0.125000
G01 X80.639517 Y18.200125 Z-0.125000
G01 X81.862120 Y18.982851 Z-0.125000
G01 X82.739349 Y19.586434 Z-0.125000
G01 X83.619016 Y20.198887 Z-0.125000
G01 X84.490343 Y20.828051 Z-0.125000
G01 X85.342547 Y21.481765 Z-0.125000
G01 X86.164852 Y22.167873 Z-0.125000
G01 X86.946478 Y22.894214 Z-0.125000
G01 X87.676643 Y23.668626 Z-0.125000
G01 X88.344567 Y24.498949 Z-0.125000
G01 X88.584826 Y25.302252 Z-0.125000
G01 X88.633292 Y26.127182 Z-0.125000
G01 X88.509027 Y26.948407 Z-0.125000
G01 X88.231092 Y27.740596 Z-0.125000
G01 X87.818550 Y28.478421 Z-0.125000
G01 X87.290465 Y29.136546 Z-0.125000
G01 X86.665901 Y29.689645 Z-0.125000
G01 X85.963919 Y30.112383 Z-0.125000
G01 X85.072743 Y30.230713 Z-0.125000
G01 X84.226914 Y30.132562 Z-0.125000
G01 X83.419928 Y29.861637 Z-0.125000
G01 X82.645276 Y29.461644 Z-0.125000
G01 X81.896458 Y28.976286 Z-0.125000
G01 X81.166970 Y28.449273 Z-0.125000
G01 X80.450307 Y27.924309 Z-0.125000
G01 X79.739962 Y27.445101 Z-0.125000
G01 X78.881219 Y26.822214 Z-0.125000
G01 X78.021446 Y26.191741 Z-0.125000
G01 X77.153025 Y25.571281 Z-0.125000
G01 X76.268346 Y24.978439 Z-0.125000
G01 X75.359799 Y24.430810 Z-0.125000
G01 X74.419768 Y23.945997 Z-0.125000
G01 X73.440640 Y23.541598 Z-0.125000
G01 X72.414805 Y23.235212 Z-0.125000
G01 X71.617143 Y22.957000 Z-0.125000
G01 X70.808088 Y22.709039 Z-0.125000
G01 X69.989181 Y22.497596 Z-0.125000
G01 X69.161960 Y22.328931 Z-0.125000
G01 X68.327967 Y22.209309 Z-0.125000
G01 X67.488740 Y22.144990 Z-0.125000
G01 X66.645824 Y22.142168 Z-0.125000
G01 X65.800752 Y22.207251 Z-0.125000
G01 X64.930139 Y22.214617 Z-0.125000
G01 X64.081700 Y22.334398 Z-0.125000
G01 X63.259730 Y22.556882 Z-0.125000
G01 X62.468515 Y22.872336 Z-0.125000
G01 X61.712348 Y23.271040 Z-0.125000
G01 X60.995518 Y23.743263 Z-0.125000
G01 X60.322316 Y24.279279 Z-0.125000
G01 X59.697036 Y24.869360 Z-0.125000
G01 X59.020708 Y25.508932 Z-0.125000
G01 X58.383907 Y26.196589 Z-0.125000
G01 X57.798970 Y26.930175 Z-0.125000
G01 X57.278225 Y27.707539 Z-0.125000
G01 X56.834005 Y28.526537 Z-0.125000
G01 X56.478642 Y29.385012 Z-0.125000
G01 X56.224469 Y30.280816 Z-0.125000
G01 X56.083816 Y31.211800 Z-0.125000
G00 Z5.000000

(End cutting path id: path13989)


(Start cutting path id: path13941)
(Change tool to Default tool)

G00 Z5.000000
G00 X34.869504 Y57.086283

G01 Z-0.125000 F100.0(Penetrate)
G01 X36.061625 Y59.050572 Z-0.125000 F400.000000
G01 X37.253743 Y61.014859 Z-0.125000
G01 X38.445864 Y62.979148 Z-0.125000
G01 X39.637984 Y64.943437 Z-0.125000
G01 X40.830105 Y66.907726 Z-0.125000
G01 X42.022223 Y68.872013 Z-0.125000
G01 X43.214344 Y70.836302 Z-0.125000
G01 X44.406465 Y72.800591 Z-0.125000
G01 X44.818391 Y72.686509 Z-0.125000
G01 X45.096427 Y72.453831 Z-0.125000
G01 X45.268665 Y72.130108 Z-0.125000
G01 X45.363190 Y71.742893 Z-0.125000
G01 X45.408097 Y71.319738 Z-0.125000
G01 X45.431465 Y70.888192 Z-0.125000
G01 X45.461397 Y70.475814 Z-0.125000
G01 X45.525978 Y70.110150 Z-0.125000
G01 X45.730253 Y68.985579 Z-0.125000
G01 X45.950184 Y67.864034 Z-0.125000
G01 X46.181428 Y66.744664 Z-0.125000
G01 X46.419640 Y65.626621 Z-0.125000
G01 X46.660478 Y64.509061 Z-0.125000
G01 X46.899596 Y63.391128 Z-0.125000
G01 X47.132652 Y62.271975 Z-0.125000
G01 X47.355306 Y61.150754 Z-0.125000
G01 X47.470278 Y60.844145 Z-0.125000
G01 X47.533620 Y60.552178 Z-0.125000
G01 X47.540619 Y60.282283 Z-0.125000
G01 X47.486565 Y60.041892 Z-0.125000
G01 X47.366747 Y59.838435 Z-0.125000
G01 X47.176459 Y59.679341 Z-0.125000
G01 X46.910989 Y59.572040 Z-0.125000
G01 X46.565628 Y59.523961 Z-0.125000
G01 X45.348096 Y59.283019 Z-0.125000
G01 X44.131572 Y59.035298 Z-0.125000
G01 X42.915801 Y58.782484 Z-0.125000
G01 X41.700526 Y58.526249 Z-0.125000
G01 X40.485489 Y58.268278 Z-0.125000
G01 X39.270429 Y58.010250 Z-0.125000
G01 X38.055093 Y57.753843 Z-0.125000
G01 X36.839223 Y57.500738 Z-0.125000
G01 X36.593007 Y57.448930 Z-0.125000
G01 X36.346793 Y57.397125 Z-0.125000
G01 X36.100577 Y57.345318 Z-0.125000
G01 X35.854364 Y57.293510 Z-0.125000
G01 X35.608147 Y57.241703 Z-0.125000
G01 X35.361931 Y57.189895 Z-0.125000
G01 X35.115718 Y57.138091 Z-0.125000
G01 X34.869504 Y57.086283 Z-0.125000
G00 Z5.000000

(End cutting path id: path13941)


(Start cutting path id: path13943)
(Change tool to Default tool)

G00 Z5.000000
G00 X23.896584 Y54.783324

G01 Z-0.125000 F100.0(Penetrate)
G01 X25.115417 Y56.779135 Z-0.125000 F400.000000
G01 X26.323867 Y58.782769 Z-0.125000
G01 X27.525452 Y60.791751 Z-0.125000
G01 X28.723689 Y62.803609 Z-0.125000
G01 X29.922098 Y64.815870 Z-0.125000
G01 X31.124195 Y66.826060 Z-0.125000
G01 X32.333500 Y68.831706 Z-0.125000
G01 X33.553530 Y70.830336 Z-0.125000
G01 X34.787801 Y72.819478 Z-0.125000
G01 X36.039832 Y74.796657 Z-0.125000
G01 X37.313139 Y76.759401 Z-0.125000
G01 X38.611246 Y78.705237 Z-0.125000
G01 X39.937665 Y80.631693 Z-0.125000
G01 X41.295916 Y82.536295 Z-0.125000
G01 X42.689518 Y84.416569 Z-0.125000
G01 X44.121987 Y86.270045 Z-0.125000
G01 X44.536679 Y86.807035 Z-0.125000
G01 X45.003605 Y87.227289 Z-0.125000
G01 X45.512282 Y87.536420 Z-0.125000
G01 X46.052224 Y87.740041 Z-0.125000
G01 X46.612943 Y87.843767 Z-0.125000
G01 X47.183955 Y87.853210 Z-0.125000
G01 X47.754769 Y87.773984 Z-0.125000
G01 X48.314901 Y87.611702 Z-0.125000
G01 X48.853869 Y87.371979 Z-0.125000
G01 X49.361181 Y87.060427 Z-0.125000
G01 X49.826353 Y86.682660 Z-0.125000
G01 X50.238897 Y86.244291 Z-0.125000
G01 X50.588331 Y85.750934 Z-0.125000
G01 X50.864164 Y85.208203 Z-0.125000
G01 X51.055911 Y84.621711 Z-0.125000
G01 X51.153089 Y83.997072 Z-0.125000
G01 X51.480847 Y82.490227 Z-0.125000
G01 X51.787174 Y80.978729 Z-0.125000
G01 X52.076110 Y79.463456 Z-0.125000
G01 X52.351689 Y77.945288 Z-0.125000
G01 X52.617946 Y76.425103 Z-0.125000
G01 X52.878923 Y74.903780 Z-0.125000
G01 X53.138655 Y73.382198 Z-0.125000
G01 X53.401180 Y71.861235 Z-0.125000
G01 X53.670531 Y70.341770 Z-0.125000
G01 X53.950749 Y68.824681 Z-0.125000
G01 X54.245872 Y67.310847 Z-0.125000
G01 X54.559931 Y65.801150 Z-0.125000
G01 X54.896972 Y64.296465 Z-0.125000
G01 X55.261025 Y62.797671 Z-0.125000
G01 X55.656128 Y61.305646 Z-0.125000
G01 X56.086319 Y59.821273 Z-0.125000
G01 X56.321695 Y58.760891 Z-0.125000
G01 X56.550490 Y57.698965 Z-0.125000
G01 X56.774255 Y56.635865 Z-0.125000
G01 X56.994550 Y55.571960 Z-0.125000
G01 X57.212933 Y54.507624 Z-0.125000
G01 X57.430958 Y53.443223 Z-0.125000
G01 X57.650188 Y52.379130 Z-0.125000
G01 X57.872173 Y51.315711 Z-0.125000
G01 X58.098476 Y50.253336 Z-0.125000
G01 X58.330652 Y49.192375 Z-0.125000
G01 X58.570258 Y48.133201 Z-0.125000
G01 X58.818851 Y47.076182 Z-0.125000
G01 X59.077987 Y46.021687 Z-0.125000
G01 X59.349228 Y44.970088 Z-0.125000
G01 X59.634126 Y43.921751 Z-0.125000
G01 X59.934241 Y42.877049 Z-0.125000
G01 X60.061811 Y42.254887 Z-0.125000
G01 X60.225407 Y41.639366 Z-0.125000
G01 X60.417984 Y41.029281 Z-0.125000
G01 X60.632496 Y40.423429 Z-0.125000
G01 X60.861903 Y39.820605 Z-0.125000
G01 X61.099158 Y39.219610 Z-0.125000
G01 X61.337221 Y38.619241 Z-0.125000
G01 X61.569044 Y38.018294 Z-0.125000
G01 X61.787589 Y37.415566 Z-0.125000
G01 X61.985805 Y36.809858 Z-0.125000
G01 X62.156654 Y36.199962 Z-0.125000
G01 X62.293088 Y35.584678 Z-0.125000
G01 X62.388067 Y34.962801 Z-0.125000
G01 X62.434544 Y34.333132 Z-0.125000
G01 X62.425484 Y33.694469 Z-0.125000
G01 X62.353831 Y33.045603 Z-0.125000
G01 X62.224576 Y32.433049 Z-0.125000
G01 X62.002016 Y31.890773 Z-0.125000
G01 X61.697489 Y31.419309 Z-0.125000
G01 X61.322343 Y31.019205 Z-0.125000
G01 X60.887912 Y30.690992 Z-0.125000
G01 X60.405547 Y30.435212 Z-0.125000
G01 X59.886585 Y30.252405 Z-0.125000
G01 X59.342370 Y30.143106 Z-0.125000
G01 X58.784245 Y30.107856 Z-0.125000
G01 X58.223551 Y30.147195 Z-0.125000
G01 X57.671629 Y30.261659 Z-0.125000
G01 X57.139823 Y30.451789 Z-0.125000
G01 X56.639474 Y30.718122 Z-0.125000
G01 X56.181924 Y31.061200 Z-0.125000
G01 X55.778519 Y31.481559 Z-0.125000
G01 X55.440597 Y31.979738 Z-0.125000
G01 X55.042345 Y32.620379 Z-0.125000
G01 X54.672157 Y33.275377 Z-0.125000
G01 X54.328004 Y33.943488 Z-0.125000
G01 X54.007857 Y34.623474 Z-0.125000
G01 X53.709689 Y35.314092 Z-0.125000
G01 X53.431474 Y36.014104 Z-0.125000
G01 X53.171186 Y36.722268 Z-0.125000
G01 X52.926793 Y37.437345 Z-0.125000
G01 X52.696271 Y38.158093 Z-0.125000
G01 X52.477591 Y38.883271 Z-0.125000
G01 X52.268727 Y39.611639 Z-0.125000
G01 X52.067652 Y40.341957 Z-0.125000
G01 X51.872335 Y41.072983 Z-0.125000
G01 X51.680751 Y41.803478 Z-0.125000
G01 X51.490872 Y42.532201 Z-0.125000
G01 X51.300671 Y43.257913 Z-0.125000
G01 X51.186289 Y43.743454 Z-0.125000
G01 X51.073395 Y44.229370 Z-0.125000
G01 X50.962351 Y44.715710 Z-0.125000
G01 X50.853524 Y45.202523 Z-0.125000
G01 X50.747273 Y45.689856 Z-0.125000
G01 X50.643960 Y46.177756 Z-0.125000
G01 X50.543949 Y46.666274 Z-0.125000
G01 X50.447601 Y47.155456 Z-0.125000
G01 X50.355283 Y47.645351 Z-0.125000
G01 X50.267354 Y48.136006 Z-0.125000
G01 X50.184180 Y48.627468 Z-0.125000
G01 X50.106120 Y49.119787 Z-0.125000
G01 X50.033538 Y49.613010 Z-0.125000
G01 X49.966798 Y50.107187 Z-0.125000
G01 X49.906262 Y50.602366 Z-0.125000
G01 X49.852292 Y51.098591 Z-0.125000
G01 X48.601585 Y50.851805 Z-0.125000
G01 X47.350375 Y50.607559 Z-0.125000
G01 X46.098762 Y50.365358 Z-0.125000
G01 X44.846841 Y50.124702 Z-0.125000
G01 X43.594715 Y49.885092 Z-0.125000
G01 X42.342478 Y49.646030 Z-0.125000
G01 X41.090235 Y49.407013 Z-0.125000
G01 X39.838083 Y49.167548 Z-0.125000
G01 X38.586117 Y48.927131 Z-0.125000
G01 X37.334441 Y48.685267 Z-0.125000
G01 X36.083153 Y48.441452 Z-0.125000
G01 X34.832349 Y48.195194 Z-0.125000
G01 X33.582130 Y47.945986 Z-0.125000
G01 X32.332597 Y47.693335 Z-0.125000
G01 X31.083846 Y47.436738 Z-0.125000
G01 X29.835978 Y47.175700 Z-0.125000
G01 X29.476940 Y46.718042 Z-0.125000
G01 X29.146681 Y46.243898 Z-0.125000
G01 X28.841920 Y45.755126 Z-0.125000
G01 X28.559371 Y45.253597 Z-0.125000
G01 X28.295750 Y44.741169 Z-0.125000
G01 X28.047775 Y44.219707 Z-0.125000
G01 X27.812161 Y43.691079 Z-0.125000
G01 X27.585625 Y43.157143 Z-0.125000
G01 X27.364881 Y42.619769 Z-0.125000
G01 X27.146647 Y42.080815 Z-0.125000
G01 X26.927639 Y41.542149 Z-0.125000
G01 X26.704572 Y41.005633 Z-0.125000
G01 X26.474163 Y40.473134 Z-0.125000
G01 X26.233128 Y39.946510 Z-0.125000
G01 X25.978183 Y39.427630 Z-0.125000
G01 X25.706045 Y38.918357 Z-0.125000
G01 X25.389506 Y38.352953 Z-0.125000
G01 X25.096913 Y37.746641 Z-0.125000
G01 X24.821088 Y37.109222 Z-0.125000
G01 X24.554856 Y36.450513 Z-0.125000
G01 X24.291038 Y35.780314 Z-0.125000
G01 X24.022458 Y35.108436 Z-0.125000
G01 X23.741940 Y34.444692 Z-0.125000
G01 X23.442305 Y33.798883 Z-0.125000
G01 X23.116378 Y33.180822 Z-0.125000
G01 X22.756982 Y32.600313 Z-0.125000
G01 X22.356940 Y32.067170 Z-0.125000
G01 X21.909074 Y31.591197 Z-0.125000
G01 X21.406208 Y31.182203 Z-0.125000
G01 X20.841166 Y30.849996 Z-0.125000
G01 X20.206769 Y30.604384 Z-0.125000
G01 X19.495842 Y30.455179 Z-0.125000
G01 X18.890141 Y30.438584 Z-0.125000
G01 X18.326215 Y30.506171 Z-0.125000
G01 X17.806117 Y30.650948 Z-0.125000
G01 X17.331898 Y30.865931 Z-0.125000
G01 X16.905612 Y31.144134 Z-0.125000
G01 X16.529308 Y31.478570 Z-0.125000
G01 X16.205041 Y31.862257 Z-0.125000
G01 X15.934861 Y32.288206 Z-0.125000
G01 X15.720821 Y32.749431 Z-0.125000
G01 X15.564973 Y33.238951 Z-0.125000
G01 X15.469369 Y33.749776 Z-0.125000
G01 X15.436060 Y34.274921 Z-0.125000
G01 X15.467100 Y34.807401 Z-0.125000
G01 X15.564540 Y35.340231 Z-0.125000
G01 X15.730431 Y35.866423 Z-0.125000
G01 X15.966827 Y36.378995 Z-0.125000
G01 X16.223242 Y37.181686 Z-0.125000
G01 X16.505180 Y37.975537 Z-0.125000
G01 X16.808376 Y38.762000 Z-0.125000
G01 X17.128566 Y39.542520 Z-0.125000
G01 X17.461489 Y40.318549 Z-0.125000
G01 X17.802879 Y41.091530 Z-0.125000
G01 X18.148475 Y41.862914 Z-0.125000
G01 X18.494012 Y42.634151 Z-0.125000
G01 X18.835228 Y43.406687 Z-0.125000
G01 X19.167858 Y44.181974 Z-0.125000
G01 X19.487641 Y44.961455 Z-0.125000
G01 X19.790311 Y45.746580 Z-0.125000
G01 X20.071606 Y46.538800 Z-0.125000
G01 X20.327263 Y47.339561 Z-0.125000
G01 X20.553019 Y48.150312 Z-0.125000
G01 X20.744609 Y48.972501 Z-0.125000
G01 X20.643339 Y49.439689 Z-0.125000
G01 X20.578497 Y49.900234 Z-0.125000
G01 X20.550300 Y50.352246 Z-0.125000
G01 X20.558967 Y50.793834 Z-0.125000
G01 X20.604716 Y51.223097 Z-0.125000
G01 X20.687764 Y51.638147 Z-0.125000
G01 X20.808331 Y52.037088 Z-0.125000
G01 X20.966634 Y52.418025 Z-0.125000
G01 X21.162891 Y52.779070 Z-0.125000
G01 X21.397320 Y53.118320 Z-0.125000
G01 X21.670139 Y53.433890 Z-0.125000
G01 X21.981567 Y53.723879 Z-0.125000
G01 X22.331821 Y53.986399 Z-0.125000
G01 X22.721120 Y54.219554 Z-0.125000
G01 X23.149682 Y54.421450 Z-0.125000
G01 X23.617725 Y54.590194 Z-0.125000
G01 X23.635155 Y54.602273 Z-0.125000
G01 X23.652585 Y54.614352 Z-0.125000
G01 X23.670015 Y54.626431 Z-0.125000
G01 X23.687445 Y54.638510 Z-0.125000
G01 X23.704875 Y54.650590 Z-0.125000
G01 X23.722305 Y54.662669 Z-0.125000
G01 X23.739735 Y54.674748 Z-0.125000
G01 X23.757165 Y54.686827 Z-0.125000
G01 X23.774595 Y54.698906 Z-0.125000
G01 X23.792025 Y54.710985 Z-0.125000
G01 X23.809455 Y54.723064 Z-0.125000
G01 X23.826885 Y54.735143 Z-0.125000
G01 X23.844315 Y54.747222 Z-0.125000
G01 X23.861745 Y54.759302 Z-0.125000
G01 X23.879175 Y54.771381 Z-0.125000
G01 X23.896605 Y54.783460 Z-0.125000
G01 X23.896605 Y54.783460 Z-0.125000
G01 X23.896605 Y54.783460 Z-0.125000
G01 X23.896605 Y54.783460 Z-0.125000
G01 X23.896605 Y54.783460 Z-0.125000
G01 X23.896605 Y54.783460 Z-0.125000
G01 X23.896605 Y54.783460 Z-0.125000
G01 X23.896605 Y54.783460 Z-0.125000
G01 X23.896605 Y54.783460 Z-0.125000
G01 X23.896605 Y54.783460 Z-0.125000
G01 X23.896605 Y54.783460 Z-0.125000
G01 X23.896605 Y54.783460 Z-0.125000
G01 X23.896605 Y54.783460 Z-0.125000
G01 X23.896605 Y54.783460 Z-0.125000
G01 X23.896605 Y54.783460 Z-0.125000
G01 X23.896605 Y54.783460 Z-0.125000
G01 X23.896584 Y54.783324 Z-0.125000
G00 Z5.000000

(End cutting path id: path13943)


(Footer)
M5
G00 X0.0000 Y0.0000
M2
(Using default footer. To add your own footer create file "footer" in the output dir.)
(end)
%