%
(Header)
(Generated by gcodetools from Inkscape.)
(Using default header. To add your own header create file "header" in the output dir.)
M3
(Header end.)
G21 (All units in mm)

(Start cutting path id: path3404)
(Change tool to Default tool)

G00 Z0.500000
G00 X98.241511 Y21.024677

G01 Z-1.000000 F100.0(Penetrate)
G01 X98.236883 Y20.658245 Z-1.000000 F400.000000
G01 X98.223054 Y20.294097 Z-1.000000
G01 X98.200137 Y19.932350 Z-1.000000
G01 X98.168235 Y19.573109 Z-1.000000
G01 X98.127471 Y19.216490 Z-1.000000
G01 X98.077952 Y18.862603 Z-1.000000
G01 X98.019792 Y18.511561 Z-1.000000
G01 X97.953100 Y18.163474 Z-1.000000
G01 X97.877989 Y17.818452 Z-1.000000
G01 X97.794573 Y17.476610 Z-1.000000
G01 X97.702960 Y17.138056 Z-1.000000
G01 X97.603263 Y16.802903 Z-1.000000
G01 X97.495592 Y16.471264 Z-1.000000
G01 X97.380059 Y16.143251 Z-1.000000
G01 X97.256778 Y15.818972 Z-1.000000
G01 X97.125858 Y15.498540 Z-1.000000
G01 X96.987411 Y15.182064 Z-1.000000
G01 X96.841550 Y14.869661 Z-1.000000
G01 X96.688383 Y14.561441 Z-1.000000
G01 X96.528024 Y14.257513 Z-1.000000
G01 X96.360587 Y13.957990 Z-1.000000
G01 X96.186177 Y13.662984 Z-1.000000
G01 X96.004911 Y13.372602 Z-1.000000
G01 X95.816900 Y13.086962 Z-1.000000
G01 X95.622252 Y12.806174 Z-1.000000
G01 X95.421081 Y12.530347 Z-1.000000
G01 X95.213498 Y12.259594 Z-1.000000
G01 X94.999616 Y11.994026 Z-1.000000
G01 X94.779545 Y11.733755 Z-1.000000
G01 X94.553394 Y11.478891 Z-1.000000
G01 X94.321281 Y11.229548 Z-1.000000
G01 X94.083311 Y10.985838 Z-1.000000
G01 X93.839598 Y10.747868 Z-1.000000
G01 X93.590257 Y10.515751 Z-1.000000
G01 X93.335394 Y10.289604 Z-1.000000
G01 X93.075123 Y10.069533 Z-1.000000
G01 X92.809554 Y9.855648 Z-1.000000
G01 X92.538802 Y9.648068 Z-1.000000
G01 X92.262975 Y9.446897 Z-1.000000
G01 X91.982183 Y9.252248 Z-1.000000
G01 X91.696543 Y9.064234 Z-1.000000
G01 X91.406165 Y8.882969 Z-1.000000
G01 X91.111158 Y8.708561 Z-1.000000
G01 X90.811636 Y8.541121 Z-1.000000
G01 X90.507708 Y8.380763 Z-1.000000
G01 X90.199484 Y8.227598 Z-1.000000
G01 X89.887081 Y8.081734 Z-1.000000
G01 X89.570608 Y7.943287 Z-1.000000
G01 X89.250176 Y7.812367 Z-1.000000
G01 X88.925897 Y7.689087 Z-1.000000
G01 X88.597884 Y7.573554 Z-1.000000
G01 X88.266245 Y7.465883 Z-1.000000
G01 X87.931092 Y7.366188 Z-1.000000
G01 X87.592538 Y7.274573 Z-1.000000
G01 X87.250697 Y7.191157 Z-1.000000
G01 X86.905674 Y7.116046 Z-1.000000
G01 X86.557587 Y7.049354 Z-1.000000
G01 X86.206545 Y6.991194 Z-1.000000
G01 X85.852658 Y6.941675 Z-1.000000
G01 X85.496039 Y6.900911 Z-1.000000
G01 X85.136799 Y6.869008 Z-1.000000
G01 X84.775052 Y6.846092 Z-1.000000
G01 X84.410903 Y6.832263 Z-1.000000
G01 X84.044472 Y6.827635 Z-1.000000
G01 X83.678040 Y6.832263 Z-1.000000
G01 X83.313891 Y6.846092 Z-1.000000
G01 X82.952145 Y6.869008 Z-1.000000
G01 X82.592904 Y6.900911 Z-1.000000
G01 X82.236285 Y6.941675 Z-1.000000
G01 X81.882398 Y6.991194 Z-1.000000
G01 X81.531356 Y7.049354 Z-1.000000
G01 X81.183269 Y7.116046 Z-1.000000
G01 X80.838246 Y7.191157 Z-1.000000
G01 X80.496405 Y7.274573 Z-1.000000
G01 X80.157851 Y7.366185 Z-1.000000
G01 X79.822698 Y7.465883 Z-1.000000
G01 X79.491059 Y7.573554 Z-1.000000
G01 X79.163043 Y7.689087 Z-1.000000
G01 X78.838764 Y7.812367 Z-1.000000
G01 X78.518332 Y7.943287 Z-1.000000
G01 X78.201859 Y8.081734 Z-1.000000
G01 X77.889456 Y8.227595 Z-1.000000
G01 X77.581236 Y8.380763 Z-1.000000
G01 X77.277308 Y8.541121 Z-1.000000
G01 X76.977785 Y8.708561 Z-1.000000
G01 X76.682775 Y8.882969 Z-1.000000
G01 X76.392397 Y9.064234 Z-1.000000
G01 X76.106757 Y9.252248 Z-1.000000
G01 X75.825969 Y9.446894 Z-1.000000
G01 X75.550141 Y9.648065 Z-1.000000
G01 X75.279389 Y9.855648 Z-1.000000
G01 X75.013820 Y10.069530 Z-1.000000
G01 X74.753549 Y10.289604 Z-1.000000
G01 X74.498686 Y10.515751 Z-1.000000
G01 X74.249343 Y10.747868 Z-1.000000
G01 X74.005630 Y10.985835 Z-1.000000
G01 X73.767663 Y11.229548 Z-1.000000
G01 X73.535546 Y11.478891 Z-1.000000
G01 X73.309399 Y11.733755 Z-1.000000
G01 X73.089325 Y11.994026 Z-1.000000
G01 X72.875442 Y12.259594 Z-1.000000
G01 X72.667859 Y12.530347 Z-1.000000
G01 X72.466689 Y12.806174 Z-1.000000
G01 X72.272043 Y13.086962 Z-1.000000
G01 X72.084029 Y13.372602 Z-1.000000
G01 X71.902764 Y13.662981 Z-1.000000
G01 X71.728356 Y13.957990 Z-1.000000
G01 X71.560916 Y14.257513 Z-1.000000
G01 X71.400558 Y14.561441 Z-1.000000
G01 X71.247390 Y14.869661 Z-1.000000
G01 X71.101529 Y15.182064 Z-1.000000
G01 X70.963082 Y15.498537 Z-1.000000
G01 X70.832162 Y15.818969 Z-1.000000
G01 X70.708882 Y16.143248 Z-1.000000
G01 X70.593348 Y16.471264 Z-1.000000
G01 X70.485678 Y16.802903 Z-1.000000
G01 X70.385980 Y17.138056 Z-1.000000
G01 X70.294368 Y17.476610 Z-1.000000
G01 X70.210951 Y17.818452 Z-1.000000
G01 X70.135841 Y18.163474 Z-1.000000
G01 X70.069149 Y18.511561 Z-1.000000
G01 X70.010988 Y18.862603 Z-1.000000
G01 X69.961470 Y19.216490 Z-1.000000
G01 X69.920706 Y19.573109 Z-1.000000
G01 X69.888803 Y19.932350 Z-1.000000
G01 X69.865887 Y20.294097 Z-1.000000
G01 X69.852058 Y20.658245 Z-1.000000
G01 X69.847429 Y21.024677 Z-1.000000
G01 X69.852058 Y21.391109 Z-1.000000
G01 X69.865887 Y21.755257 Z-1.000000
G01 X69.888803 Y22.117004 Z-1.000000
G01 X69.920706 Y22.476245 Z-1.000000
G01 X69.961470 Y22.832863 Z-1.000000
G01 X70.010988 Y23.186750 Z-1.000000
G01 X70.069149 Y23.537792 Z-1.000000
G01 X70.135841 Y23.885880 Z-1.000000
G01 X70.210951 Y24.230902 Z-1.000000
G01 X70.294368 Y24.572744 Z-1.000000
G01 X70.385983 Y24.911297 Z-1.000000
G01 X70.485678 Y25.246450 Z-1.000000
G01 X70.593348 Y25.578090 Z-1.000000
G01 X70.708882 Y25.906102 Z-1.000000
G01 X70.832162 Y26.230381 Z-1.000000
G01 X70.963082 Y26.550814 Z-1.000000
G01 X71.101529 Y26.867286 Z-1.000000
G01 X71.247393 Y27.179690 Z-1.000000
G01 X71.400558 Y27.487913 Z-1.000000
G01 X71.560916 Y27.791841 Z-1.000000
G01 X71.728356 Y28.091363 Z-1.000000
G01 X71.902764 Y28.386370 Z-1.000000
G01 X72.084029 Y28.676749 Z-1.000000
G01 X72.272043 Y28.962389 Z-1.000000
G01 X72.466691 Y29.243180 Z-1.000000
G01 X72.667862 Y29.519007 Z-1.000000
G01 X72.875445 Y29.789760 Z-1.000000
G01 X73.089327 Y30.055328 Z-1.000000
G01 X73.309399 Y30.315599 Z-1.000000
G01 X73.535549 Y30.570463 Z-1.000000
G01 X73.767663 Y30.819803 Z-1.000000
G01 X74.005632 Y31.063516 Z-1.000000
G01 X74.249343 Y31.301486 Z-1.000000
G01 X74.498686 Y31.533600 Z-1.000000
G01 X74.753549 Y31.759750 Z-1.000000
G01 X75.013820 Y31.979821 Z-1.000000
G01 X75.279389 Y32.193703 Z-1.000000
G01 X75.550141 Y32.401286 Z-1.000000
G01 X75.825969 Y32.602457 Z-1.000000
G01 X76.106757 Y32.797106 Z-1.000000
G01 X76.392397 Y32.985116 Z-1.000000
G01 X76.682778 Y33.166382 Z-1.000000
G01 X76.977785 Y33.340793 Z-1.000000
G01 X77.277308 Y33.508229 Z-1.000000
G01 X77.581236 Y33.668588 Z-1.000000
G01 X77.889456 Y33.821756 Z-1.000000
G01 X78.201859 Y33.967617 Z-1.000000
G01 X78.518335 Y34.106064 Z-1.000000
G01 X78.838767 Y34.236984 Z-1.000000
G01 X79.163046 Y34.360264 Z-1.000000
G01 X79.491059 Y34.475797 Z-1.000000
G01 X79.822698 Y34.583468 Z-1.000000
G01 X80.157851 Y34.683166 Z-1.000000
G01 X80.496405 Y34.774778 Z-1.000000
G01 X80.838246 Y34.858194 Z-1.000000
G01 X81.183269 Y34.933305 Z-1.000000
G01 X81.531356 Y34.999997 Z-1.000000
G01 X81.882398 Y35.058157 Z-1.000000
G01 X82.236285 Y35.107676 Z-1.000000
G01 X82.592904 Y35.148440 Z-1.000000
G01 X82.952145 Y35.180342 Z-1.000000
G01 X83.313891 Y35.203259 Z-1.000000
G01 X83.678040 Y35.217088 Z-1.000000
G01 X84.044472 Y35.221716 Z-1.000000
G01 X84.410903 Y35.217088 Z-1.000000
G01 X84.775052 Y35.203259 Z-1.000000
G01 X85.136799 Y35.180342 Z-1.000000
G01 X85.496039 Y35.148440 Z-1.000000
G01 X85.852658 Y35.107676 Z-1.000000
G01 X86.206545 Y35.058157 Z-1.000000
G01 X86.557587 Y34.999997 Z-1.000000
G01 X86.905674 Y34.933305 Z-1.000000
G01 X87.250697 Y34.858194 Z-1.000000
G01 X87.592538 Y34.774778 Z-1.000000
G01 X87.931092 Y34.683163 Z-1.000000
G01 X88.266242 Y34.583468 Z-1.000000
G01 X88.597882 Y34.475797 Z-1.000000
G01 X88.925897 Y34.360264 Z-1.000000
G01 X89.250176 Y34.236984 Z-1.000000
G01 X89.570608 Y34.106064 Z-1.000000
G01 X89.887081 Y33.967617 Z-1.000000
G01 X90.199484 Y33.821753 Z-1.000000
G01 X90.507705 Y33.668588 Z-1.000000
G01 X90.811633 Y33.508229 Z-1.000000
G01 X91.111158 Y33.340790 Z-1.000000
G01 X91.406165 Y33.166382 Z-1.000000
G01 X91.696543 Y32.985116 Z-1.000000
G01 X91.982183 Y32.797103 Z-1.000000
G01 X92.262972 Y32.602457 Z-1.000000
G01 X92.538799 Y32.401286 Z-1.000000
G01 X92.809552 Y32.193703 Z-1.000000
G01 X93.075120 Y31.979818 Z-1.000000
G01 X93.335391 Y31.759747 Z-1.000000
G01 X93.590254 Y31.533600 Z-1.000000
G01 X93.839598 Y31.301483 Z-1.000000
G01 X94.083311 Y31.063516 Z-1.000000
G01 X94.321278 Y30.819803 Z-1.000000
G01 X94.553394 Y30.570460 Z-1.000000
G01 X94.779542 Y30.315596 Z-1.000000
G01 X94.999613 Y30.055325 Z-1.000000
G01 X95.213498 Y29.789757 Z-1.000000
G01 X95.421081 Y29.519004 Z-1.000000
G01 X95.622252 Y29.243177 Z-1.000000
G01 X95.816898 Y28.962389 Z-1.000000
G01 X96.004911 Y28.676749 Z-1.000000
G01 X96.186177 Y28.386370 Z-1.000000
G01 X96.360585 Y28.091363 Z-1.000000
G01 X96.528024 Y27.791838 Z-1.000000
G01 X96.688383 Y27.487910 Z-1.000000
G01 X96.841548 Y27.179690 Z-1.000000
G01 X96.987411 Y26.867286 Z-1.000000
G01 X97.125858 Y26.550814 Z-1.000000
G01 X97.256778 Y26.230381 Z-1.000000
G01 X97.380059 Y25.906102 Z-1.000000
G01 X97.495592 Y25.578087 Z-1.000000
G01 X97.603263 Y25.246448 Z-1.000000
G01 X97.702958 Y24.911297 Z-1.000000
G01 X97.794573 Y24.572744 Z-1.000000
G01 X97.877989 Y24.230902 Z-1.000000
G01 X97.953100 Y23.885880 Z-1.000000
G01 X98.019792 Y23.537792 Z-1.000000
G01 X98.077952 Y23.186750 Z-1.000000
G01 X98.127471 Y22.832863 Z-1.000000
G01 X98.168235 Y22.476245 Z-1.000000
G01 X98.200137 Y22.117004 Z-1.000000
G01 X98.223054 Y21.755257 Z-1.000000
G01 X98.236883 Y21.391109 Z-1.000000
G01 X98.241511 Y21.024677 Z-1.000000
G00 Z0.500000

(End cutting path id: path3404)


(Start cutting path id: path13943-5-1)
(Change tool to Default tool)

G00 Z0.500000
G00 X93.151151 Y22.498080

G01 Z-1.000000 F100.0(Penetrate)
G01 X92.794182 Y23.082607 Z-1.000000 F400.000000
G01 X92.440253 Y23.669426 Z-1.000000
G01 X92.088336 Y24.257812 Z-1.000000
G01 X91.737401 Y24.847041 Z-1.000000
G01 X91.386412 Y25.436389 Z-1.000000
G01 X91.034346 Y26.025127 Z-1.000000
G01 X90.680168 Y26.612536 Z-1.000000
G01 X90.322846 Y27.197890 Z-1.000000
G01 X89.961356 Y27.780464 Z-1.000000
G01 X89.594665 Y28.359536 Z-1.000000
G01 X89.221742 Y28.934381 Z-1.000000
G01 X88.841555 Y29.504272 Z-1.000000
G01 X88.453076 Y30.068488 Z-1.000000
G01 X88.055276 Y30.626303 Z-1.000000
G01 X87.647120 Y31.176995 Z-1.000000
G01 X87.227583 Y31.719835 Z-1.000000
G01 X87.106128 Y31.877109 Z-1.000000
G01 X86.969378 Y32.000192 Z-1.000000
G01 X86.820395 Y32.090729 Z-1.000000
G01 X86.662261 Y32.150365 Z-1.000000
G01 X86.498038 Y32.180744 Z-1.000000
G01 X86.330802 Y32.183566 Z-1.000000
G01 X86.163622 Y32.160367 Z-1.000000
G01 X85.999572 Y32.112838 Z-1.000000
G01 X85.841719 Y32.042630 Z-1.000000
G01 X85.693140 Y31.951382 Z-1.000000
G01 X85.556900 Y31.840742 Z-1.000000
G01 X85.436075 Y31.712356 Z-1.000000
G01 X85.333736 Y31.567861 Z-1.000000
G01 X85.252950 Y31.408908 Z-1.000000
G01 X85.196791 Y31.237136 Z-1.000000
G01 X85.168331 Y31.054194 Z-1.000000
G01 X85.072336 Y30.612872 Z-1.000000
G01 X84.982621 Y30.170190 Z-1.000000
G01 X84.897996 Y29.726401 Z-1.000000
G01 X84.817286 Y29.281763 Z-1.000000
G01 X84.739306 Y28.836534 Z-1.000000
G01 X84.662871 Y28.390973 Z-1.000000
G01 X84.586801 Y27.945336 Z-1.000000
G01 X84.509915 Y27.499879 Z-1.000000
G01 X84.431029 Y27.054863 Z-1.000000
G01 X84.348958 Y26.610540 Z-1.000000
G01 X84.262522 Y26.167172 Z-1.000000
G01 X84.170543 Y25.725017 Z-1.000000
G01 X84.071830 Y25.284327 Z-1.000000
G01 X83.965207 Y24.845365 Z-1.000000
G01 X83.849490 Y24.408383 Z-1.000000
G01 X83.723497 Y23.973645 Z-1.000000
G01 X83.654562 Y23.663082 Z-1.000000
G01 X83.587551 Y23.352068 Z-1.000000
G01 X83.522016 Y23.040709 Z-1.000000
G01 X83.457497 Y22.729116 Z-1.000000
G01 X83.393537 Y22.417396 Z-1.000000
G01 X83.329682 Y22.105656 Z-1.000000
G01 X83.265476 Y21.794006 Z-1.000000
G01 X83.200461 Y21.482554 Z-1.000000
G01 X83.134181 Y21.171410 Z-1.000000
G01 X83.066182 Y20.860677 Z-1.000000
G01 X82.996008 Y20.550467 Z-1.000000
G01 X82.923200 Y20.240892 Z-1.000000
G01 X82.847305 Y19.932053 Z-1.000000
G01 X82.767865 Y19.624064 Z-1.000000
G01 X82.684423 Y19.317029 Z-1.000000
G01 X82.596528 Y19.011058 Z-1.000000
G01 X82.559164 Y18.828841 Z-1.000000
G01 X82.511251 Y18.648569 Z-1.000000
G01 X82.454849 Y18.469888 Z-1.000000
G01 X82.392024 Y18.292450 Z-1.000000
G01 X82.324835 Y18.115894 Z-1.000000
G01 X82.255349 Y17.939878 Z-1.000000
G01 X82.185626 Y17.764042 Z-1.000000
G01 X82.117729 Y17.588040 Z-1.000000
G01 X82.053724 Y17.411513 Z-1.000000
G01 X81.995671 Y17.234113 Z-1.000000
G01 X81.945633 Y17.055489 Z-1.000000
G01 X81.905673 Y16.875288 Z-1.000000
G01 X81.877846 Y16.693153 Z-1.000000
G01 X81.864243 Y16.508737 Z-1.000000
G01 X81.866783 Y16.321686 Z-1.000000
G01 X81.887752 Y16.131649 Z-1.000000
G01 X81.925609 Y15.952246 Z-1.000000
G01 X81.990791 Y15.793425 Z-1.000000
G01 X82.079982 Y15.655343 Z-1.000000
G01 X82.189854 Y15.538161 Z-1.000000
G01 X82.317088 Y15.442036 Z-1.000000
G01 X82.458363 Y15.367123 Z-1.000000
G01 X82.610354 Y15.313583 Z-1.000000
G01 X82.769742 Y15.281573 Z-1.000000
G01 X82.933205 Y15.271244 Z-1.000000
G01 X83.097418 Y15.282758 Z-1.000000
G01 X83.259067 Y15.316284 Z-1.000000
G01 X83.414820 Y15.371966 Z-1.000000
G01 X83.561361 Y15.449969 Z-1.000000
G01 X83.695366 Y15.550449 Z-1.000000
G01 X83.813515 Y15.673563 Z-1.000000
G01 X83.912485 Y15.819469 Z-1.000000
G01 X84.029124 Y16.007099 Z-1.000000
G01 X84.137543 Y16.198934 Z-1.000000
G01 X84.238338 Y16.394607 Z-1.000000
G01 X84.332101 Y16.593760 Z-1.000000
G01 X84.419429 Y16.796028 Z-1.000000
G01 X84.500912 Y17.001046 Z-1.000000
G01 X84.577143 Y17.208451 Z-1.000000
G01 X84.648721 Y17.417880 Z-1.000000
G01 X84.716237 Y17.628971 Z-1.000000
G01 X84.780284 Y17.841360 Z-1.000000
G01 X84.841456 Y18.054683 Z-1.000000
G01 X84.900344 Y18.268576 Z-1.000000
G01 X84.957548 Y18.482679 Z-1.000000
G01 X85.013659 Y18.696623 Z-1.000000
G01 X85.069271 Y18.910051 Z-1.000000
G01 X85.124976 Y19.122595 Z-1.000000
G01 X85.158476 Y19.264798 Z-1.000000
G01 X85.191541 Y19.407112 Z-1.000000
G01 X85.224062 Y19.549552 Z-1.000000
G01 X85.255936 Y19.692128 Z-1.000000
G01 X85.287054 Y19.834856 Z-1.000000
G01 X85.317314 Y19.977751 Z-1.000000
G01 X85.346603 Y20.120826 Z-1.000000
G01 X85.374825 Y20.264099 Z-1.000000
G01 X85.401862 Y20.407578 Z-1.000000
G01 X85.427629 Y20.551280 Z-1.000000
G01 X85.451984 Y20.695216 Z-1.000000
G01 X85.474844 Y20.839406 Z-1.000000
G01 X85.496096 Y20.983862 Z-1.000000
G01 X85.515654 Y21.128594 Z-1.000000
G01 X85.533377 Y21.273619 Z-1.000000
G01 X85.549182 Y21.418955 Z-1.000000
G01 X85.915486 Y21.346675 Z-1.000000
G01 X86.281938 Y21.275141 Z-1.000000
G01 X86.648508 Y21.204207 Z-1.000000
G01 X87.015168 Y21.133725 Z-1.000000
G01 X87.381888 Y21.063547 Z-1.000000
G01 X87.748638 Y20.993531 Z-1.000000
G01 X88.115395 Y20.923528 Z-1.000000
G01 X88.482120 Y20.853393 Z-1.000000
G01 X88.848794 Y20.782982 Z-1.000000
G01 X89.215381 Y20.712144 Z-1.000000
G01 X89.581855 Y20.640736 Z-1.000000
G01 X89.948188 Y20.568614 Z-1.000000
G01 X90.314349 Y20.495626 Z-1.000000
G01 X90.680309 Y20.421630 Z-1.000000
G01 X91.046041 Y20.346480 Z-1.000000
G01 X91.411513 Y20.270026 Z-1.000000
G01 X91.516669 Y20.135990 Z-1.000000
G01 X91.613392 Y19.997123 Z-1.000000
G01 X91.702651 Y19.853971 Z-1.000000
G01 X91.785404 Y19.707086 Z-1.000000
G01 X91.862611 Y19.557008 Z-1.000000
G01 X91.935238 Y19.404284 Z-1.000000
G01 X92.004245 Y19.249460 Z-1.000000
G01 X92.070592 Y19.093080 Z-1.000000
G01 X92.135244 Y18.935696 Z-1.000000
G01 X92.199159 Y18.777849 Z-1.000000
G01 X92.263302 Y18.620087 Z-1.000000
G01 X92.328634 Y18.462951 Z-1.000000
G01 X92.396113 Y18.306995 Z-1.000000
G01 X92.466708 Y18.152758 Z-1.000000
G01 X92.541376 Y18.000790 Z-1.000000
G01 X92.621078 Y17.851635 Z-1.000000
G01 X92.713785 Y17.686042 Z-1.000000
G01 X92.799479 Y17.508467 Z-1.000000
G01 X92.880262 Y17.321780 Z-1.000000
G01 X92.958238 Y17.128859 Z-1.000000
G01 X93.035502 Y16.932573 Z-1.000000
G01 X93.114163 Y16.735796 Z-1.000000
G01 X93.196320 Y16.541399 Z-1.000000
G01 X93.284077 Y16.352256 Z-1.000000
G01 X93.379533 Y16.171239 Z-1.000000
G01 X93.484794 Y16.001223 Z-1.000000
G01 X93.601955 Y15.845075 Z-1.000000
G01 X93.733127 Y15.705674 Z-1.000000
G01 X93.880404 Y15.585891 Z-1.000000
G01 X94.045894 Y15.488594 Z-1.000000
G01 X94.231695 Y15.416659 Z-1.000000
G01 X94.439907 Y15.372959 Z-1.000000
G01 X94.617303 Y15.368105 Z-1.000000
G01 X94.782466 Y15.387889 Z-1.000000
G01 X94.934792 Y15.430290 Z-1.000000
G01 X95.073679 Y15.493254 Z-1.000000
G01 X95.198529 Y15.574734 Z-1.000000
G01 X95.308739 Y15.672682 Z-1.000000
G01 X95.403710 Y15.785058 Z-1.000000
G01 X95.482840 Y15.909808 Z-1.000000
G01 X95.545527 Y16.044888 Z-1.000000
G01 X95.591171 Y16.188260 Z-1.000000
G01 X95.619167 Y16.337869 Z-1.000000
G01 X95.628932 Y16.491671 Z-1.000000
G01 X95.619844 Y16.647622 Z-1.000000
G01 X95.591306 Y16.803677 Z-1.000000
G01 X95.542721 Y16.957787 Z-1.000000
G01 X95.473487 Y17.107906 Z-1.000000
G01 X95.398387 Y17.342998 Z-1.000000
G01 X95.315815 Y17.575498 Z-1.000000
G01 X95.227016 Y17.805836 Z-1.000000
G01 X95.133240 Y18.034434 Z-1.000000
G01 X95.035735 Y18.261716 Z-1.000000
G01 X94.935749 Y18.488103 Z-1.000000
G01 X94.834530 Y18.714025 Z-1.000000
G01 X94.733331 Y18.939904 Z-1.000000
G01 X94.633396 Y19.166162 Z-1.000000
G01 X94.535976 Y19.393226 Z-1.000000
G01 X94.442320 Y19.621519 Z-1.000000
G01 X94.353674 Y19.851465 Z-1.000000
G01 X94.271288 Y20.083488 Z-1.000000
G01 X94.196411 Y20.318012 Z-1.000000
G01 X94.130292 Y20.555463 Z-1.000000
G01 X94.074181 Y20.796263 Z-1.000000
G01 X94.103840 Y20.933093 Z-1.000000
G01 X94.122833 Y21.067975 Z-1.000000
G01 X94.131102 Y21.200360 Z-1.000000
G01 X94.128562 Y21.329691 Z-1.000000
G01 X94.115157 Y21.455413 Z-1.000000
G01 X94.090829 Y21.576972 Z-1.000000
G01 X94.055518 Y21.693812 Z-1.000000
G01 X94.009154 Y21.805383 Z-1.000000
G01 X93.951677 Y21.911123 Z-1.000000
G01 X93.883018 Y22.010482 Z-1.000000
G01 X93.803115 Y22.102904 Z-1.000000
G01 X93.711904 Y22.187836 Z-1.000000
G01 X93.609321 Y22.264722 Z-1.000000
G01 X93.495304 Y22.333008 Z-1.000000
G01 X93.369788 Y22.392139 Z-1.000000
G01 X93.232710 Y22.441559 Z-1.000000
G01 X93.227602 Y22.445087 Z-1.000000
G01 X93.222494 Y22.448615 Z-1.000000
G01 X93.217385 Y22.452143 Z-1.000000
G01 X93.212277 Y22.455671 Z-1.000000
G01 X93.207169 Y22.459198 Z-1.000000
G01 X93.202061 Y22.462726 Z-1.000000
G01 X93.196952 Y22.466254 Z-1.000000
G01 X93.191844 Y22.469782 Z-1.000000
G01 X93.186736 Y22.473309 Z-1.000000
G01 X93.181628 Y22.476837 Z-1.000000
G01 X93.176520 Y22.480365 Z-1.000000
G01 X93.171411 Y22.483893 Z-1.000000
G01 X93.166303 Y22.487421 Z-1.000000
G01 X93.161195 Y22.490948 Z-1.000000
G01 X93.156087 Y22.494476 Z-1.000000
G01 X93.150978 Y22.498004 Z-1.000000
G01 X93.150978 Y22.498004 Z-1.000000
G01 X93.150978 Y22.498004 Z-1.000000
G01 X93.150978 Y22.498004 Z-1.000000
G01 X93.150978 Y22.498004 Z-1.000000
G01 X93.150978 Y22.498004 Z-1.000000
G01 X93.150978 Y22.498004 Z-1.000000
G01 X93.150978 Y22.498004 Z-1.000000
G01 X93.150978 Y22.498004 Z-1.000000
G01 X93.150978 Y22.498004 Z-1.000000
G01 X93.150978 Y22.498004 Z-1.000000
G01 X93.150978 Y22.498004 Z-1.000000
G01 X93.150978 Y22.498004 Z-1.000000
G01 X93.150978 Y22.498004 Z-1.000000
G01 X93.150978 Y22.498004 Z-1.000000
G01 X93.150978 Y22.498004 Z-1.000000
G01 X93.151151 Y22.498080 Z-1.000000
G00 Z0.500000

(End cutting path id: path13943-5-1)


(Start cutting path id: path13941-2-3)
(Change tool to Default tool)

G00 Z0.500000
G00 X89.937427 Y23.172563

G01 Z-1.000000 F100.0(Penetrate)
G01 X89.588281 Y23.747862 Z-1.000000 F400.000000
G01 X89.239138 Y24.323158 Z-1.000000
G01 X88.889993 Y24.898453 Z-1.000000
G01 X88.540847 Y25.473749 Z-1.000000
G01 X88.191702 Y26.049045 Z-1.000000
G01 X87.842556 Y26.624341 Z-1.000000
G01 X87.493411 Y27.199637 Z-1.000000
G01 X87.144265 Y27.774933 Z-1.000000
G01 X87.023621 Y27.741521 Z-1.000000
G01 X86.942191 Y27.673375 Z-1.000000
G01 X86.891747 Y27.578563 Z-1.000000
G01 X86.864061 Y27.465157 Z-1.000000
G01 X86.850909 Y27.341225 Z-1.000000
G01 X86.844079 Y27.214835 Z-1.000000
G01 X86.835302 Y27.094058 Z-1.000000
G01 X86.816393 Y26.986963 Z-1.000000
G01 X86.756565 Y26.657601 Z-1.000000
G01 X86.692153 Y26.329125 Z-1.000000
G01 X86.624426 Y26.001288 Z-1.000000
G01 X86.554660 Y25.673839 Z-1.000000
G01 X86.484125 Y25.346529 Z-1.000000
G01 X86.414091 Y25.019112 Z-1.000000
G01 X86.345836 Y24.691336 Z-1.000000
G01 X86.280626 Y24.362957 Z-1.000000
G01 X86.246951 Y24.273159 Z-1.000000
G01 X86.228409 Y24.187649 Z-1.000000
G01 X86.226433 Y24.108601 Z-1.000000
G01 X86.242266 Y24.038195 Z-1.000000
G01 X86.277357 Y23.978609 Z-1.000000
G01 X86.333088 Y23.932012 Z-1.000000
G01 X86.410840 Y23.900586 Z-1.000000
G01 X86.511988 Y23.886503 Z-1.000000
G01 X86.868576 Y23.815936 Z-1.000000
G01 X87.224868 Y23.743386 Z-1.000000
G01 X87.580942 Y23.669342 Z-1.000000
G01 X87.936866 Y23.594296 Z-1.000000
G01 X88.292723 Y23.518742 Z-1.000000
G01 X88.648588 Y23.443172 Z-1.000000
G01 X89.004533 Y23.368075 Z-1.000000
G01 X89.360635 Y23.293947 Z-1.000000
G01 X89.432746 Y23.278763 Z-1.000000
G01 X89.504856 Y23.263580 Z-1.000000
G01 X89.576967 Y23.248396 Z-1.000000
G01 X89.649078 Y23.233212 Z-1.000000
G01 X89.721188 Y23.218029 Z-1.000000
G01 X89.793299 Y23.202845 Z-1.000000
G01 X89.865409 Y23.187662 Z-1.000000
G01 X89.937427 Y23.172563 Z-1.000000
G00 Z0.500000

(End cutting path id: path13941-2-3)


(Start cutting path id: path13989-4-1)
(Change tool to Default tool)

G00 Z0.500000
G00 X85.406473 Y20.276246

G01 Z-1.000000 F100.0(Penetrate)
G01 X85.686694 Y19.654110 Z-1.000000 F400.000000
G01 X85.889051 Y19.010121 Z-1.000000
G01 X86.023374 Y18.349219 Z-1.000000
G01 X86.099490 Y17.676344 Z-1.000000
G01 X86.127232 Y16.996443 Z-1.000000
G01 X86.116423 Y16.314453 Z-1.000000
G01 X86.076906 Y15.635319 Z-1.000000
G01 X86.018503 Y14.963983 Z-1.000000
G01 X85.931861 Y14.635617 Z-1.000000
G01 X85.822898 Y14.313802 Z-1.000000
G01 X85.693242 Y13.999217 Z-1.000000
G01 X85.544531 Y13.692543 Z-1.000000
G01 X85.378389 Y13.394463 Z-1.000000
G01 X85.196446 Y13.105654 Z-1.000000
G01 X85.000336 Y12.826801 Z-1.000000
G01 X84.791686 Y12.558586 Z-1.000000
G01 X84.626990 Y12.345646 Z-1.000000
G01 X84.450245 Y12.143660 Z-1.000000
G01 X84.262096 Y11.952897 Z-1.000000
G01 X84.063183 Y11.773633 Z-1.000000
G01 X83.854149 Y11.606139 Z-1.000000
G01 X83.635639 Y11.450689 Z-1.000000
G01 X83.408292 Y11.307554 Z-1.000000
G01 X83.172758 Y11.177009 Z-1.000000
G01 X82.728842 Y10.930985 Z-1.000000
G01 X82.262865 Y10.753224 Z-1.000000
G01 X81.779740 Y10.635368 Z-1.000000
G01 X81.284364 Y10.569055 Z-1.000000
G01 X80.781650 Y10.545912 Z-1.000000
G01 X80.276500 Y10.557596 Z-1.000000
G01 X79.773817 Y10.595742 Z-1.000000
G01 X79.278512 Y10.651983 Z-1.000000
G01 X78.859465 Y10.735176 Z-1.000000
G01 X78.449591 Y10.851147 Z-1.000000
G01 X78.048734 Y10.995921 Z-1.000000
G01 X77.656741 Y11.165531 Z-1.000000
G01 X77.273458 Y11.356006 Z-1.000000
G01 X76.898732 Y11.563372 Z-1.000000
G01 X76.532407 Y11.783663 Z-1.000000
G01 X76.174335 Y12.012906 Z-1.000000
G01 X75.917414 Y12.189682 Z-1.000000
G01 X75.659779 Y12.369057 Z-1.000000
G01 X75.404588 Y12.553325 Z-1.000000
G01 X75.154996 Y12.744782 Z-1.000000
G01 X74.914162 Y12.945730 Z-1.000000
G01 X74.685240 Y13.158458 Z-1.000000
G01 X74.471392 Y13.385266 Z-1.000000
G01 X74.275773 Y13.628448 Z-1.000000
G01 X74.205406 Y13.863717 Z-1.000000
G01 X74.191210 Y14.105322 Z-1.000000
G01 X74.227606 Y14.345840 Z-1.000000
G01 X74.309007 Y14.577855 Z-1.000000
G01 X74.429829 Y14.793947 Z-1.000000
G01 X74.584496 Y14.986696 Z-1.000000
G01 X74.767415 Y15.148689 Z-1.000000
G01 X74.973011 Y15.272497 Z-1.000000
G01 X75.234016 Y15.307154 Z-1.000000
G01 X75.481739 Y15.278407 Z-1.000000
G01 X75.718089 Y15.199060 Z-1.000000
G01 X75.944968 Y15.081912 Z-1.000000
G01 X76.164280 Y14.939760 Z-1.000000
G01 X76.377930 Y14.785410 Z-1.000000
G01 X76.587825 Y14.631660 Z-1.000000
G01 X76.795868 Y14.491311 Z-1.000000
G01 X77.047375 Y14.308880 Z-1.000000
G01 X77.299183 Y14.124231 Z-1.000000
G01 X77.553524 Y13.942511 Z-1.000000
G01 X77.812627 Y13.768882 Z-1.000000
G01 X78.078720 Y13.608492 Z-1.000000
G01 X78.354033 Y13.466500 Z-1.000000
G01 X78.640799 Y13.348063 Z-1.000000
G01 X78.941242 Y13.258328 Z-1.000000
G01 X79.174860 Y13.176847 Z-1.000000
G01 X79.411814 Y13.104223 Z-1.000000
G01 X79.651654 Y13.042298 Z-1.000000
G01 X79.893928 Y12.992898 Z-1.000000
G01 X80.138186 Y12.957865 Z-1.000000
G01 X80.383976 Y12.939013 Z-1.000000
G01 X80.630850 Y12.938166 Z-1.000000
G01 X80.878350 Y12.957216 Z-1.000000
G01 X81.133335 Y12.959474 Z-1.000000
G01 X81.381823 Y12.994557 Z-1.000000
G01 X81.622559 Y13.059717 Z-1.000000
G01 X81.854289 Y13.152108 Z-1.000000
G01 X82.075754 Y13.268877 Z-1.000000
G01 X82.285697 Y13.407180 Z-1.000000
G01 X82.482863 Y13.564169 Z-1.000000
G01 X82.665994 Y13.736991 Z-1.000000
G01 X82.864074 Y13.924307 Z-1.000000
G01 X83.050578 Y14.125707 Z-1.000000
G01 X83.221895 Y14.340557 Z-1.000000
G01 X83.374408 Y14.568228 Z-1.000000
G01 X83.504510 Y14.808095 Z-1.000000
G01 X83.608588 Y15.059523 Z-1.000000
G01 X83.683030 Y15.321886 Z-1.000000
G01 X83.724226 Y15.594549 Z-1.000000
G00 Z0.500000

(End cutting path id: path13989-4-1)


(Start cutting path id: path13959-4-2)
(Change tool to Default tool)

G00 Z0.500000
G00 X83.621073 Y23.640736

G01 Z-1.000000 F100.0(Penetrate)
G01 X83.401044 Y23.851460 Z-1.000000 F400.000000
G01 X83.185957 Y24.064907 Z-1.000000
G01 X82.974728 Y24.280471 Z-1.000000
G01 X82.766276 Y24.497551 Z-1.000000
G01 X82.559514 Y24.715534 Z-1.000000
G01 X82.353365 Y24.933819 Z-1.000000
G01 X82.146747 Y25.151802 Z-1.000000
G01 X81.938572 Y25.368876 Z-1.000000
G01 X81.727763 Y25.584434 Z-1.000000
G01 X81.513237 Y25.797873 Z-1.000000
G01 X81.293911 Y26.008586 Z-1.000000
G01 X81.068701 Y26.215968 Z-1.000000
G01 X80.836528 Y26.419417 Z-1.000000
G01 X80.596306 Y26.618321 Z-1.000000
G01 X80.346957 Y26.812081 Z-1.000000
G01 X80.087394 Y27.000086 Z-1.000000
G01 X79.866414 Y27.099823 Z-1.000000
G01 X79.647898 Y27.189220 Z-1.000000
G01 X79.431569 Y27.268804 Z-1.000000
G01 X79.217154 Y27.339106 Z-1.000000
G01 X79.004375 Y27.400658 Z-1.000000
G01 X78.792959 Y27.453987 Z-1.000000
G01 X78.582631 Y27.499625 Z-1.000000
G01 X78.373114 Y27.538100 Z-1.000000
G01 X78.164134 Y27.569944 Z-1.000000
G01 X77.955420 Y27.595682 Z-1.000000
G01 X77.746688 Y27.615861 Z-1.000000
G01 X77.537669 Y27.630988 Z-1.000000
G01 X77.328088 Y27.641600 Z-1.000000
G01 X77.117669 Y27.648232 Z-1.000000
G01 X76.906132 Y27.651421 Z-1.000000
G01 X76.693209 Y27.651670 Z-1.000000
G01 X76.581985 Y27.660926 Z-1.000000
G01 X76.470779 Y27.671848 Z-1.000000
G01 X76.359670 Y27.684520 Z-1.000000
G01 X76.248743 Y27.699055 Z-1.000000
G01 X76.138070 Y27.715565 Z-1.000000
G01 X76.027738 Y27.734163 Z-1.000000
G01 X75.917821 Y27.754935 Z-1.000000
G01 X75.808400 Y27.777992 Z-1.000000
G01 X75.699558 Y27.803420 Z-1.000000
G01 X75.591374 Y27.831332 Z-1.000000
G01 X75.483924 Y27.861826 Z-1.000000
G01 X75.377292 Y27.895004 Z-1.000000
G01 X75.271554 Y27.930976 Z-1.000000
G01 X75.166791 Y27.969844 Z-1.000000
G01 X75.063082 Y28.011706 Z-1.000000
G01 X74.960511 Y28.056670 Z-1.000000
G01 X74.825804 Y28.061750 Z-1.000000
G01 X74.694954 Y28.048824 Z-1.000000
G01 X74.568733 Y28.019151 Z-1.000000
G01 X74.447917 Y27.974029 Z-1.000000
G01 X74.333275 Y27.914751 Z-1.000000
G01 X74.225579 Y27.842601 Z-1.000000
G01 X74.125605 Y27.758872 Z-1.000000
G01 X74.034125 Y27.664844 Z-1.000000
G01 X73.951909 Y27.561810 Z-1.000000
G01 X73.879730 Y27.451057 Z-1.000000
G01 X73.818364 Y27.333873 Z-1.000000
G01 X73.768577 Y27.211547 Z-1.000000
G01 X73.731149 Y27.085362 Z-1.000000
G01 X73.706849 Y26.956610 Z-1.000000
G01 X73.696435 Y26.826579 Z-1.000000
G01 X73.700697 Y26.696556 Z-1.000000
G01 X73.685034 Y26.553396 Z-1.000000
G01 X73.672080 Y26.410081 Z-1.000000
G01 X73.661496 Y26.266633 Z-1.000000
G01 X73.652973 Y26.123064 Z-1.000000
G01 X73.646172 Y25.979396 Z-1.000000
G01 X73.640753 Y25.835646 Z-1.000000
G01 X73.636435 Y25.691834 Z-1.000000
G01 X73.632851 Y25.547974 Z-1.000000
G01 X73.629718 Y25.404088 Z-1.000000
G01 X73.626698 Y25.260192 Z-1.000000
G01 X73.623453 Y25.116304 Z-1.000000
G01 X73.619671 Y24.972441 Z-1.000000
G01 X73.615014 Y24.828626 Z-1.000000
G01 X73.609172 Y24.684870 Z-1.000000
G01 X73.601806 Y24.541197 Z-1.000000
G01 X73.592606 Y24.397625 Z-1.000000
G01 X73.634609 Y24.237554 Z-1.000000
G01 X73.703296 Y24.092701 Z-1.000000
G01 X73.795323 Y23.963753 Z-1.000000
G01 X73.907351 Y23.851403 Z-1.000000
G01 X74.036036 Y23.756340 Z-1.000000
G01 X74.178036 Y23.679256 Z-1.000000
G01 X74.330013 Y23.620842 Z-1.000000
G01 X74.488622 Y23.581788 Z-1.000000
G01 X74.650524 Y23.562794 Z-1.000000
G01 X74.812376 Y23.564488 Z-1.000000
G01 X74.970838 Y23.587658 Z-1.000000
G01 X75.122566 Y23.632958 Z-1.000000
G01 X75.264219 Y23.701072 Z-1.000000
G01 X75.392458 Y23.792693 Z-1.000000
G01 X75.503942 Y23.908511 Z-1.000000
G01 X75.595325 Y24.049216 Z-1.000000
G01 X75.657530 Y24.142394 Z-1.000000
G01 X75.718425 Y24.239058 Z-1.000000
G01 X75.778716 Y24.338115 Z-1.000000
G01 X75.839114 Y24.438479 Z-1.000000
G01 X75.900326 Y24.539060 Z-1.000000
G01 X75.963058 Y24.638772 Z-1.000000
G01 X76.028017 Y24.736526 Z-1.000000
G01 X76.095917 Y24.831231 Z-1.000000
G01 X76.167460 Y24.921802 Z-1.000000
G01 X76.243355 Y25.007146 Z-1.000000
G01 X76.324314 Y25.086179 Z-1.000000
G01 X76.411041 Y25.157810 Z-1.000000
G01 X76.504242 Y25.220949 Z-1.000000
G01 X76.604628 Y25.274509 Z-1.000000
G01 X76.712908 Y25.317404 Z-1.000000
G01 X76.829788 Y25.348544 Z-1.000000
G01 X77.073292 Y25.374311 Z-1.000000
G01 X77.315128 Y25.379419 Z-1.000000
G01 X77.554757 Y25.364913 Z-1.000000
G01 X77.791643 Y25.331842 Z-1.000000
G01 X78.025250 Y25.281246 Z-1.000000
G01 X78.255041 Y25.214167 Z-1.000000
G01 X78.480483 Y25.131648 Z-1.000000
G01 X78.701034 Y25.034730 Z-1.000000
G01 X78.916164 Y24.924460 Z-1.000000
G01 X79.125335 Y24.801883 Z-1.000000
G01 X79.328010 Y24.668036 Z-1.000000
G01 X79.523653 Y24.523964 Z-1.000000
G01 X79.711728 Y24.370715 Z-1.000000
G01 X79.891699 Y24.209326 Z-1.000000
G01 X80.063030 Y24.040842 Z-1.000000
G01 X80.225184 Y23.866310 Z-1.000000
G01 X80.422369 Y23.662472 Z-1.000000
G01 X80.615288 Y23.454799 Z-1.000000
G01 X80.804036 Y23.243460 Z-1.000000
G01 X80.988710 Y23.028615 Z-1.000000
G01 X81.169409 Y22.810427 Z-1.000000
G01 X81.346232 Y22.589063 Z-1.000000
G01 X81.519277 Y22.364682 Z-1.000000
G01 X81.688638 Y22.137451 Z-1.000000
G01 X81.854421 Y21.907530 Z-1.000000
G01 X82.016719 Y21.675086 Z-1.000000
G01 X82.175627 Y21.440280 Z-1.000000
G01 X82.331250 Y21.203278 Z-1.000000
G01 X82.483681 Y20.964239 Z-1.000000
G01 X82.633022 Y20.723331 Z-1.000000
G01 X82.779368 Y20.480716 Z-1.000000
G01 X82.922816 Y20.236560 Z-1.000000
G00 Z0.500000

(End cutting path id: path13959-4-2)


(Footer)
M5
G00 X0.0000 Y0.0000
M2
(Using default footer. To add your own footer create file "footer" in the output dir.)
(end)
%