%
(Header)
(Generated by gcodetools from Inkscape.)
(Using default header. To add your own header create file "header" in the output dir.)
M3
(Header end.)
G21 (All units in mm)

(Start cutting path id: path13998)
(Change tool to Default tool)

G00 Z2.000000
G00 X6.038195 Y21.526273

G01 Z-0.500000 F100.0(Penetrate)
G01 X6.056797 Y20.785944 Z-0.500000 F400.000000
G01 X6.112007 Y20.055332 Z-0.500000
G01 X6.202926 Y19.335344 Z-0.500000
G01 X6.328654 Y18.626883 Z-0.500000
G01 X6.488295 Y17.930852 Z-0.500000
G01 X6.680950 Y17.248156 Z-0.500000
G01 X6.905719 Y16.579697 Z-0.500000
G01 X7.161706 Y15.926381 Z-0.500000
G01 X7.448012 Y15.289112 Z-0.500000
G01 X7.763737 Y14.668793 Z-0.500000
G01 X8.107986 Y14.066327 Z-0.500000
G01 X8.479858 Y13.482620 Z-0.500000
G01 X8.878456 Y12.918575 Z-0.500000
G01 X9.302882 Y12.375096 Z-0.500000
G01 X9.752236 Y11.853086 Z-0.500000
G01 X10.225622 Y11.353450 Z-0.500000
G01 X10.722139 Y10.877093 Z-0.500000
G01 X11.240891 Y10.424917 Z-0.500000
G01 X11.780979 Y9.997826 Z-0.500000
G01 X12.341503 Y9.596725 Z-0.500000
G01 X12.921568 Y9.222517 Z-0.500000
G01 X13.520274 Y8.876108 Z-0.500000
G01 X14.136723 Y8.558399 Z-0.500000
G01 X14.770016 Y8.270296 Z-0.500000
G01 X15.419254 Y8.012701 Z-0.500000
G01 X16.083541 Y7.786520 Z-0.500000
G01 X16.761977 Y7.592656 Z-0.500000
G01 X17.453665 Y7.432013 Z-0.500000
G01 X18.157706 Y7.305495 Z-0.500000
G01 X18.873201 Y7.214006 Z-0.500000
G01 X19.599253 Y7.158450 Z-0.500000
G01 X20.334963 Y7.139730 Z-0.500000
G01 X21.070672 Y7.158450 Z-0.500000
G01 X21.796724 Y7.214006 Z-0.500000
G01 X22.512219 Y7.305495 Z-0.500000
G01 X23.216260 Y7.432013 Z-0.500000
G01 X23.907948 Y7.592656 Z-0.500000
G01 X24.586384 Y7.786520 Z-0.500000
G01 X25.250671 Y8.012701 Z-0.500000
G01 X25.899910 Y8.270296 Z-0.500000
G01 X26.533202 Y8.558399 Z-0.500000
G01 X27.149651 Y8.876108 Z-0.500000
G01 X27.748357 Y9.222517 Z-0.500000
G01 X28.328421 Y9.596725 Z-0.500000
G01 X28.888947 Y9.997826 Z-0.500000
G01 X29.429034 Y10.424917 Z-0.500000
G01 X29.947786 Y10.877093 Z-0.500000
G01 X30.444304 Y11.353450 Z-0.500000
G01 X30.917689 Y11.853086 Z-0.500000
G01 X31.367044 Y12.375096 Z-0.500000
G01 X31.791469 Y12.918575 Z-0.500000
G01 X32.190067 Y13.482619 Z-0.500000
G01 X32.561939 Y14.066327 Z-0.500000
G01 X32.906188 Y14.668793 Z-0.500000
G01 X33.221914 Y15.289111 Z-0.500000
G01 X33.508220 Y15.926381 Z-0.500000
G01 X33.764206 Y16.579697 Z-0.500000
G01 X33.988976 Y17.248156 Z-0.500000
G01 X34.181630 Y17.930852 Z-0.500000
G01 X34.341271 Y18.626883 Z-0.500000
G01 X34.467000 Y19.335344 Z-0.500000
G01 X34.557918 Y20.055332 Z-0.500000
G01 X34.613128 Y20.785944 Z-0.500000
G01 X34.631731 Y21.526273 Z-0.500000
G01 X34.613128 Y22.266603 Z-0.500000
G01 X34.557918 Y22.997214 Z-0.500000
G01 X34.467000 Y23.717202 Z-0.500000
G01 X34.341271 Y24.425664 Z-0.500000
G01 X34.181631 Y25.121695 Z-0.500000
G01 X33.988976 Y25.804392 Z-0.500000
G01 X33.764207 Y26.472850 Z-0.500000
G01 X33.508220 Y27.126166 Z-0.500000
G01 X33.221914 Y27.763435 Z-0.500000
G01 X32.906188 Y28.383755 Z-0.500000
G01 X32.561940 Y28.986220 Z-0.500000
G01 X32.190067 Y29.569927 Z-0.500000
G01 X31.791469 Y30.133972 Z-0.500000
G01 X31.367044 Y30.677452 Z-0.500000
G01 X30.917690 Y31.199461 Z-0.500000
G01 X30.444304 Y31.699097 Z-0.500000
G01 X29.947787 Y32.175454 Z-0.500000
G01 X29.429035 Y32.627631 Z-0.500000
G01 X28.888947 Y33.054721 Z-0.500000
G01 X28.328422 Y33.455822 Z-0.500000
G01 X27.748357 Y33.830030 Z-0.500000
G01 X27.149651 Y34.176440 Z-0.500000
G01 X26.533202 Y34.494148 Z-0.500000
G01 X25.899910 Y34.782252 Z-0.500000
G01 X25.250671 Y35.039846 Z-0.500000
G01 X24.586384 Y35.266027 Z-0.500000
G01 X23.907948 Y35.459891 Z-0.500000
G01 X23.216260 Y35.620534 Z-0.500000
G01 X22.512219 Y35.747053 Z-0.500000
G01 X21.796724 Y35.838542 Z-0.500000
G01 X21.070672 Y35.894098 Z-0.500000
G01 X20.334963 Y35.912818 Z-0.500000
G01 X19.599253 Y35.894098 Z-0.500000
G01 X18.873201 Y35.838542 Z-0.500000
G01 X18.157706 Y35.747052 Z-0.500000
G01 X17.453665 Y35.620534 Z-0.500000
G01 X16.761977 Y35.459891 Z-0.500000
G01 X16.083541 Y35.266027 Z-0.500000
G01 X15.419254 Y35.039846 Z-0.500000
G01 X14.770015 Y34.782252 Z-0.500000
G01 X14.136723 Y34.494148 Z-0.500000
G01 X13.520274 Y34.176440 Z-0.500000
G01 X12.921568 Y33.830029 Z-0.500000
G01 X12.341503 Y33.455822 Z-0.500000
G01 X11.780978 Y33.054721 Z-0.500000
G01 X11.240891 Y32.627630 Z-0.500000
G01 X10.722139 Y32.175454 Z-0.500000
G01 X10.225621 Y31.699096 Z-0.500000
G01 X9.752236 Y31.199461 Z-0.500000
G01 X9.302882 Y30.677451 Z-0.500000
G01 X8.878456 Y30.133972 Z-0.500000
G01 X8.479858 Y29.569927 Z-0.500000
G01 X8.107986 Y28.986220 Z-0.500000
G01 X7.763737 Y28.383755 Z-0.500000
G01 X7.448011 Y27.763435 Z-0.500000
G01 X7.161705 Y27.126166 Z-0.500000
G01 X6.905718 Y26.472850 Z-0.500000
G01 X6.680949 Y25.804392 Z-0.500000
G01 X6.488294 Y25.121695 Z-0.500000
G01 X6.328654 Y24.425664 Z-0.500000
G01 X6.202925 Y23.717202 Z-0.500000
G01 X6.112007 Y22.997214 Z-0.500000
G01 X6.056797 Y22.266603 Z-0.500000
G01 X6.038195 Y21.526273 Z-0.500000
G00 Z2.000000

(End cutting path id: path13998)


(Start cutting path id: path13959)
(Change tool to Default tool)

G00 Z2.000000
G00 X19.945451 Y23.564104

G01 Z-0.500000 F100.0(Penetrate)
G01 X19.725423 Y23.774828 Z-0.500000 F400.000000
G01 X19.510336 Y23.988276 Z-0.500000
G01 X19.299107 Y24.203841 Z-0.500000
G01 X19.090654 Y24.420918 Z-0.500000
G01 X18.883893 Y24.638903 Z-0.500000
G01 X18.677744 Y24.857188 Z-0.500000
G01 X18.471124 Y25.075171 Z-0.500000
G01 X18.262951 Y25.292244 Z-0.500000
G01 X18.052142 Y25.507803 Z-0.500000
G01 X17.837615 Y25.721241 Z-0.500000
G01 X17.618289 Y25.931955 Z-0.500000
G01 X17.393079 Y26.139338 Z-0.500000
G01 X17.160905 Y26.342785 Z-0.500000
G01 X16.920685 Y26.541689 Z-0.500000
G01 X16.671335 Y26.735448 Z-0.500000
G01 X16.411774 Y26.923454 Z-0.500000
G01 X16.190794 Y27.023192 Z-0.500000
G01 X15.972277 Y27.112588 Z-0.500000
G01 X15.755948 Y27.192172 Z-0.500000
G01 X15.541532 Y27.262475 Z-0.500000
G01 X15.328754 Y27.324026 Z-0.500000
G01 X15.117338 Y27.377356 Z-0.500000
G01 X14.907009 Y27.422993 Z-0.500000
G01 X14.697493 Y27.461469 Z-0.500000
G01 X14.488514 Y27.493312 Z-0.500000
G01 X14.279797 Y27.519053 Z-0.500000
G01 X14.071067 Y27.539221 Z-0.500000
G01 X13.862048 Y27.554347 Z-0.500000
G01 X13.652467 Y27.564960 Z-0.500000
G01 X13.442046 Y27.571589 Z-0.500000
G01 X13.230511 Y27.574763 Z-0.500000
G01 X13.017588 Y27.575011 Z-0.500000
G01 X12.906364 Y27.584268 Z-0.500000
G01 X12.795158 Y27.595186 Z-0.500000
G01 X12.684050 Y27.607867 Z-0.500000
G01 X12.573120 Y27.622416 Z-0.500000
G01 X12.462449 Y27.638933 Z-0.500000
G01 X12.352116 Y27.657523 Z-0.500000
G01 X12.242199 Y27.678287 Z-0.500000
G01 X12.132780 Y27.701329 Z-0.500000
G01 X12.023938 Y27.726752 Z-0.500000
G01 X11.915752 Y27.754656 Z-0.500000
G01 X11.808302 Y27.785148 Z-0.500000
G01 X11.701669 Y27.818328 Z-0.500000
G01 X11.595931 Y27.854301 Z-0.500000
G01 X11.491169 Y27.893167 Z-0.500000
G01 X11.387461 Y27.935030 Z-0.500000
G01 X11.284890 Y27.979993 Z-0.500000
G01 X11.150182 Y27.985077 Z-0.500000
G01 X11.019332 Y27.972137 Z-0.500000
G01 X10.893113 Y27.942462 Z-0.500000
G01 X10.772296 Y27.897342 Z-0.500000
G01 X10.657653 Y27.838064 Z-0.500000
G01 X10.549959 Y27.765914 Z-0.500000
G01 X10.449985 Y27.682182 Z-0.500000
G01 X10.358503 Y27.588156 Z-0.500000
G01 X10.276287 Y27.485122 Z-0.500000
G01 X10.204108 Y27.374370 Z-0.500000
G01 X10.142741 Y27.257185 Z-0.500000
G01 X10.092956 Y27.134858 Z-0.500000
G01 X10.055527 Y27.008674 Z-0.500000
G01 X10.031225 Y26.879923 Z-0.500000
G01 X10.020825 Y26.749891 Z-0.500000
G01 X10.025098 Y26.619867 Z-0.500000
G01 X10.009440 Y26.476707 Z-0.500000
G01 X9.996480 Y26.333394 Z-0.500000
G01 X9.985895 Y26.189944 Z-0.500000
G01 X9.977362 Y26.046376 Z-0.500000
G01 X9.970551 Y25.902708 Z-0.500000
G01 X9.965145 Y25.758959 Z-0.500000
G01 X9.960822 Y25.615145 Z-0.500000
G01 X9.957251 Y25.471287 Z-0.500000
G01 X9.954110 Y25.327400 Z-0.500000
G01 X9.951077 Y25.183503 Z-0.500000
G01 X9.947828 Y25.039615 Z-0.500000
G01 X9.944035 Y24.895754 Z-0.500000
G01 X9.939373 Y24.751937 Z-0.500000
G01 X9.933521 Y24.608183 Z-0.500000
G01 X9.926156 Y24.464510 Z-0.500000
G01 X9.916953 Y24.320936 Z-0.500000
G01 X9.958957 Y24.160867 Z-0.500000
G01 X10.027643 Y24.016013 Z-0.500000
G01 X10.119671 Y23.887065 Z-0.500000
G01 X10.231698 Y23.774714 Z-0.500000
G01 X10.360382 Y23.679651 Z-0.500000
G01 X10.502384 Y23.602567 Z-0.500000
G01 X10.654360 Y23.544153 Z-0.500000
G01 X10.812969 Y23.505099 Z-0.500000
G01 X10.974871 Y23.486097 Z-0.500000
G01 X11.136724 Y23.487841 Z-0.500000
G01 X11.295184 Y23.511016 Z-0.500000
G01 X11.446913 Y23.556315 Z-0.500000
G01 X11.588567 Y23.624429 Z-0.500000
G01 X11.716807 Y23.716049 Z-0.500000
G01 X11.828289 Y23.831867 Z-0.500000
G01 X11.919673 Y23.972573 Z-0.500000
G01 X11.981877 Y24.065752 Z-0.500000
G01 X12.042771 Y24.162415 Z-0.500000
G01 X12.103063 Y24.261472 Z-0.500000
G01 X12.163460 Y24.361836 Z-0.500000
G01 X12.224672 Y24.462418 Z-0.500000
G01 X12.287404 Y24.562130 Z-0.500000
G01 X12.352365 Y24.659883 Z-0.500000
G01 X12.420264 Y24.754589 Z-0.500000
G01 X12.491807 Y24.845159 Z-0.500000
G01 X12.567704 Y24.930503 Z-0.500000
G01 X12.648661 Y25.009536 Z-0.500000
G01 X12.735387 Y25.081166 Z-0.500000
G01 X12.828589 Y25.144306 Z-0.500000
G01 X12.928976 Y25.197867 Z-0.500000
G01 X13.037255 Y25.240762 Z-0.500000
G01 X13.154134 Y25.271900 Z-0.500000
G01 X13.397640 Y25.297669 Z-0.500000
G01 X13.639475 Y25.302785 Z-0.500000
G01 X13.879104 Y25.288286 Z-0.500000
G01 X14.115990 Y25.255216 Z-0.500000
G01 X14.349596 Y25.204620 Z-0.500000
G01 X14.579388 Y25.137541 Z-0.500000
G01 X14.804829 Y25.055021 Z-0.500000
G01 X15.025382 Y24.958105 Z-0.500000
G01 X15.240512 Y24.847835 Z-0.500000
G01 X15.449683 Y24.725256 Z-0.500000
G01 X15.652357 Y24.591409 Z-0.500000
G01 X15.848000 Y24.447339 Z-0.500000
G01 X16.036075 Y24.294087 Z-0.500000
G01 X16.216046 Y24.132699 Z-0.500000
G01 X16.387377 Y23.964217 Z-0.500000
G01 X16.549532 Y23.789684 Z-0.500000
G01 X16.746718 Y23.585845 Z-0.500000
G01 X16.939636 Y23.378174 Z-0.500000
G01 X17.128383 Y23.166834 Z-0.500000
G01 X17.313057 Y22.951989 Z-0.500000
G01 X17.493757 Y22.733802 Z-0.500000
G01 X17.670580 Y22.512437 Z-0.500000
G01 X17.843624 Y22.288056 Z-0.500000
G01 X18.012987 Y22.060824 Z-0.500000
G01 X18.178768 Y21.830904 Z-0.500000
G01 X18.341065 Y21.598460 Z-0.500000
G01 X18.499976 Y21.363654 Z-0.500000
G01 X18.655597 Y21.126651 Z-0.500000
G01 X18.808029 Y20.887614 Z-0.500000
G01 X18.957369 Y20.646706 Z-0.500000
G01 X19.103714 Y20.404091 Z-0.500000
G01 X19.247164 Y20.159933 Z-0.500000
G00 Z2.000000

(End cutting path id: path13959)


(Start cutting path id: path13989)
(Change tool to Default tool)

G00 Z2.000000
G00 X21.730853 Y20.199615

G01 Z-0.500000 F100.0(Penetrate)
G01 X22.011073 Y19.577479 Z-0.500000 F400.000000
G01 X22.213430 Y18.933488 Z-0.500000
G01 X22.347752 Y18.272585 Z-0.500000
G01 X22.423869 Y17.599712 Z-0.500000
G01 X22.451612 Y16.919810 Z-0.500000
G01 X22.440808 Y16.237821 Z-0.500000
G01 X22.401290 Y15.558687 Z-0.500000
G01 X22.342887 Y14.887351 Z-0.500000
G01 X22.256244 Y14.558987 Z-0.500000
G01 X22.147281 Y14.237171 Z-0.500000
G01 X22.017627 Y13.922586 Z-0.500000
G01 X21.868915 Y13.615912 Z-0.500000
G01 X21.702773 Y13.317831 Z-0.500000
G01 X21.520831 Y13.029023 Z-0.500000
G01 X21.324720 Y12.750170 Z-0.500000
G01 X21.116070 Y12.481955 Z-0.500000
G01 X20.951375 Y12.269015 Z-0.500000
G01 X20.774630 Y12.067028 Z-0.500000
G01 X20.586479 Y11.876266 Z-0.500000
G01 X20.387566 Y11.697002 Z-0.500000
G01 X20.178532 Y11.529508 Z-0.500000
G01 X19.960022 Y11.374057 Z-0.500000
G01 X19.732677 Y11.230924 Z-0.500000
G01 X19.497142 Y11.100378 Z-0.500000
G01 X19.053225 Y10.854353 Z-0.500000
G01 X18.587249 Y10.676593 Z-0.500000
G01 X18.104123 Y10.558737 Z-0.500000
G01 X17.608749 Y10.492423 Z-0.500000
G01 X17.106034 Y10.469290 Z-0.500000
G01 X16.600883 Y10.480978 Z-0.500000
G01 X16.098202 Y10.519123 Z-0.500000
G01 X15.602897 Y10.575366 Z-0.500000
G01 X15.183850 Y10.658560 Z-0.500000
G01 X14.773976 Y10.774529 Z-0.500000
G01 X14.373118 Y10.919304 Z-0.500000
G01 X13.981125 Y11.088914 Z-0.500000
G01 X13.597842 Y11.279388 Z-0.500000
G01 X13.223116 Y11.486755 Z-0.500000
G01 X12.856793 Y11.707046 Z-0.500000
G01 X12.498720 Y11.936289 Z-0.500000
G01 X12.241799 Y12.113065 Z-0.500000
G01 X11.984164 Y12.292439 Z-0.500000
G01 X11.728972 Y12.476707 Z-0.500000
G01 X11.479380 Y12.668165 Z-0.500000
G01 X11.238546 Y12.869111 Z-0.500000
G01 X11.009625 Y13.081840 Z-0.500000
G01 X10.795776 Y13.308648 Z-0.500000
G01 X10.600156 Y13.551831 Z-0.500000
G01 X10.529789 Y13.787101 Z-0.500000
G01 X10.515595 Y14.028704 Z-0.500000
G01 X10.551989 Y14.269222 Z-0.500000
G01 X10.633390 Y14.501237 Z-0.500000
G01 X10.754214 Y14.717329 Z-0.500000
G01 X10.908879 Y14.910079 Z-0.500000
G01 X11.091800 Y15.072070 Z-0.500000
G01 X11.297395 Y15.195880 Z-0.500000
G01 X11.558400 Y15.230537 Z-0.500000
G01 X11.806124 Y15.201790 Z-0.500000
G01 X12.042473 Y15.122442 Z-0.500000
G01 X12.269351 Y15.005293 Z-0.500000
G01 X12.488663 Y14.863143 Z-0.500000
G01 X12.702313 Y14.708793 Z-0.500000
G01 X12.912208 Y14.555042 Z-0.500000
G01 X13.120252 Y14.414693 Z-0.500000
G01 X13.371759 Y14.232263 Z-0.500000
G01 X13.623567 Y14.047612 Z-0.500000
G01 X13.877908 Y13.865893 Z-0.500000
G01 X14.137011 Y13.692263 Z-0.500000
G01 X14.403104 Y13.531874 Z-0.500000
G01 X14.678418 Y13.389884 Z-0.500000
G01 X14.965183 Y13.271444 Z-0.500000
G01 X15.265627 Y13.181711 Z-0.500000
G01 X15.499244 Y13.100229 Z-0.500000
G01 X15.736198 Y13.027606 Z-0.500000
G01 X15.976038 Y12.965679 Z-0.500000
G01 X16.218313 Y12.916281 Z-0.500000
G01 X16.462570 Y12.881246 Z-0.500000
G01 X16.708361 Y12.862409 Z-0.500000
G01 X16.955233 Y12.861582 Z-0.500000
G01 X17.202735 Y12.880644 Z-0.500000
G01 X17.457718 Y12.882801 Z-0.500000
G01 X17.706207 Y12.917882 Z-0.500000
G01 X17.946944 Y12.983043 Z-0.500000
G01 X18.178673 Y13.075432 Z-0.500000
G01 X18.400137 Y13.192204 Z-0.500000
G01 X18.610081 Y13.330507 Z-0.500000
G01 X18.807247 Y13.487494 Z-0.500000
G01 X18.990377 Y13.660316 Z-0.500000
G01 X19.188459 Y13.847632 Z-0.500000
G01 X19.374963 Y14.049032 Z-0.500000
G01 X19.546278 Y14.263883 Z-0.500000
G01 X19.698793 Y14.491555 Z-0.500000
G01 X19.828895 Y14.731421 Z-0.500000
G01 X19.932973 Y14.982849 Z-0.500000
G01 X20.007414 Y15.245211 Z-0.500000
G01 X20.048609 Y15.517875 Z-0.500000
G00 Z2.000000

(End cutting path id: path13989)


(Start cutting path id: path13941)
(Change tool to Default tool)

G00 Z2.000000
G00 X26.261806 Y23.095932

G01 Z-0.500000 F100.0(Penetrate)
G01 X25.912661 Y23.671229 Z-0.500000 F400.000000
G01 X25.563516 Y24.246524 Z-0.500000
G01 X25.214370 Y24.821821 Z-0.500000
G01 X24.865225 Y25.397117 Z-0.500000
G01 X24.516079 Y25.972414 Z-0.500000
G01 X24.166935 Y26.547709 Z-0.500000
G01 X23.817789 Y27.123006 Z-0.500000
G01 X23.468644 Y27.698302 Z-0.500000
G01 X23.348000 Y27.664890 Z-0.500000
G01 X23.266569 Y27.596744 Z-0.500000
G01 X23.216125 Y27.501932 Z-0.500000
G01 X23.188440 Y27.388526 Z-0.500000
G01 X23.175288 Y27.264593 Z-0.500000
G01 X23.168444 Y27.138203 Z-0.500000
G01 X23.159678 Y27.017427 Z-0.500000
G01 X23.140763 Y26.910332 Z-0.500000
G01 X23.080936 Y26.580970 Z-0.500000
G01 X23.016523 Y26.252495 Z-0.500000
G01 X22.948797 Y25.924656 Z-0.500000
G01 X22.879030 Y25.597206 Z-0.500000
G01 X22.808494 Y25.269898 Z-0.500000
G01 X22.738461 Y24.942480 Z-0.500000
G01 X22.670204 Y24.614706 Z-0.500000
G01 X22.604994 Y24.286325 Z-0.500000
G01 X22.571321 Y24.196526 Z-0.500000
G01 X22.552770 Y24.111016 Z-0.500000
G01 X22.550720 Y24.031969 Z-0.500000
G01 X22.566551 Y23.961564 Z-0.500000
G01 X22.601643 Y23.901976 Z-0.500000
G01 X22.657374 Y23.855381 Z-0.500000
G01 X22.735124 Y23.823955 Z-0.500000
G01 X22.836273 Y23.809874 Z-0.500000
G01 X23.192861 Y23.739307 Z-0.500000
G01 X23.549154 Y23.666755 Z-0.500000
G01 X23.905226 Y23.592712 Z-0.500000
G01 X24.261152 Y23.517666 Z-0.500000
G01 X24.617010 Y23.442112 Z-0.500000
G01 X24.972874 Y23.366542 Z-0.500000
G01 X25.328818 Y23.291446 Z-0.500000
G01 X25.684919 Y23.217317 Z-0.500000
G01 X25.757031 Y23.202144 Z-0.500000
G01 X25.829141 Y23.186971 Z-0.500000
G01 X25.901252 Y23.171798 Z-0.500000
G01 X25.973363 Y23.156625 Z-0.500000
G01 X26.045474 Y23.141451 Z-0.500000
G01 X26.117585 Y23.126278 Z-0.500000
G01 X26.189696 Y23.111106 Z-0.500000
G01 X26.261806 Y23.095932 Z-0.500000
G00 Z2.000000

(End cutting path id: path13941)


(Start cutting path id: path13943)
(Change tool to Default tool)

G00 Z2.000000
G00 X29.475529 Y22.421447

G01 Z-0.500000 F100.0(Penetrate)
G01 X29.118560 Y23.005976 Z-0.500000 F400.000000
G01 X28.764632 Y23.592795 Z-0.500000
G01 X28.412715 Y24.181181 Z-0.500000
G01 X28.061778 Y24.770409 Z-0.500000
G01 X27.710791 Y25.359756 Z-0.500000
G01 X27.358723 Y25.948495 Z-0.500000
G01 X27.004545 Y26.535904 Z-0.500000
G01 X26.647226 Y27.121258 Z-0.500000
G01 X26.285735 Y27.703833 Z-0.500000
G01 X25.919043 Y28.282905 Z-0.500000
G01 X25.546120 Y28.857749 Z-0.500000
G01 X25.165934 Y29.427641 Z-0.500000
G01 X24.777455 Y29.991856 Z-0.500000
G01 X24.379654 Y30.549672 Z-0.500000
G01 X23.971499 Y31.100362 Z-0.500000
G01 X23.551961 Y31.643204 Z-0.500000
G01 X23.430507 Y31.800476 Z-0.500000
G01 X23.293755 Y31.923559 Z-0.500000
G01 X23.144775 Y32.014097 Z-0.500000
G01 X22.986638 Y32.073733 Z-0.500000
G01 X22.822416 Y32.104112 Z-0.500000
G01 X22.655179 Y32.106877 Z-0.500000
G01 X22.488000 Y32.083674 Z-0.500000
G01 X22.323950 Y32.036145 Z-0.500000
G01 X22.166098 Y31.965936 Z-0.500000
G01 X22.017518 Y31.874689 Z-0.500000
G01 X21.881279 Y31.764049 Z-0.500000
G01 X21.760455 Y31.635661 Z-0.500000
G01 X21.658113 Y31.491168 Z-0.500000
G01 X21.577328 Y31.332214 Z-0.500000
G01 X21.521170 Y31.160444 Z-0.500000
G01 X21.492708 Y30.977501 Z-0.500000
G01 X21.396715 Y30.536179 Z-0.500000
G01 X21.306999 Y30.093495 Z-0.500000
G01 X21.222376 Y29.649706 Z-0.500000
G01 X21.141665 Y29.205069 Z-0.500000
G01 X21.063684 Y28.759840 Z-0.500000
G01 X20.987250 Y28.314279 Z-0.500000
G01 X20.911181 Y27.868641 Z-0.500000
G01 X20.834293 Y27.423185 Z-0.500000
G01 X20.755406 Y26.978168 Z-0.500000
G01 X20.673336 Y26.533847 Z-0.500000
G01 X20.586901 Y26.090479 Z-0.500000
G01 X20.494920 Y25.648322 Z-0.500000
G01 X20.396209 Y25.207634 Z-0.500000
G01 X20.289586 Y24.768670 Z-0.500000
G01 X20.173869 Y24.331690 Z-0.500000
G01 X20.047876 Y23.896950 Z-0.500000
G01 X19.978939 Y23.586388 Z-0.500000
G01 X19.911930 Y23.275373 Z-0.500000
G01 X19.846394 Y22.964015 Z-0.500000
G01 X19.781875 Y22.652421 Z-0.500000
G01 X19.717915 Y22.340701 Z-0.500000
G01 X19.654061 Y22.028962 Z-0.500000
G01 X19.589853 Y21.717312 Z-0.500000
G01 X19.524839 Y21.405861 Z-0.500000
G01 X19.458560 Y21.094715 Z-0.500000
G01 X19.390561 Y20.783983 Z-0.500000
G01 X19.320385 Y20.473775 Z-0.500000
G01 X19.247578 Y20.164198 Z-0.500000
G01 X19.171683 Y19.855360 Z-0.500000
G01 X19.092242 Y19.547370 Z-0.500000
G01 X19.008802 Y19.240335 Z-0.500000
G01 X18.920905 Y18.934365 Z-0.500000
G01 X18.883543 Y18.752148 Z-0.500000
G01 X18.835629 Y18.571876 Z-0.500000
G01 X18.779228 Y18.393195 Z-0.500000
G01 X18.716402 Y18.215755 Z-0.500000
G01 X18.649214 Y18.039201 Z-0.500000
G01 X18.579727 Y17.863183 Z-0.500000
G01 X18.510004 Y17.687349 Z-0.500000
G01 X18.442108 Y17.511345 Z-0.500000
G01 X18.378101 Y17.334819 Z-0.500000
G01 X18.320048 Y17.157421 Z-0.500000
G01 X18.270010 Y16.978796 Z-0.500000
G01 X18.230052 Y16.798593 Z-0.500000
G01 X18.202234 Y16.616459 Z-0.500000
G01 X18.188622 Y16.432043 Z-0.500000
G01 X18.191276 Y16.244993 Z-0.500000
G01 X18.212261 Y16.054955 Z-0.500000
G01 X18.250117 Y15.875551 Z-0.500000
G01 X18.315300 Y15.716731 Z-0.500000
G01 X18.404489 Y15.578650 Z-0.500000
G01 X18.514361 Y15.461468 Z-0.500000
G01 X18.641596 Y15.365342 Z-0.500000
G01 X18.782870 Y15.290430 Z-0.500000
G01 X18.934863 Y15.236890 Z-0.500000
G01 X19.094251 Y15.204878 Z-0.500000
G01 X19.257713 Y15.194554 Z-0.500000
G01 X19.421928 Y15.206076 Z-0.500000
G01 X19.583574 Y15.239600 Z-0.500000
G01 X19.739328 Y15.295285 Z-0.500000
G01 X19.885869 Y15.373288 Z-0.500000
G01 X20.019875 Y15.473768 Z-0.500000
G01 X20.138023 Y15.596881 Z-0.500000
G01 X20.236993 Y15.742787 Z-0.500000
G01 X20.353632 Y15.930416 Z-0.500000
G01 X20.462052 Y16.122251 Z-0.500000
G01 X20.562847 Y16.317925 Z-0.500000
G01 X20.656611 Y16.517078 Z-0.500000
G01 X20.743937 Y16.719344 Z-0.500000
G01 X20.825420 Y16.924362 Z-0.500000
G01 X20.901653 Y17.131768 Z-0.500000
G01 X20.973230 Y17.341198 Z-0.500000
G01 X21.040745 Y17.552289 Z-0.500000
G01 X21.104791 Y17.764677 Z-0.500000
G01 X21.165963 Y17.978000 Z-0.500000
G01 X21.224853 Y18.191894 Z-0.500000
G01 X21.282057 Y18.405995 Z-0.500000
G01 X21.338168 Y18.619941 Z-0.500000
G01 X21.393779 Y18.833367 Z-0.500000
G01 X21.449485 Y19.045912 Z-0.500000
G01 X21.482985 Y19.188116 Z-0.500000
G01 X21.516049 Y19.330430 Z-0.500000
G01 X21.548571 Y19.472868 Z-0.500000
G01 X21.580444 Y19.615445 Z-0.500000
G01 X21.611563 Y19.758174 Z-0.500000
G01 X21.641821 Y19.901069 Z-0.500000
G01 X21.671112 Y20.044145 Z-0.500000
G01 X21.699330 Y20.187415 Z-0.500000
G01 X21.726368 Y20.330895 Z-0.500000
G01 X21.752120 Y20.474596 Z-0.500000
G01 X21.776480 Y20.618535 Z-0.500000
G01 X21.799342 Y20.762724 Z-0.500000
G01 X21.820600 Y20.907178 Z-0.500000
G01 X21.840146 Y21.051911 Z-0.500000
G01 X21.857876 Y21.196938 Z-0.500000
G01 X21.873683 Y21.342271 Z-0.500000
G01 X22.239987 Y21.269993 Z-0.500000
G01 X22.606438 Y21.198459 Z-0.500000
G01 X22.973008 Y21.127524 Z-0.500000
G01 X23.339667 Y21.057041 Z-0.500000
G01 X23.706387 Y20.986865 Z-0.500000
G01 X24.073139 Y20.916849 Z-0.500000
G01 X24.439893 Y20.846846 Z-0.500000
G01 X24.806621 Y20.776712 Z-0.500000
G01 X25.173293 Y20.706299 Z-0.500000
G01 X25.539881 Y20.635463 Z-0.500000
G01 X25.906356 Y20.564055 Z-0.500000
G01 X26.272688 Y20.491931 Z-0.500000
G01 X26.638849 Y20.418944 Z-0.500000
G01 X27.004810 Y20.344948 Z-0.500000
G01 X27.370541 Y20.269797 Z-0.500000
G01 X27.736014 Y20.193344 Z-0.500000
G01 X27.841168 Y20.059307 Z-0.500000
G01 X27.937893 Y19.920440 Z-0.500000
G01 X28.027151 Y19.777290 Z-0.500000
G01 X28.109903 Y19.630403 Z-0.500000
G01 X28.187112 Y19.480325 Z-0.500000
G01 X28.259738 Y19.327600 Z-0.500000
G01 X28.328744 Y19.172777 Z-0.500000
G01 X28.395092 Y19.016399 Z-0.500000
G01 X28.459743 Y18.859014 Z-0.500000
G01 X28.523658 Y18.701166 Z-0.500000
G01 X28.587801 Y18.543403 Z-0.500000
G01 X28.653132 Y18.386270 Z-0.500000
G01 X28.720614 Y18.230312 Z-0.500000
G01 X28.791208 Y18.076076 Z-0.500000
G01 X28.865875 Y17.924108 Z-0.500000
G01 X28.945579 Y17.774953 Z-0.500000
G01 X29.038286 Y17.609359 Z-0.500000
G01 X29.123980 Y17.431784 Z-0.500000
G01 X29.204762 Y17.245098 Z-0.500000
G01 X29.282736 Y17.052177 Z-0.500000
G01 X29.360002 Y16.855891 Z-0.500000
G01 X29.438663 Y16.659113 Z-0.500000
G01 X29.520821 Y16.464717 Z-0.500000
G01 X29.608577 Y16.275574 Z-0.500000
G01 X29.704034 Y16.094557 Z-0.500000
G01 X29.809293 Y15.924539 Z-0.500000
G01 X29.926457 Y15.768394 Z-0.500000
G01 X30.057626 Y15.628992 Z-0.500000
G01 X30.204904 Y15.509207 Z-0.500000
G01 X30.370393 Y15.411911 Z-0.500000
G01 X30.556193 Y15.339976 Z-0.500000
G01 X30.764408 Y15.296277 Z-0.500000
G01 X30.941804 Y15.291417 Z-0.500000
G01 X31.106966 Y15.311212 Z-0.500000
G01 X31.259291 Y15.353614 Z-0.500000
G01 X31.398179 Y15.416577 Z-0.500000
G01 X31.523029 Y15.498057 Z-0.500000
G01 X31.633239 Y15.596006 Z-0.500000
G01 X31.728210 Y15.708379 Z-0.500000
G01 X31.807340 Y15.833130 Z-0.500000
G01 X31.870027 Y15.968213 Z-0.500000
G01 X31.915672 Y16.111582 Z-0.500000
G01 X31.943672 Y16.261191 Z-0.500000
G01 X31.953427 Y16.414995 Z-0.500000
G01 X31.944336 Y16.570946 Z-0.500000
G01 X31.915799 Y16.727000 Z-0.500000
G01 X31.867213 Y16.881110 Z-0.500000
G01 X31.797978 Y17.031231 Z-0.500000
G01 X31.722879 Y17.266321 Z-0.500000
G01 X31.640306 Y17.498822 Z-0.500000
G01 X31.551507 Y17.729160 Z-0.500000
G01 X31.457730 Y17.957756 Z-0.500000
G01 X31.360225 Y18.185038 Z-0.500000
G01 X31.260239 Y18.411427 Z-0.500000
G01 X31.159022 Y18.637348 Z-0.500000
G01 X31.057822 Y18.863226 Z-0.500000
G01 X30.957887 Y19.089485 Z-0.500000
G01 X30.860467 Y19.316549 Z-0.500000
G01 X30.766810 Y19.544841 Z-0.500000
G01 X30.678165 Y19.774787 Z-0.500000
G01 X30.595780 Y20.006811 Z-0.500000
G01 X30.520903 Y20.241335 Z-0.500000
G01 X30.454785 Y20.478786 Z-0.500000
G01 X30.398672 Y20.719587 Z-0.500000
G01 X30.428332 Y20.856416 Z-0.500000
G01 X30.447323 Y20.991299 Z-0.500000
G01 X30.455581 Y21.123684 Z-0.500000
G01 X30.453042 Y21.253015 Z-0.500000
G01 X30.439644 Y21.378736 Z-0.500000
G01 X30.415321 Y21.500295 Z-0.500000
G01 X30.380009 Y21.617136 Z-0.500000
G01 X30.333646 Y21.728704 Z-0.500000
G01 X30.276167 Y21.834446 Z-0.500000
G01 X30.207508 Y21.933805 Z-0.500000
G01 X30.127605 Y22.026228 Z-0.500000
G01 X30.036395 Y22.111159 Z-0.500000
G01 X29.933813 Y22.188046 Z-0.500000
G01 X29.819796 Y22.256332 Z-0.500000
G01 X29.694280 Y22.315463 Z-0.500000
G01 X29.557201 Y22.364884 Z-0.500000
G01 X29.552096 Y22.368421 Z-0.500000
G01 X29.546991 Y22.371959 Z-0.500000
G01 X29.541886 Y22.375497 Z-0.500000
G01 X29.536781 Y22.379035 Z-0.500000
G01 X29.531676 Y22.382572 Z-0.500000
G01 X29.526572 Y22.386110 Z-0.500000
G01 X29.521467 Y22.389648 Z-0.500000
G01 X29.516362 Y22.393185 Z-0.500000
G01 X29.511257 Y22.396723 Z-0.500000
G01 X29.506152 Y22.400261 Z-0.500000
G01 X29.501047 Y22.403798 Z-0.500000
G01 X29.495942 Y22.407336 Z-0.500000
G01 X29.490837 Y22.410874 Z-0.500000
G01 X29.485733 Y22.414412 Z-0.500000
G01 X29.480628 Y22.417949 Z-0.500000
G01 X29.475523 Y22.421487 Z-0.500000
G01 X29.475523 Y22.421487 Z-0.500000
G01 X29.475523 Y22.421487 Z-0.500000
G01 X29.475523 Y22.421487 Z-0.500000
G01 X29.475523 Y22.421487 Z-0.500000
G01 X29.475523 Y22.421487 Z-0.500000
G01 X29.475523 Y22.421487 Z-0.500000
G01 X29.475523 Y22.421487 Z-0.500000
G01 X29.475523 Y22.421487 Z-0.500000
G01 X29.475523 Y22.421487 Z-0.500000
G01 X29.475523 Y22.421487 Z-0.500000
G01 X29.475523 Y22.421487 Z-0.500000
G01 X29.475523 Y22.421487 Z-0.500000
G01 X29.475523 Y22.421487 Z-0.500000
G01 X29.475523 Y22.421487 Z-0.500000
G01 X29.475523 Y22.421487 Z-0.500000
G01 X29.475529 Y22.421447 Z-0.500000
G00 Z30.000000

(End cutting path id: path13943)


(Footer)
M5
G00 X0.0000 Y0.0000
M2
(Using default footer. To add your own footer create file "footer" in the output dir.)
(end)
%