%
(Header)
(Generated by gcodetools from Inkscape.)
(Using default header. To add your own header create file "header" in the output dir.)
M3
(Header end.)
G21 (All units in mm)

(Start cutting path id: path13315-6)
(Change tool to Default tool)

G00 Z3.000000
G00 X29.063677 Y5.386728

G01 Z0.000000 F100.0(Penetrate)
G01 X29.035430 Y4.908548 Z0.000000 F400.000000
G01 X28.950678 Y4.433125 Z0.000000
G01 X28.809432 Y3.960459 Z0.000000
G01 X28.611681 Y3.490548 Z0.000000
G01 X28.368460 Y3.039929 Z0.000000
G01 X28.079760 Y2.625139 Z0.000000
G01 X27.745584 Y2.246179 Z0.000000
G01 X27.365936 Y1.903048 Z0.000000
G01 X26.906359 Y1.569563 Z0.000000
G01 X26.409578 Y1.274663 Z0.000000
G01 X25.875588 Y1.018346 Z0.000000
G01 X25.304390 Y0.800617 Z0.000000
G01 X24.689786 Y0.626986 Z0.000000
G01 X24.014547 Y0.502960 Z0.000000
G01 X23.278675 Y0.428547 Z0.000000
G01 X22.482168 Y0.403739 Z0.000000
G01 X21.616761 Y0.424398 Z0.000000
G01 X20.795450 Y0.486411 Z0.000000
G01 X20.018237 Y0.589763 Z0.000000
G01 X19.285121 Y0.734459 Z0.000000
G01 X18.576120 Y0.919805 Z0.000000
G01 X17.860229 Y1.145112 Z0.000000
G01 X17.137448 Y1.410386 Z0.000000
G01 X16.407777 Y1.715621 Z0.000000
G01 X16.407777 Y2.399127 Z0.000000
G01 X16.407777 Y3.082635 Z0.000000
G01 X16.407777 Y3.766140 Z0.000000
G01 X16.407777 Y4.449649 Z0.000000
G01 X16.446362 Y4.449649 Z0.000000
G01 X16.484947 Y4.449649 Z0.000000
G01 X16.523532 Y4.449649 Z0.000000
G01 X16.562117 Y4.449649 Z0.000000
G01 X17.209106 Y3.961133 Z0.000000
G01 X17.904326 Y3.531873 Z0.000000
G01 X18.647778 Y3.161872 Z0.000000
G01 X19.439461 Y2.851125 Z0.000000
G01 X20.242857 Y2.605146 Z0.000000
G01 X21.021449 Y2.429446 Z0.000000
G01 X21.775236 Y2.324024 Z0.000000
G01 X22.504218 Y2.288885 Z0.000000
G01 X23.461953 Y2.336428 Z0.000000
G01 X24.306692 Y2.479055 Z0.000000
G01 X25.038429 Y2.716765 Z0.000000
G01 X25.657168 Y3.049561 Z0.000000
G01 X26.153952 Y3.461594 Z0.000000
G01 X26.508796 Y3.937018 Z0.000000
G01 X26.721701 Y4.475831 Z0.000000
G01 X26.792672 Y5.078034 Z0.000000
G01 X26.758909 Y5.587908 Z0.000000
G01 X26.657623 Y6.026125 Z0.000000
G01 X26.488814 Y6.392684 Z0.000000
G01 X26.252481 Y6.687584 Z0.000000
G01 X25.952759 Y6.932186 Z0.000000
G01 X25.582754 Y7.147846 Z0.000000
G01 X25.142470 Y7.334572 Z0.000000
G01 X24.631908 Y7.492357 Z0.000000
G01 X24.209540 Y7.597776 Z0.000000
G01 X23.769256 Y7.693551 Z0.000000
G01 X23.311057 Y7.779676 Z0.000000
G01 X22.834945 Y7.856159 Z0.000000
G01 X22.347810 Y7.932638 Z0.000000
G01 X21.845515 Y8.018767 Z0.000000
G01 X21.328062 Y8.114541 Z0.000000
G01 X20.795450 Y8.219960 Z0.000000
G01 X19.774324 Y8.492124 Z0.000000
G01 X18.893758 Y8.845590 Z0.000000
G01 X18.153751 Y9.280362 Z0.000000
G01 X17.554304 Y9.796436 Z0.000000
G01 X17.096107 Y10.400705 Z0.000000
G01 X16.768823 Y11.089037 Z0.000000
G01 X16.572452 Y11.861425 Z0.000000
G01 X16.506996 Y12.717877 Z0.000000
G01 X16.615861 Y13.701796 Z0.000000
G01 X16.942456 Y14.592010 Z0.000000
G01 X17.486781 Y15.388515 Z0.000000
G01 X18.248836 Y16.091316 Z0.000000
G01 X19.178323 Y16.670091 Z0.000000
G01 X20.224943 Y17.083502 Z0.000000
G01 X21.388696 Y17.331550 Z0.000000
G01 X22.669580 Y17.414232 Z0.000000
G01 X23.517074 Y17.393574 Z0.000000
G01 X24.328739 Y17.331561 Z0.000000
G01 X25.104574 Y17.228208 Z0.000000
G01 X25.844580 Y17.083513 Z0.000000
G01 X26.546004 Y16.908501 Z0.000000
G01 X27.206082 Y16.714200 Z0.000000
G01 X27.824823 Y16.500603 Z0.000000
G01 X28.402219 Y16.267716 Z0.000000
G01 X28.402219 Y15.622793 Z0.000000
G01 X28.402219 Y14.977870 Z0.000000
G01 X28.402219 Y14.332950 Z0.000000
G01 X28.402219 Y13.688027 Z0.000000
G01 X28.363636 Y13.688027 Z0.000000
G01 X28.325051 Y13.688027 Z0.000000
G01 X28.286465 Y13.688027 Z0.000000
G01 X28.247880 Y13.688027 Z0.000000
G01 X27.742141 Y14.067675 Z0.000000
G01 X27.161985 Y14.412875 Z0.000000
G01 X26.507418 Y14.723622 Z0.000000
G01 X25.778436 Y14.999920 Z0.000000
G01 X25.012936 Y15.231430 Z0.000000
G01 X24.237790 Y15.396795 Z0.000000
G01 X23.452995 Y15.496013 Z0.000000
G01 X22.658556 Y15.529087 Z0.000000
G01 X21.824845 Y15.483612 Z0.000000
G01 X21.076570 Y15.347186 Z0.000000
G01 X20.413734 Y15.119811 Z0.000000
G01 X19.836336 Y14.801484 Z0.000000
G01 X19.373315 Y14.411498 Z0.000000
G01 X19.042586 Y13.969148 Z0.000000
G01 X18.844148 Y13.474433 Z0.000000
G01 X18.778003 Y12.927350 Z0.000000
G01 X18.811075 Y12.442281 Z0.000000
G01 X18.910294 Y12.012332 Z0.000000
G01 X19.075659 Y11.637507 Z0.000000
G01 X19.307169 Y11.317803 Z0.000000
G01 X19.622051 Y11.042885 Z0.000000
G01 X20.037530 Y10.802415 Z0.000000
G01 X20.553605 Y10.596398 Z0.000000
G01 X21.170277 Y10.424832 Z0.000000
G01 X21.560262 Y10.343530 Z0.000000
G01 X22.024660 Y10.253955 Z0.000000
G01 X22.563473 Y10.156117 Z0.000000
G01 X23.176699 Y10.050007 Z0.000000
G01 X23.802330 Y9.939074 Z0.000000
G01 X24.378348 Y9.826764 Z0.000000
G01 X24.904760 Y9.713076 Z0.000000
G01 X25.381561 Y9.598012 Z0.000000
G01 X26.240078 Y9.324470 Z0.000000
G01 X26.985596 Y8.988917 Z0.000000
G01 X27.618115 Y8.591353 Z0.000000
G01 X28.137636 Y8.131777 Z0.000000
G01 X28.542780 Y7.592275 Z0.000000
G01 X28.832168 Y6.954933 Z0.000000
G01 X29.005802 Y6.219749 Z0.000000
G01 X29.063677 Y5.386728 Z0.000000
G00 Z3.000000

(End cutting path id: path13315-6)


(Start cutting path id: path13315)
(Change tool to Default tool)

G00 Z3.000000
G00 X12.770603 Y5.036775

G01 Z0.000000 F100.0(Penetrate)
G01 X12.742353 Y4.558595 Z0.000000 F400.000000
G01 X12.657604 Y4.083172 Z0.000000
G01 X12.516355 Y3.610506 Z0.000000
G01 X12.318607 Y3.140595 Z0.000000
G01 X12.075383 Y2.689976 Z0.000000
G01 X11.786684 Y2.275186 Z0.000000
G01 X11.452510 Y1.896226 Z0.000000
G01 X11.072860 Y1.553095 Z0.000000
G01 X10.613284 Y1.219610 Z0.000000
G01 X10.116501 Y0.924710 Z0.000000
G01 X9.582512 Y0.668393 Z0.000000
G01 X9.011315 Y0.450664 Z0.000000
G01 X8.396710 Y0.277033 Z0.000000
G01 X7.721471 Y0.153007 Z0.000000
G01 X6.985599 Y0.078594 Z0.000000
G01 X6.189093 Y0.053787 Z0.000000
G01 X5.323685 Y0.074445 Z0.000000
G01 X4.502374 Y0.136458 Z0.000000
G01 X3.725160 Y0.239810 Z0.000000
G01 X2.992044 Y0.384506 Z0.000000
G01 X2.283043 Y0.569852 Z0.000000
G01 X1.567153 Y0.795159 Z0.000000
G01 X0.844371 Y1.060434 Z0.000000
G01 X0.114700 Y1.365668 Z0.000000
G01 X0.114700 Y2.049174 Z0.000000
G01 X0.114700 Y2.732682 Z0.000000
G01 X0.114700 Y3.416188 Z0.000000
G01 X0.114700 Y4.099696 Z0.000000
G01 X0.153285 Y4.099696 Z0.000000
G01 X0.191870 Y4.099696 Z0.000000
G01 X0.230455 Y4.099696 Z0.000000
G01 X0.269040 Y4.099696 Z0.000000
G01 X0.916030 Y3.611181 Z0.000000
G01 X1.611250 Y3.181921 Z0.000000
G01 X2.354701 Y2.811919 Z0.000000
G01 X3.146384 Y2.501172 Z0.000000
G01 X3.949781 Y2.255193 Z0.000000
G01 X4.728373 Y2.079493 Z0.000000
G01 X5.482159 Y1.974072 Z0.000000
G01 X6.211141 Y1.938932 Z0.000000
G01 X7.168878 Y1.986475 Z0.000000
G01 X8.013615 Y2.129102 Z0.000000
G01 X8.745354 Y2.366812 Z0.000000
G01 X9.364093 Y2.699609 Z0.000000
G01 X9.860876 Y3.111642 Z0.000000
G01 X10.215720 Y3.587065 Z0.000000
G01 X10.428627 Y4.125878 Z0.000000
G01 X10.499596 Y4.728081 Z0.000000
G01 X10.465834 Y5.237955 Z0.000000
G01 X10.364548 Y5.676173 Z0.000000
G01 X10.195739 Y6.042731 Z0.000000
G01 X9.959405 Y6.337631 Z0.000000
G01 X9.659682 Y6.582233 Z0.000000
G01 X9.289679 Y6.797893 Z0.000000
G01 X8.849395 Y6.984620 Z0.000000
G01 X8.338832 Y7.142404 Z0.000000
G01 X7.916463 Y7.247823 Z0.000000
G01 X7.476180 Y7.343598 Z0.000000
G01 X7.017983 Y7.429724 Z0.000000
G01 X6.541871 Y7.506206 Z0.000000
G01 X6.054734 Y7.582685 Z0.000000
G01 X5.552439 Y7.668814 Z0.000000
G01 X5.034986 Y7.764589 Z0.000000
G01 X4.502374 Y7.870007 Z0.000000
G01 X3.481248 Y8.142171 Z0.000000
G01 X2.600681 Y8.495637 Z0.000000
G01 X1.860674 Y8.930409 Z0.000000
G01 X1.261228 Y9.446484 Z0.000000
G01 X0.803030 Y10.050752 Z0.000000
G01 X0.475746 Y10.739084 Z0.000000
G01 X0.279376 Y11.511473 Z0.000000
G01 X0.213919 Y12.367924 Z0.000000
G01 X0.322784 Y13.351844 Z0.000000
G01 X0.649379 Y14.242057 Z0.000000
G01 X1.193704 Y15.038562 Z0.000000
G01 X1.955759 Y15.741363 Z0.000000
G01 X2.885246 Y16.320139 Z0.000000
G01 X3.931866 Y16.733549 Z0.000000
G01 X5.095619 Y16.981597 Z0.000000
G01 X6.376506 Y17.064280 Z0.000000
G01 X7.223999 Y17.043621 Z0.000000
G01 X8.035664 Y16.981608 Z0.000000
G01 X8.811499 Y16.878256 Z0.000000
G01 X9.551506 Y16.733560 Z0.000000
G01 X10.252927 Y16.558549 Z0.000000
G01 X10.913007 Y16.364247 Z0.000000
G01 X11.531747 Y16.150650 Z0.000000
G01 X12.109145 Y15.917763 Z0.000000
G01 X12.109145 Y15.272840 Z0.000000
G01 X12.109145 Y14.627917 Z0.000000
G01 X12.109145 Y13.982997 Z0.000000
G01 X12.109145 Y13.338074 Z0.000000
G01 X12.070560 Y13.338074 Z0.000000
G01 X12.031974 Y13.338074 Z0.000000
G01 X11.993390 Y13.338074 Z0.000000
G01 X11.954804 Y13.338074 Z0.000000
G01 X11.449064 Y13.717722 Z0.000000
G01 X10.868910 Y14.062922 Z0.000000
G01 X10.214342 Y14.373669 Z0.000000
G01 X9.485360 Y14.649967 Z0.000000
G01 X8.719860 Y14.881477 Z0.000000
G01 X7.944713 Y15.046842 Z0.000000
G01 X7.159921 Y15.146060 Z0.000000
G01 X6.365482 Y15.179134 Z0.000000
G01 X5.531768 Y15.133659 Z0.000000
G01 X4.783494 Y14.997233 Z0.000000
G01 X4.120657 Y14.769858 Z0.000000
G01 X3.543259 Y14.451531 Z0.000000
G01 X3.080239 Y14.061545 Z0.000000
G01 X2.749509 Y13.619196 Z0.000000
G01 X2.551072 Y13.124480 Z0.000000
G01 X2.484926 Y12.577398 Z0.000000
G01 X2.517999 Y12.092328 Z0.000000
G01 X2.617218 Y11.662380 Z0.000000
G01 X2.782582 Y11.287555 Z0.000000
G01 X3.014093 Y10.967851 Z0.000000
G01 X3.328975 Y10.692932 Z0.000000
G01 X3.744453 Y10.452462 Z0.000000
G01 X4.260528 Y10.246445 Z0.000000
G01 X4.877200 Y10.074880 Z0.000000
G01 X5.267185 Y9.993577 Z0.000000
G01 X5.731584 Y9.904003 Z0.000000
G01 X6.270397 Y9.806165 Z0.000000
G01 X6.883624 Y9.700055 Z0.000000
G01 X7.509253 Y9.589122 Z0.000000
G01 X8.085273 Y9.476811 Z0.000000
G01 X8.611684 Y9.363124 Z0.000000
G01 X9.088485 Y9.248059 Z0.000000
G01 X9.947003 Y8.974518 Z0.000000
G01 X10.692522 Y8.638964 Z0.000000
G01 X11.325041 Y8.241400 Z0.000000
G01 X11.844561 Y7.781824 Z0.000000
G01 X12.249704 Y7.242322 Z0.000000
G01 X12.539092 Y6.604980 Z0.000000
G01 X12.712725 Y5.869797 Z0.000000
G01 X12.770603 Y5.036775 Z0.000000
G00 Z3.000000

(End cutting path id: path13315)


(Footer)
M5
G00 X0.0000 Y0.0000
M2
(Using default footer. To add your own footer create file "footer" in the output dir.)
(end)
%