%
(Header)
(Generated by gcodetools from Inkscape.)
(Using default header. To add your own header create file "header" in the output dir.)
M3
(Header end.)
G21 (All units in mm)

(Start cutting path id: path7270)
(Change tool to Default tool)

G00 Z18.000000
G00 X69.203493 Y104.718056

G01 Z0.000000 F100.0(Penetrate)
G01 X69.235463 Y104.502910 Z0.000000 F400.000000
G01 X69.267433 Y104.287763 Z0.000000
G01 X69.299403 Y104.072617 Z0.000000
G01 X69.331373 Y103.857470 Z0.000000
G01 X69.363346 Y103.642327 Z0.000000
G01 X69.395316 Y103.427180 Z0.000000
G01 X69.427287 Y103.212034 Z0.000000
G01 X69.459257 Y102.996887 Z0.000000
G01 X69.491227 Y102.781741 Z0.000000
G01 X69.523197 Y102.566594 Z0.000000
G01 X69.555167 Y102.351448 Z0.000000
G01 X69.587137 Y102.136301 Z0.000000
G01 X69.619110 Y101.921155 Z0.000000
G01 X69.651080 Y101.706008 Z0.000000
G01 X69.683050 Y101.490862 Z0.000000
G01 X69.715021 Y101.275715 Z0.000000
G01 X69.226367 Y100.400872 Z0.000000
G01 X68.741568 Y99.519461 Z0.000000
G01 X68.261633 Y98.629781 Z0.000000
G01 X67.787558 Y97.730124 Z0.000000
G01 X67.320351 Y96.818789 Z0.000000
G01 X66.861014 Y95.894071 Z0.000000
G01 X66.410551 Y94.954262 Z0.000000
G01 X65.969966 Y93.997662 Z0.000000
G01 X65.540260 Y93.022564 Z0.000000
G01 X65.122441 Y92.027262 Z0.000000
G01 X64.717508 Y91.010057 Z0.000000
G01 X64.326467 Y89.969238 Z0.000000
G01 X63.950321 Y88.903104 Z0.000000
G01 X63.590076 Y87.809951 Z0.000000
G01 X63.246730 Y86.688072 Z0.000000
G01 X62.921291 Y85.535764 Z0.000000
G01 X62.968591 Y85.514682 Z0.000000
G01 X63.015892 Y85.493600 Z0.000000
G01 X63.063195 Y85.472518 Z0.000000
G01 X63.110496 Y85.451436 Z0.000000
G01 X63.157796 Y85.430354 Z0.000000
G01 X63.205096 Y85.409272 Z0.000000
G01 X63.252400 Y85.388190 Z0.000000
G01 X63.299700 Y85.367108 Z0.000000
G01 X63.347001 Y85.346026 Z0.000000
G01 X63.394301 Y85.324944 Z0.000000
G01 X63.441604 Y85.303862 Z0.000000
G01 X63.488905 Y85.282780 Z0.000000
G01 X63.536205 Y85.261698 Z0.000000
G01 X63.583506 Y85.240616 Z0.000000
G01 X63.630809 Y85.219534 Z0.000000
G01 X63.678109 Y85.198452 Z0.000000
G01 X63.959496 Y86.265803 Z0.000000
G01 X64.260735 Y87.318861 Z0.000000
G01 X64.581562 Y88.358684 Z0.000000
G01 X64.921710 Y89.386320 Z0.000000
G01 X65.280912 Y90.402825 Z0.000000
G01 X65.658897 Y91.409249 Z0.000000
G01 X66.055408 Y92.406645 Z0.000000
G01 X66.470171 Y93.396065 Z0.000000
G01 X66.902922 Y94.378563 Z0.000000
G01 X67.353391 Y95.355193 Z0.000000
G01 X67.821315 Y96.327002 Z0.000000
G01 X68.306427 Y97.295047 Z0.000000
G01 X68.808458 Y98.260380 Z0.000000
G01 X69.327143 Y99.224050 Z0.000000
G01 X69.862216 Y100.187114 Z0.000000
G01 X70.413411 Y101.150620 Z0.000000
G01 X70.384539 Y101.362665 Z0.000000
G01 X70.355671 Y101.574713 Z0.000000
G01 X70.326799 Y101.786758 Z0.000000
G01 X70.297931 Y101.998803 Z0.000000
G01 X70.269062 Y102.210850 Z0.000000
G01 X70.240191 Y102.422895 Z0.000000
G01 X70.211322 Y102.634943 Z0.000000
G01 X70.182451 Y102.846988 Z0.000000
G01 X70.153583 Y103.059033 Z0.000000
G01 X70.124711 Y103.271077 Z0.000000
G01 X70.095843 Y103.483125 Z0.000000
G01 X70.066971 Y103.695170 Z0.000000
G01 X70.038103 Y103.907215 Z0.000000
G01 X70.009232 Y104.119260 Z0.000000
G01 X69.980363 Y104.331307 Z0.000000
G01 X69.951492 Y104.543352 Z0.000000
G01 X69.904742 Y104.554274 Z0.000000
G01 X69.857992 Y104.565196 Z0.000000
G01 X69.811241 Y104.576118 Z0.000000
G01 X69.764491 Y104.587040 Z0.000000
G01 X69.717741 Y104.597962 Z0.000000
G01 X69.670991 Y104.608884 Z0.000000
G01 X69.624241 Y104.619806 Z0.000000
G01 X69.577491 Y104.630728 Z0.000000
G01 X69.530741 Y104.641650 Z0.000000
G01 X69.483991 Y104.652572 Z0.000000
G01 X69.437241 Y104.663494 Z0.000000
G01 X69.390490 Y104.674416 Z0.000000
G01 X69.343743 Y104.685338 Z0.000000
G01 X69.296993 Y104.696260 Z0.000000
G01 X69.250243 Y104.707182 Z0.000000
G01 X69.203493 Y104.718056 Z0.000000
G00 Z18.000000

(Change tool to Default tool)

G00 Z18.000000
G00 X62.921139 Y85.535852

G01 Z0.000000 F100.0(Penetrate)
G01 X63.246578 Y86.688157 Z0.000000 F400.000000
G01 X63.589918 Y87.810027 Z0.000000
G01 X63.950163 Y88.903164 Z0.000000
G01 X64.326303 Y89.969275 Z0.000000
G01 X64.717336 Y91.010068 Z0.000000
G01 X65.122263 Y92.027245 Z0.000000
G01 X65.540073 Y93.022513 Z0.000000
G01 X65.969771 Y93.997580 Z0.000000
G01 X66.410348 Y94.954149 Z0.000000
G01 X66.860803 Y95.893924 Z0.000000
G01 X67.320134 Y96.818617 Z0.000000
G01 X67.787333 Y97.729926 Z0.000000
G01 X68.261401 Y98.629560 Z0.000000
G01 X68.741334 Y99.519224 Z0.000000
G01 X69.226127 Y100.400623 Z0.000000
G01 X69.714781 Y101.275464 Z0.000000
G01 X69.682819 Y101.490616 Z0.000000
G01 X69.650857 Y101.705769 Z0.000000
G01 X69.618899 Y101.920921 Z0.000000
G01 X69.586937 Y102.136073 Z0.000000
G01 X69.554975 Y102.351225 Z0.000000
G01 X69.523014 Y102.566377 Z0.000000
G01 X69.491055 Y102.781529 Z0.000000
G01 X69.459093 Y102.996681 Z0.000000
G01 X69.427131 Y103.211833 Z0.000000
G01 X69.395170 Y103.426985 Z0.000000
G01 X69.363211 Y103.642138 Z0.000000
G01 X69.331249 Y103.857290 Z0.000000
G01 X69.299287 Y104.072439 Z0.000000
G01 X69.267326 Y104.287591 Z0.000000
G01 X69.235367 Y104.502743 Z0.000000
G01 X69.203405 Y104.717895 Z0.000000
G01 X68.747726 Y104.582451 Z0.000000
G01 X68.297571 Y104.476539 Z0.000000
G01 X67.852636 Y104.399035 Z0.000000
G01 X67.412621 Y104.348819 Z0.000000
G01 X66.977219 Y104.324774 Z0.000000
G01 X66.546133 Y104.325903 Z0.000000
G01 X66.119055 Y104.350823 Z0.000000
G01 X65.695685 Y104.398535 Z0.000000
G01 X65.275719 Y104.467925 Z0.000000
G01 X64.858854 Y104.557870 Z0.000000
G01 X64.444789 Y104.667250 Z0.000000
G01 X64.033221 Y104.794945 Z0.000000
G01 X63.623844 Y104.939829 Z0.000000
G01 X63.216360 Y105.100780 Z0.000000
G01 X62.810462 Y105.276681 Z0.000000
G01 X62.405852 Y105.466408 Z0.000000
G01 X61.564034 Y105.857009 Z0.000000
G01 X60.712050 Y106.215098 Z0.000000
G01 X59.849759 Y106.539420 Z0.000000
G01 X58.977024 Y106.828723 Z0.000000
G01 X58.093699 Y107.081755 Z0.000000
G01 X57.199650 Y107.297260 Z0.000000
G01 X56.294733 Y107.473984 Z0.000000
G01 X55.378809 Y107.610682 Z0.000000
G01 X54.451737 Y107.706095 Z0.000000
G01 X53.513376 Y107.758970 Z0.000000
G01 X52.563586 Y107.768057 Z0.000000
G01 X51.602230 Y107.732102 Z0.000000
G01 X50.629164 Y107.649848 Z0.000000
G01 X49.644251 Y107.520049 Z0.000000
G01 X48.647349 Y107.341447 Z0.000000
G01 X47.638317 Y107.112791 Z0.000000
G01 X47.137313 Y106.990704 Z0.000000
G01 X46.644167 Y106.878227 Z0.000000
G01 X46.159664 Y106.777054 Z0.000000
G01 X45.684583 Y106.688884 Z0.000000
G01 X45.219704 Y106.615411 Z0.000000
G01 X44.765808 Y106.558331 Z0.000000
G01 X44.323682 Y106.519342 Z0.000000
G01 X43.894100 Y106.500151 Z0.000000
G01 X43.477848 Y106.502409 Z0.000000
G01 X43.075704 Y106.527865 Z0.000000
G01 X42.688452 Y106.578208 Z0.000000
G01 X42.316873 Y106.655122 Z0.000000
G01 X41.961747 Y106.760304 Z0.000000
G01 X41.623857 Y106.895454 Z0.000000
G01 X41.303983 Y107.062267 Z0.000000
G01 X41.002906 Y107.262439 Z0.000000
G01 X40.881299 Y107.103412 Z0.000000
G01 X40.759689 Y106.944389 Z0.000000
G01 X40.638083 Y106.785362 Z0.000000
G01 X40.516473 Y106.626338 Z0.000000
G01 X40.394866 Y106.467312 Z0.000000
G01 X40.273260 Y106.308285 Z0.000000
G01 X40.151650 Y106.149261 Z0.000000
G01 X40.030043 Y105.990235 Z0.000000
G01 X39.908436 Y105.831208 Z0.000000
G01 X39.786827 Y105.672185 Z0.000000
G01 X39.665220 Y105.513158 Z0.000000
G01 X39.543613 Y105.354134 Z0.000000
G01 X39.422007 Y105.195108 Z0.000000
G01 X39.300397 Y105.036081 Z0.000000
G01 X39.178790 Y104.877057 Z0.000000
G01 X39.057184 Y104.718031 Z0.000000
G01 X38.953617 Y103.598856 Z0.000000
G01 X38.825361 Y102.532857 Z0.000000
G01 X38.674606 Y101.515319 Z0.000000
G01 X38.503543 Y100.541520 Z0.000000
G01 X38.314366 Y99.606738 Z0.000000
G01 X38.109267 Y98.706251 Z0.000000
G01 X37.890435 Y97.835342 Z0.000000
G01 X37.660062 Y96.989288 Z0.000000
G01 X37.420343 Y96.163370 Z0.000000
G01 X37.173463 Y95.352864 Z0.000000
G01 X36.921622 Y94.553052 Z0.000000
G01 X36.667004 Y93.759215 Z0.000000
G01 X36.411808 Y92.966630 Z0.000000
G01 X36.158220 Y92.170577 Z0.000000
G01 X35.908436 Y91.366334 Z0.000000
G01 X35.664644 Y90.549183 Z0.000000
G01 X37.368174 Y90.235859 Z0.000000
G01 X39.071704 Y89.922533 Z0.000000
G01 X40.775237 Y89.609210 Z0.000000
G01 X42.478767 Y89.295884 Z0.000000
G01 X44.182297 Y88.982561 Z0.000000
G01 X45.885827 Y88.669235 Z0.000000
G01 X47.589360 Y88.355912 Z0.000000
G01 X49.292890 Y88.042586 Z0.000000
G01 X50.996420 Y87.729260 Z0.000000
G01 X52.699953 Y87.415937 Z0.000000
G01 X54.403483 Y87.102611 Z0.000000
G01 X56.107013 Y86.789288 Z0.000000
G01 X57.810546 Y86.475962 Z0.000000
G01 X59.514076 Y86.162636 Z0.000000
G01 X61.217609 Y85.849313 Z0.000000
G01 X62.921139 Y85.535852 Z0.000000
G00 Z18.000000

(Change tool to Default tool)

G00 Z18.000000
G00 X58.190211 Y85.643802

G01 Z0.000000 F100.0(Penetrate)
G01 X58.239820 Y85.655937 Z0.000000 F400.000000
G01 X58.289429 Y85.668073 Z0.000000
G01 X58.339038 Y85.680208 Z0.000000
G01 X58.388647 Y85.692344 Z0.000000
G01 X58.438259 Y85.704480 Z0.000000
G01 X58.487868 Y85.716615 Z0.000000
G01 X58.537477 Y85.728751 Z0.000000
G01 X58.587086 Y85.740886 Z0.000000
G01 X58.636695 Y85.753022 Z0.000000
G01 X58.686304 Y85.765157 Z0.000000
G01 X58.735913 Y85.777293 Z0.000000
G01 X58.785522 Y85.789428 Z0.000000
G01 X58.835134 Y85.801564 Z0.000000
G01 X58.884743 Y85.813700 Z0.000000
G01 X58.934352 Y85.825835 Z0.000000
G01 X58.983961 Y85.837971 Z0.000000
G01 X57.326182 Y86.141690 Z0.000000
G01 X55.668400 Y86.445409 Z0.000000
G01 X54.010621 Y86.749131 Z0.000000
G01 X52.352839 Y87.052850 Z0.000000
G01 X50.695060 Y87.356569 Z0.000000
G01 X49.037281 Y87.660291 Z0.000000
G01 X47.379499 Y87.964010 Z0.000000
G01 X45.721720 Y88.267729 Z0.000000
G01 X44.063941 Y88.571448 Z0.000000
G01 X42.406160 Y88.875167 Z0.000000
G01 X40.748381 Y89.178886 Z0.000000
G01 X39.090599 Y89.482608 Z0.000000
G01 X37.432820 Y89.786327 Z0.000000
G01 X35.775041 Y90.090046 Z0.000000
G01 X34.117259 Y90.393766 Z0.000000
G01 X32.459480 Y90.697485 Z0.000000
G01 X32.420621 Y90.688679 Z0.000000
G01 X32.381759 Y90.679874 Z0.000000
G01 X32.342900 Y90.671069 Z0.000000
G01 X32.304038 Y90.662263 Z0.000000
G01 X32.265179 Y90.653458 Z0.000000
G01 X32.226317 Y90.644653 Z0.000000
G01 X32.187457 Y90.635847 Z0.000000
G01 X32.148595 Y90.627042 Z0.000000
G01 X32.109736 Y90.618237 Z0.000000
G01 X32.070874 Y90.609431 Z0.000000
G01 X32.032012 Y90.600626 Z0.000000
G01 X31.993153 Y90.591821 Z0.000000
G01 X31.954294 Y90.583015 Z0.000000
G01 X31.915432 Y90.574210 Z0.000000
G01 X31.876570 Y90.565405 Z0.000000
G01 X31.837711 Y90.556599 Z0.000000
G01 X33.484743 Y90.249573 Z0.000000
G01 X35.131772 Y89.942546 Z0.000000
G01 X36.778804 Y89.635519 Z0.000000
G01 X38.425836 Y89.328492 Z0.000000
G01 X40.072868 Y89.021466 Z0.000000
G01 X41.719897 Y88.714439 Z0.000000
G01 X43.366929 Y88.407412 Z0.000000
G01 X45.013961 Y88.100385 Z0.000000
G01 X46.660993 Y87.793359 Z0.000000
G01 X48.308022 Y87.486332 Z0.000000
G01 X49.955054 Y87.179305 Z0.000000
G01 X51.602086 Y86.872278 Z0.000000
G01 X53.249118 Y86.565249 Z0.000000
G01 X54.896147 Y86.258222 Z0.000000
G01 X56.543179 Y85.951195 Z0.000000
G01 X58.190211 Y85.643802 Z0.000000
G00 Z18.000000

(Change tool to Default tool)

G00 Z18.000000
G00 X58.190211 Y84.867691

G01 Z0.000000 F100.0(Penetrate)
G01 X58.190211 Y84.916199 Z0.000000 F400.000000
G01 X58.190211 Y84.964705 Z0.000000
G01 X58.190211 Y85.013213 Z0.000000
G01 X58.190211 Y85.061718 Z0.000000
G01 X58.190211 Y85.110227 Z0.000000
G01 X58.190211 Y85.158732 Z0.000000
G01 X58.190211 Y85.207241 Z0.000000
G01 X58.190211 Y85.255746 Z0.000000
G01 X58.190211 Y85.304255 Z0.000000
G01 X58.190211 Y85.352760 Z0.000000
G01 X58.190211 Y85.401269 Z0.000000
G01 X58.190211 Y85.449774 Z0.000000
G01 X58.190211 Y85.498282 Z0.000000
G01 X58.190211 Y85.546788 Z0.000000
G01 X58.190211 Y85.595296 Z0.000000
G01 X58.190211 Y85.643802 Z0.000000
G01 X56.543179 Y85.950829 Z0.000000
G01 X54.896147 Y86.257855 Z0.000000
G01 X53.249118 Y86.564882 Z0.000000
G01 X51.602086 Y86.871912 Z0.000000
G01 X49.955054 Y87.178938 Z0.000000
G01 X48.308022 Y87.485965 Z0.000000
G01 X46.660993 Y87.792992 Z0.000000
G01 X45.013961 Y88.100019 Z0.000000
G01 X43.366929 Y88.407045 Z0.000000
G01 X41.719897 Y88.714072 Z0.000000
G01 X40.072868 Y89.021099 Z0.000000
G01 X38.425836 Y89.328125 Z0.000000
G01 X36.778804 Y89.635152 Z0.000000
G01 X35.131772 Y89.942179 Z0.000000
G01 X33.484743 Y90.249206 Z0.000000
G01 X31.837711 Y90.556232 Z0.000000
G01 X31.837711 Y90.504419 Z0.000000
G01 X31.837711 Y90.452603 Z0.000000
G01 X31.837711 Y90.400790 Z0.000000
G01 X31.837711 Y90.348977 Z0.000000
G01 X31.837711 Y90.297161 Z0.000000
G01 X31.837711 Y90.245348 Z0.000000
G01 X31.837711 Y90.193532 Z0.000000
G01 X31.837711 Y90.141719 Z0.000000
G01 X31.837711 Y90.089905 Z0.000000
G01 X31.837711 Y90.038089 Z0.000000
G01 X31.837711 Y89.986276 Z0.000000
G01 X31.837711 Y89.934463 Z0.000000
G01 X31.837711 Y89.882647 Z0.000000
G01 X31.837711 Y89.830834 Z0.000000
G01 X31.837711 Y89.779018 Z0.000000
G01 X31.837711 Y89.727205 Z0.000000
G01 X33.484743 Y89.423486 Z0.000000
G01 X35.131772 Y89.119766 Z0.000000
G01 X36.778804 Y88.816047 Z0.000000
G01 X38.425836 Y88.512328 Z0.000000
G01 X40.072868 Y88.208606 Z0.000000
G01 X41.719897 Y87.904887 Z0.000000
G01 X43.366929 Y87.601168 Z0.000000
G01 X45.013961 Y87.297449 Z0.000000
G01 X46.660993 Y86.993730 Z0.000000
G01 X48.308022 Y86.690011 Z0.000000
G01 X49.955054 Y86.386289 Z0.000000
G01 X51.602086 Y86.082570 Z0.000000
G01 X53.249118 Y85.778851 Z0.000000
G01 X54.896147 Y85.475129 Z0.000000
G01 X56.543179 Y85.171410 Z0.000000
G01 X58.190211 Y84.867691 Z0.000000
G00 Z18.000000

(Change tool to Default tool)

G00 Z18.000000
G00 X58.190211 Y84.867691

G01 Z0.000000 F100.0(Penetrate)
G01 X58.190211 Y84.916199 Z0.000000 F400.000000
G01 X58.190211 Y84.964705 Z0.000000
G01 X58.190211 Y85.013213 Z0.000000
G01 X58.190211 Y85.061718 Z0.000000
G01 X58.190211 Y85.110227 Z0.000000
G01 X58.190211 Y85.158732 Z0.000000
G01 X58.190211 Y85.207241 Z0.000000
G01 X58.190211 Y85.255746 Z0.000000
G01 X58.190211 Y85.304255 Z0.000000
G01 X58.190211 Y85.352760 Z0.000000
G01 X58.190211 Y85.401269 Z0.000000
G01 X58.190211 Y85.449774 Z0.000000
G01 X58.190211 Y85.498282 Z0.000000
G01 X58.190211 Y85.546788 Z0.000000
G01 X58.190211 Y85.595296 Z0.000000
G01 X58.190211 Y85.643802 Z0.000000
G01 X58.239820 Y85.655937 Z0.000000
G01 X58.289429 Y85.668073 Z0.000000
G01 X58.339038 Y85.680208 Z0.000000
G01 X58.388647 Y85.692344 Z0.000000
G01 X58.438259 Y85.704480 Z0.000000
G01 X58.487868 Y85.716615 Z0.000000
G01 X58.537477 Y85.728751 Z0.000000
G01 X58.587086 Y85.740886 Z0.000000
G01 X58.636695 Y85.753022 Z0.000000
G01 X58.686304 Y85.765157 Z0.000000
G01 X58.735913 Y85.777293 Z0.000000
G01 X58.785522 Y85.789428 Z0.000000
G01 X58.835134 Y85.801564 Z0.000000
G01 X58.884743 Y85.813700 Z0.000000
G01 X58.934352 Y85.825835 Z0.000000
G01 X58.983961 Y85.837971 Z0.000000
G01 X58.983961 Y85.790566 Z0.000000
G01 X58.983961 Y85.743161 Z0.000000
G01 X58.983961 Y85.695756 Z0.000000
G01 X58.983961 Y85.648354 Z0.000000
G01 X58.983961 Y85.600949 Z0.000000
G01 X58.983961 Y85.553544 Z0.000000
G01 X58.983961 Y85.506139 Z0.000000
G01 X58.983961 Y85.458735 Z0.000000
G01 X58.983961 Y85.411330 Z0.000000
G01 X58.983961 Y85.363925 Z0.000000
G01 X58.983961 Y85.316520 Z0.000000
G01 X58.983961 Y85.269118 Z0.000000
G01 X58.983961 Y85.221713 Z0.000000
G01 X58.983961 Y85.174308 Z0.000000
G01 X58.983961 Y85.126903 Z0.000000
G01 X58.983961 Y85.079498 Z0.000000
G01 X58.934352 Y85.066262 Z0.000000
G01 X58.884743 Y85.053026 Z0.000000
G01 X58.835134 Y85.039790 Z0.000000
G01 X58.785522 Y85.026554 Z0.000000
G01 X58.735913 Y85.013317 Z0.000000
G01 X58.686304 Y85.000081 Z0.000000
G01 X58.636695 Y84.986845 Z0.000000
G01 X58.587086 Y84.973609 Z0.000000
G01 X58.537477 Y84.960372 Z0.000000
G01 X58.487868 Y84.947136 Z0.000000
G01 X58.438259 Y84.933900 Z0.000000
G01 X58.388647 Y84.920664 Z0.000000
G01 X58.339038 Y84.907428 Z0.000000
G01 X58.289429 Y84.894191 Z0.000000
G01 X58.239820 Y84.880955 Z0.000000
G01 X58.190211 Y84.867691 Z0.000000
G00 Z18.000000

(Change tool to Default tool)

G00 Z18.000000
G00 X35.687950 Y90.624584

G01 Z0.000000 F100.0(Penetrate)
G01 X35.540051 Y90.619250 Z0.000000 F400.000000
G01 X35.392153 Y90.613916 Z0.000000
G01 X35.244254 Y90.608582 Z0.000000
G01 X35.096358 Y90.603248 Z0.000000
G01 X34.948460 Y90.597914 Z0.000000
G01 X34.800561 Y90.592580 Z0.000000
G01 X34.652663 Y90.587246 Z0.000000
G01 X34.504764 Y90.581912 Z0.000000
G01 X34.356866 Y90.576578 Z0.000000
G01 X34.208967 Y90.571244 Z0.000000
G01 X34.061071 Y90.565910 Z0.000000
G01 X33.913173 Y90.560576 Z0.000000
G01 X33.765274 Y90.555242 Z0.000000
G01 X33.617376 Y90.549908 Z0.000000
G01 X33.469480 Y90.544574 Z0.000000
G01 X33.321581 Y90.539240 Z0.000000
G01 X34.925479 Y90.245407 Z0.000000
G01 X36.529379 Y89.951574 Z0.000000
G01 X38.133276 Y89.657744 Z0.000000
G01 X39.737176 Y89.363911 Z0.000000
G01 X41.341073 Y89.070078 Z0.000000
G01 X42.944973 Y88.776248 Z0.000000
G01 X44.548873 Y88.482416 Z0.000000
G01 X46.152770 Y88.188583 Z0.000000
G01 X47.756670 Y87.894750 Z0.000000
G01 X49.360567 Y87.600920 Z0.000000
G01 X50.964467 Y87.307087 Z0.000000
G01 X52.568367 Y87.013254 Z0.000000
G01 X54.172264 Y86.719421 Z0.000000
G01 X55.776164 Y86.425591 Z0.000000
G01 X57.380061 Y86.131758 Z0.000000
G01 X58.983961 Y85.837926 Z0.000000
G01 X58.934352 Y85.825790 Z0.000000
G01 X58.884743 Y85.813654 Z0.000000
G01 X58.835134 Y85.801519 Z0.000000
G01 X58.785522 Y85.789383 Z0.000000
G01 X58.735913 Y85.777248 Z0.000000
G01 X58.686304 Y85.765112 Z0.000000
G01 X58.636695 Y85.752977 Z0.000000
G01 X58.587086 Y85.740841 Z0.000000
G01 X58.537477 Y85.728706 Z0.000000
G01 X58.487868 Y85.716570 Z0.000000
G01 X58.438259 Y85.704434 Z0.000000
G01 X58.388647 Y85.692299 Z0.000000
G01 X58.339038 Y85.680163 Z0.000000
G01 X58.289429 Y85.668028 Z0.000000
G01 X58.239820 Y85.655892 Z0.000000
G01 X58.190211 Y85.643757 Z0.000000
G01 X58.190211 Y85.595251 Z0.000000
G01 X58.190211 Y85.546743 Z0.000000
G01 X58.190211 Y85.498237 Z0.000000
G01 X58.190211 Y85.449729 Z0.000000
G01 X58.190211 Y85.401223 Z0.000000
G01 X58.190211 Y85.352715 Z0.000000
G01 X58.190211 Y85.304209 Z0.000000
G01 X58.190211 Y85.255701 Z0.000000
G01 X58.190211 Y85.207196 Z0.000000
G01 X58.190211 Y85.158687 Z0.000000
G01 X58.190211 Y85.110182 Z0.000000
G01 X58.190211 Y85.061673 Z0.000000
G01 X58.190211 Y85.013168 Z0.000000
G01 X58.190211 Y84.964659 Z0.000000
G01 X58.190211 Y84.916154 Z0.000000
G01 X58.190211 Y84.867646 Z0.000000
G01 X56.543179 Y85.171365 Z0.000000
G01 X54.896147 Y85.475084 Z0.000000
G01 X53.249118 Y85.778803 Z0.000000
G01 X51.602086 Y86.082525 Z0.000000
G01 X49.955054 Y86.386244 Z0.000000
G01 X48.308022 Y86.689963 Z0.000000
G01 X46.660993 Y86.993682 Z0.000000
G01 X45.013961 Y87.297401 Z0.000000
G01 X43.366929 Y87.601120 Z0.000000
G01 X41.719897 Y87.904842 Z0.000000
G01 X40.072868 Y88.208561 Z0.000000
G01 X38.425836 Y88.512280 Z0.000000
G01 X36.778804 Y88.815999 Z0.000000
G01 X35.131772 Y89.119721 Z0.000000
G01 X33.484743 Y89.423440 Z0.000000
G01 X31.837711 Y89.727159 Z0.000000
G01 X31.837711 Y89.774564 Z0.000000
G01 X31.837711 Y89.821969 Z0.000000
G01 X31.837711 Y89.869374 Z0.000000
G01 X31.837711 Y89.916779 Z0.000000
G01 X31.837711 Y89.964181 Z0.000000
G01 X31.837711 Y90.011586 Z0.000000
G01 X31.837711 Y90.058991 Z0.000000
G01 X31.837711 Y90.106396 Z0.000000
G01 X31.837711 Y90.153800 Z0.000000
G01 X31.837711 Y90.201205 Z0.000000
G01 X31.837711 Y90.248610 Z0.000000
G01 X31.837711 Y90.296015 Z0.000000
G01 X31.837711 Y90.343417 Z0.000000
G01 X31.837711 Y90.390822 Z0.000000
G01 X31.837711 Y90.438227 Z0.000000
G01 X31.837711 Y90.485632 Z0.000000
G01 X31.514078 Y90.473976 Z0.000000
G01 X31.190445 Y90.462320 Z0.000000
G01 X30.866813 Y90.450664 Z0.000000
G01 X30.543183 Y90.439009 Z0.000000
G01 X30.219550 Y90.427353 Z0.000000
G01 X29.895917 Y90.415697 Z0.000000
G01 X29.572285 Y90.404041 Z0.000000
G01 X29.248652 Y90.392385 Z0.000000
G01 X28.925019 Y90.380730 Z0.000000
G01 X28.601387 Y90.369074 Z0.000000
G01 X28.277754 Y90.357418 Z0.000000
G01 X27.954124 Y90.345762 Z0.000000
G01 X27.630491 Y90.334107 Z0.000000
G01 X27.306859 Y90.322451 Z0.000000
G01 X26.983226 Y90.310795 Z0.000000
G01 X26.659593 Y90.299139 Z0.000000
G01 X28.843096 Y89.894167 Z0.000000
G01 X31.026595 Y89.489198 Z0.000000
G01 X33.210098 Y89.084226 Z0.000000
G01 X35.393598 Y88.679257 Z0.000000
G01 X37.577100 Y88.274285 Z0.000000
G01 X39.760603 Y87.869313 Z0.000000
G01 X41.944103 Y87.464344 Z0.000000
G01 X44.127605 Y87.059372 Z0.000000
G01 X46.311108 Y86.654400 Z0.000000
G01 X48.494610 Y86.249431 Z0.000000
G01 X50.678110 Y85.844459 Z0.000000
G01 X52.861612 Y85.439490 Z0.000000
G01 X55.045115 Y85.034518 Z0.000000
G01 X57.228618 Y84.629546 Z0.000000
G01 X59.412117 Y84.224577 Z0.000000
G01 X61.595620 Y83.819605 Z0.000000
G01 X62.255458 Y83.853607 Z0.000000
G01 X62.915299 Y83.887612 Z0.000000
G01 X63.575138 Y83.921614 Z0.000000
G01 X64.234976 Y83.955616 Z0.000000
G01 X64.894815 Y83.989618 Z0.000000
G01 X65.554656 Y84.023623 Z0.000000
G01 X66.214494 Y84.057625 Z0.000000
G01 X66.874333 Y84.091628 Z0.000000
G01 X67.534171 Y84.125630 Z0.000000
G01 X68.194012 Y84.159635 Z0.000000
G01 X68.853851 Y84.193637 Z0.000000
G01 X69.513689 Y84.227642 Z0.000000
G01 X70.173527 Y84.261644 Z0.000000
G01 X70.833368 Y84.295646 Z0.000000
G01 X71.493207 Y84.329651 Z0.000000
G01 X72.153045 Y84.363653 Z0.000000
G01 X71.634284 Y84.457325 Z0.000000
G01 X71.115520 Y84.550998 Z0.000000
G01 X70.596759 Y84.644670 Z0.000000
G01 X70.077995 Y84.738343 Z0.000000
G01 X69.559234 Y84.832012 Z0.000000
G01 X69.040470 Y84.925685 Z0.000000
G01 X68.521709 Y85.019357 Z0.000000
G01 X68.002945 Y85.113029 Z0.000000
G01 X67.484184 Y85.206702 Z0.000000
G01 X66.965420 Y85.300374 Z0.000000
G01 X66.446659 Y85.394046 Z0.000000
G01 X65.927895 Y85.487719 Z0.000000
G01 X65.409134 Y85.581391 Z0.000000
G01 X64.890370 Y85.675064 Z0.000000
G01 X64.371608 Y85.768736 Z0.000000
G01 X63.852844 Y85.862408 Z0.000000
G01 X63.841810 Y85.820972 Z0.000000
G01 X63.830746 Y85.779551 Z0.000000
G01 X63.819683 Y85.738137 Z0.000000
G01 X63.808620 Y85.696730 Z0.000000
G01 X63.797557 Y85.655319 Z0.000000
G01 X63.786522 Y85.613903 Z0.000000
G01 X63.775487 Y85.572473 Z0.000000
G01 X63.764481 Y85.531029 Z0.000000
G01 X63.753502 Y85.489559 Z0.000000
G01 X63.742580 Y85.448064 Z0.000000
G01 X63.731686 Y85.406535 Z0.000000
G01 X63.720849 Y85.364963 Z0.000000
G01 X63.710068 Y85.323353 Z0.000000
G01 X63.699344 Y85.281688 Z0.000000
G01 X63.688676 Y85.239973 Z0.000000
G01 X63.678092 Y85.198196 Z0.000000
G01 X63.630792 Y85.219278 Z0.000000
G01 X63.583492 Y85.240360 Z0.000000
G01 X63.536188 Y85.261442 Z0.000000
G01 X63.488888 Y85.282524 Z0.000000
G01 X63.441587 Y85.303606 Z0.000000
G01 X63.394287 Y85.324688 Z0.000000
G01 X63.346984 Y85.345770 Z0.000000
G01 X63.299683 Y85.366852 Z0.000000
G01 X63.252383 Y85.387934 Z0.000000
G01 X63.205082 Y85.409016 Z0.000000
G01 X63.157779 Y85.430098 Z0.000000
G01 X63.110479 Y85.451180 Z0.000000
G01 X63.063178 Y85.472262 Z0.000000
G01 X63.015878 Y85.493344 Z0.000000
G01 X62.968575 Y85.514426 Z0.000000
G01 X62.921274 Y85.535508 Z0.000000
G01 X61.217744 Y85.848839 Z0.000000
G01 X59.514214 Y86.162171 Z0.000000
G01 X57.810681 Y86.475502 Z0.000000
G01 X56.107151 Y86.788834 Z0.000000
G01 X54.403621 Y87.102163 Z0.000000
G01 X52.700088 Y87.415494 Z0.000000
G01 X50.996558 Y87.728826 Z0.000000
G01 X49.293028 Y88.042157 Z0.000000
G01 X47.589498 Y88.355489 Z0.000000
G01 X45.885968 Y88.668820 Z0.000000
G01 X44.182435 Y88.982152 Z0.000000
G01 X42.478905 Y89.295484 Z0.000000
G01 X40.775375 Y89.608815 Z0.000000
G01 X39.071842 Y89.922147 Z0.000000
G01 X37.368312 Y90.235478 Z0.000000
G01 X35.664782 Y90.548810 Z0.000000
G01 X35.666193 Y90.553608 Z0.000000
G01 X35.667604 Y90.558377 Z0.000000
G01 X35.669016 Y90.563119 Z0.000000
G01 X35.670427 Y90.567832 Z0.000000
G01 X35.671838 Y90.572545 Z0.000000
G01 X35.673249 Y90.577230 Z0.000000
G01 X35.674660 Y90.581915 Z0.000000
G01 X35.676071 Y90.586600 Z0.000000
G01 X35.677482 Y90.591284 Z0.000000
G01 X35.678893 Y90.595969 Z0.000000
G01 X35.680304 Y90.600654 Z0.000000
G01 X35.681716 Y90.605367 Z0.000000
G01 X35.683127 Y90.610080 Z0.000000
G01 X35.684538 Y90.614822 Z0.000000
G01 X35.685949 Y90.619591 Z0.000000
G01 X35.687360 Y90.624361 Z0.000000
G01 X35.687360 Y90.624361 Z0.000000
G01 X35.687360 Y90.624361 Z0.000000
G01 X35.687363 Y90.624361 Z0.000000
G01 X35.687363 Y90.624361 Z0.000000
G01 X35.687363 Y90.624361 Z0.000000
G01 X35.687363 Y90.624361 Z0.000000
G01 X35.687366 Y90.624361 Z0.000000
G01 X35.687366 Y90.624361 Z0.000000
G01 X35.687366 Y90.624361 Z0.000000
G01 X35.687366 Y90.624361 Z0.000000
G01 X35.687366 Y90.624361 Z0.000000
G01 X35.687366 Y90.624361 Z0.000000
G01 X35.687369 Y90.624361 Z0.000000
G01 X35.687369 Y90.624361 Z0.000000
G01 X35.687369 Y90.624361 Z0.000000
G01 X35.687950 Y90.624584 Z0.000000
G00 Z18.000000

(Change tool to Default tool)

G00 Z18.000000
G00 X60.514136 Y82.168938

G01 Z0.000000 F100.0(Penetrate)
G01 X58.398217 Y82.585495 Z0.000000 F400.000000
G01 X56.282298 Y83.002052 Z0.000000
G01 X54.166379 Y83.418612 Z0.000000
G01 X52.050463 Y83.835169 Z0.000000
G01 X49.934545 Y84.251727 Z0.000000
G01 X47.818626 Y84.668284 Z0.000000
G01 X45.702707 Y85.084844 Z0.000000
G01 X43.586788 Y85.501401 Z0.000000
G01 X41.470870 Y85.917958 Z0.000000
G01 X39.354951 Y86.334515 Z0.000000
G01 X37.239032 Y86.751075 Z0.000000
G01 X35.123113 Y87.167633 Z0.000000
G01 X33.007197 Y87.584190 Z0.000000
G01 X30.891278 Y88.000747 Z0.000000
G01 X28.775360 Y88.417307 Z0.000000
G01 X26.659441 Y88.833864 Z0.000000
G01 X26.659441 Y88.925473 Z0.000000
G01 X26.659441 Y89.017080 Z0.000000
G01 X26.659441 Y89.108689 Z0.000000
G01 X26.659441 Y89.200296 Z0.000000
G01 X26.659441 Y89.291905 Z0.000000
G01 X26.659441 Y89.383514 Z0.000000
G01 X26.659441 Y89.475121 Z0.000000
G01 X26.659441 Y89.566730 Z0.000000
G01 X26.659441 Y89.658340 Z0.000000
G01 X26.659441 Y89.749946 Z0.000000
G01 X26.659441 Y89.841555 Z0.000000
G01 X26.659441 Y89.933162 Z0.000000
G01 X26.659441 Y90.024771 Z0.000000
G01 X26.659441 Y90.116381 Z0.000000
G01 X26.659441 Y90.207987 Z0.000000
G01 X26.659441 Y90.299596 Z0.000000
G01 X28.842963 Y89.894616 Z0.000000
G01 X31.026485 Y89.489633 Z0.000000
G01 X33.210008 Y89.084652 Z0.000000
G01 X35.393527 Y88.679669 Z0.000000
G01 X37.577049 Y88.274689 Z0.000000
G01 X39.760572 Y87.869708 Z0.000000
G01 X41.944094 Y87.464725 Z0.000000
G01 X44.127616 Y87.059745 Z0.000000
G01 X46.311139 Y86.654764 Z0.000000
G01 X48.494661 Y86.249781 Z0.000000
G01 X50.678183 Y85.844800 Z0.000000
G01 X52.861706 Y85.439817 Z0.000000
G01 X55.045225 Y85.034837 Z0.000000
G01 X57.228747 Y84.629856 Z0.000000
G01 X59.412270 Y84.224873 Z0.000000
G01 X61.595792 Y83.819893 Z0.000000
G01 X61.528188 Y83.816421 Z0.000000
G01 X61.460585 Y83.812950 Z0.000000
G01 X61.392981 Y83.809479 Z0.000000
G01 X61.325378 Y83.806007 Z0.000000
G01 X61.257774 Y83.802536 Z0.000000
G01 X61.190171 Y83.799065 Z0.000000
G01 X61.122567 Y83.795593 Z0.000000
G01 X61.054964 Y83.792122 Z0.000000
G01 X60.987360 Y83.788651 Z0.000000
G01 X60.919757 Y83.785179 Z0.000000
G01 X60.852153 Y83.781708 Z0.000000
G01 X60.784550 Y83.778237 Z0.000000
G01 X60.716946 Y83.774765 Z0.000000
G01 X60.649343 Y83.771294 Z0.000000
G01 X60.581739 Y83.767823 Z0.000000
G01 X60.514136 Y83.764351 Z0.000000
G01 X60.514136 Y83.664651 Z0.000000
G01 X60.514136 Y83.564947 Z0.000000
G01 X60.514136 Y83.465247 Z0.000000
G01 X60.514136 Y83.365546 Z0.000000
G01 X60.514136 Y83.265845 Z0.000000
G01 X60.514136 Y83.166142 Z0.000000
G01 X60.514136 Y83.066441 Z0.000000
G01 X60.514136 Y82.966741 Z0.000000
G01 X60.514136 Y82.867037 Z0.000000
G01 X60.514136 Y82.767331 Z0.000000
G01 X60.514136 Y82.667627 Z0.000000
G01 X60.514136 Y82.567924 Z0.000000
G01 X60.514136 Y82.468220 Z0.000000
G01 X60.514136 Y82.368514 Z0.000000
G01 X60.514136 Y82.268811 Z0.000000
G01 X60.514136 Y82.168938 Z0.000000
G00 Z18.000000

(Change tool to Default tool)

G00 Z18.000000
G00 X87.002786 Y137.790973

G01 Z0.000000 F100.0(Penetrate)
G01 X86.910832 Y137.780644 Z0.000000 F400.000000
G01 X86.818311 Y137.765488 Z0.000000
G01 X86.726287 Y137.745676 Z0.000000
G01 X86.635823 Y137.721405 Z0.000000
G01 X86.547984 Y137.692856 Z0.000000
G01 X86.463837 Y137.660217 Z0.000000
G01 X86.384445 Y137.623672 Z0.000000
G01 X86.310875 Y137.583401 Z0.000000
G01 X86.244192 Y137.539592 Z0.000000
G01 X86.185459 Y137.492430 Z0.000000
G01 X86.135740 Y137.442098 Z0.000000
G01 X86.096102 Y137.388784 Z0.000000
G01 X86.067608 Y137.332667 Z0.000000
G01 X86.051324 Y137.273933 Z0.000000
G01 X86.048333 Y137.212770 Z0.000000
G01 X86.059678 Y137.149361 Z0.000000
G01 X87.089659 Y133.948179 Z0.000000
G01 X88.119638 Y130.746994 Z0.000000
G01 X89.149619 Y127.545812 Z0.000000
G01 X90.179597 Y124.344631 Z0.000000
G01 X91.209579 Y121.143446 Z0.000000
G01 X92.239560 Y117.942264 Z0.000000
G01 X93.269539 Y114.741080 Z0.000000
G01 X94.299520 Y111.539898 Z0.000000
G01 X95.329501 Y108.338716 Z0.000000
G01 X96.359480 Y105.137531 Z0.000000
G01 X97.389461 Y101.936350 Z0.000000
G01 X98.419439 Y98.735165 Z0.000000
G01 X99.449421 Y95.533983 Z0.000000
G01 X100.479402 Y92.332802 Z0.000000
G01 X101.509380 Y89.131617 Z0.000000
G01 X102.539362 Y85.930435 Z0.000000
G01 X102.804422 Y85.944377 Z0.000000
G01 X103.075844 Y85.958911 Z0.000000
G01 X103.352879 Y85.974039 Z0.000000
G01 X103.634773 Y85.989815 Z0.000000
G01 X103.920780 Y86.006212 Z0.000000
G01 X104.210143 Y86.023286 Z0.000000
G01 X104.502113 Y86.041038 Z0.000000
G01 X104.795940 Y86.059495 Z0.000000
G01 X105.090874 Y86.078658 Z0.000000
G01 X105.386160 Y86.098555 Z0.000000
G01 X105.681051 Y86.119185 Z0.000000
G01 X105.974794 Y86.140578 Z0.000000
G01 X106.266637 Y86.162761 Z0.000000
G01 X106.555833 Y86.185733 Z0.000000
G01 X106.841625 Y86.209525 Z0.000000
G01 X107.123269 Y86.234163 Z0.000000
G01 X105.906013 Y89.445028 Z0.000000
G01 X104.688758 Y92.655890 Z0.000000
G01 X103.471502 Y95.866754 Z0.000000
G01 X102.254244 Y99.077616 Z0.000000
G01 X101.036988 Y102.288481 Z0.000000
G01 X99.819733 Y105.499343 Z0.000000
G01 X98.602477 Y108.710205 Z0.000000
G01 X97.385222 Y111.921070 Z0.000000
G01 X96.167966 Y115.131932 Z0.000000
G01 X94.950711 Y118.342797 Z0.000000
G01 X93.733455 Y121.553659 Z0.000000
G01 X92.516200 Y124.764524 Z0.000000
G01 X91.298944 Y127.975388 Z0.000000
G01 X90.081689 Y131.186250 Z0.000000
G01 X88.864433 Y134.397115 Z0.000000
G01 X87.647178 Y137.607977 Z0.000000
G01 X87.629116 Y137.636087 Z0.000000
G01 X87.607018 Y137.661769 Z0.000000
G01 X87.581110 Y137.685080 Z0.000000
G01 X87.551637 Y137.706078 Z0.000000
G01 X87.518823 Y137.724789 Z0.000000
G01 X87.482896 Y137.741243 Z0.000000
G01 X87.444082 Y137.755495 Z0.000000
G01 X87.402613 Y137.767574 Z0.000000
G01 X87.358716 Y137.777536 Z0.000000
G01 X87.312626 Y137.785410 Z0.000000
G01 X87.264566 Y137.791224 Z0.000000
G01 X87.214768 Y137.795034 Z0.000000
G01 X87.163463 Y137.797010 Z0.000000
G01 X87.110880 Y137.796928 Z0.000000
G01 X87.057246 Y137.794952 Z0.000000
G01 X87.002791 Y137.791142 Z0.000000
G01 X87.002791 Y137.791142 Z0.000000
G01 X87.002791 Y137.791145 Z0.000000
G01 X87.002791 Y137.791145 Z0.000000
G01 X87.002791 Y137.791145 Z0.000000
G01 X87.002791 Y137.791148 Z0.000000
G01 X87.002791 Y137.791148 Z0.000000
G01 X87.002791 Y137.791151 Z0.000000
G01 X87.002786 Y137.790973 Z0.000000
G00 Z18.000000

(Change tool to Default tool)

G00 Z18.000000
G00 X93.612408 Y152.512830

G01 Z0.000000 F100.0(Penetrate)
G01 X91.559887 Y149.617641 Z0.000000 F400.000000
G01 X89.507370 Y146.722451 Z0.000000
G01 X87.454852 Y143.827262 Z0.000000
G01 X85.402332 Y140.932072 Z0.000000
G01 X83.349811 Y138.036882 Z0.000000
G01 X81.297294 Y135.141694 Z0.000000
G01 X79.244776 Y132.246506 Z0.000000
G01 X77.192256 Y129.351315 Z0.000000
G01 X75.139735 Y126.456127 Z0.000000
G01 X73.087218 Y123.560936 Z0.000000
G01 X71.034700 Y120.665748 Z0.000000
G01 X68.982180 Y117.770557 Z0.000000
G01 X66.929659 Y114.875369 Z0.000000
G01 X64.877142 Y111.980179 Z0.000000
G01 X62.824621 Y109.084991 Z0.000000
G01 X60.772104 Y106.189800 Z0.000000
G01 X60.875307 Y106.148107 Z0.000000
G01 X60.978369 Y106.105940 Z0.000000
G01 X61.081290 Y106.063302 Z0.000000
G01 X61.184066 Y106.020196 Z0.000000
G01 X61.286699 Y105.976612 Z0.000000
G01 X61.389191 Y105.932560 Z0.000000
G01 X61.491533 Y105.888034 Z0.000000
G01 X61.593732 Y105.843036 Z0.000000
G01 X61.695781 Y105.797567 Z0.000000
G01 X61.797682 Y105.751624 Z0.000000
G01 X61.899432 Y105.705210 Z0.000000
G01 X62.001032 Y105.658325 Z0.000000
G01 X62.102482 Y105.610965 Z0.000000
G01 X62.203778 Y105.563134 Z0.000000
G01 X62.304918 Y105.514832 Z0.000000
G01 X62.405905 Y105.466055 Z0.000000
G01 X62.433196 Y105.452904 Z0.000000
G01 X62.460515 Y105.439950 Z0.000000
G01 X62.487834 Y105.427193 Z0.000000
G01 X62.515153 Y105.414606 Z0.000000
G01 X62.542501 Y105.402160 Z0.000000
G01 X62.569848 Y105.389827 Z0.000000
G01 X62.597195 Y105.377607 Z0.000000
G01 X62.624571 Y105.365443 Z0.000000
G01 X62.651947 Y105.353364 Z0.000000
G01 X62.679322 Y105.341313 Z0.000000
G01 X62.706698 Y105.329290 Z0.000000
G01 X62.734073 Y105.317268 Z0.000000
G01 X62.761449 Y105.305217 Z0.000000
G01 X62.788824 Y105.293138 Z0.000000
G01 X62.816200 Y105.280974 Z0.000000
G01 X62.843575 Y105.268754 Z0.000000
G01 X64.797806 Y108.145098 Z0.000000
G01 X66.752037 Y111.021444 Z0.000000
G01 X68.706268 Y113.897788 Z0.000000
G01 X70.660496 Y116.774132 Z0.000000
G01 X72.614727 Y119.650476 Z0.000000
G01 X74.568958 Y122.526823 Z0.000000
G01 X76.523189 Y125.403167 Z0.000000
G01 X78.477419 Y128.279511 Z0.000000
G01 X80.431650 Y131.155855 Z0.000000
G01 X82.385881 Y134.032199 Z0.000000
G01 X84.340112 Y136.908546 Z0.000000
G01 X86.294340 Y139.784890 Z0.000000
G01 X88.248571 Y142.661234 Z0.000000
G01 X90.202802 Y145.537579 Z0.000000
G01 X92.157033 Y148.413924 Z0.000000
G01 X94.111264 Y151.290268 Z0.000000
G01 X94.080086 Y151.366681 Z0.000000
G01 X94.048907 Y151.443093 Z0.000000
G01 X94.017729 Y151.519505 Z0.000000
G01 X93.986550 Y151.595917 Z0.000000
G01 X93.955372 Y151.672330 Z0.000000
G01 X93.924195 Y151.748742 Z0.000000
G01 X93.893015 Y151.825154 Z0.000000
G01 X93.861838 Y151.901566 Z0.000000
G01 X93.830661 Y151.977979 Z0.000000
G01 X93.799481 Y152.054391 Z0.000000
G01 X93.768304 Y152.130803 Z0.000000
G01 X93.737127 Y152.207215 Z0.000000
G01 X93.705947 Y152.283627 Z0.000000
G01 X93.674770 Y152.360039 Z0.000000
G01 X93.643590 Y152.436452 Z0.000000
G01 X93.612408 Y152.512830 Z0.000000
G00 Z18.000000

(Change tool to Default tool)

G00 Z18.000000
G00 X94.111258 Y151.290235

G01 Z0.000000 F100.0(Penetrate)
G01 X92.154857 Y148.414854 Z0.000000 F400.000000
G01 X90.198456 Y145.539474 Z0.000000
G01 X88.242054 Y142.664094 Z0.000000
G01 X86.285656 Y139.788714 Z0.000000
G01 X84.329255 Y136.913332 Z0.000000
G01 X82.372854 Y134.037954 Z0.000000
G01 X80.416453 Y131.162572 Z0.000000
G01 X78.460052 Y128.287193 Z0.000000
G01 X76.503650 Y125.411814 Z0.000000
G01 X74.547249 Y122.536433 Z0.000000
G01 X72.590848 Y119.661054 Z0.000000
G01 X70.634447 Y116.785675 Z0.000000
G01 X68.678046 Y113.910294 Z0.000000
G01 X66.721645 Y111.034915 Z0.000000
G01 X64.765244 Y108.159533 Z0.000000
G01 X62.808842 Y105.284154 Z0.000000
G01 X62.966336 Y105.214042 Z0.000000
G01 X63.124031 Y105.145984 Z0.000000
G01 X63.281951 Y105.080060 Z0.000000
G01 X63.440111 Y105.016351 Z0.000000
G01 X63.598531 Y104.954937 Z0.000000
G01 X63.757230 Y104.895896 Z0.000000
G01 X63.916229 Y104.839307 Z0.000000
G01 X64.075543 Y104.785250 Z0.000000
G01 X64.235193 Y104.733804 Z0.000000
G01 X64.395197 Y104.685050 Z0.000000
G01 X64.555575 Y104.639065 Z0.000000
G01 X64.716346 Y104.595930 Z0.000000
G01 X64.877526 Y104.555725 Z0.000000
G01 X65.039137 Y104.518528 Z0.000000
G01 X65.201198 Y104.484416 Z0.000000
G01 X65.363727 Y104.453473 Z0.000000
G01 X66.696324 Y106.375457 Z0.000000
G01 X68.028921 Y108.297441 Z0.000000
G01 X69.361517 Y110.219425 Z0.000000
G01 X70.694117 Y112.141412 Z0.000000
G01 X72.026714 Y114.063396 Z0.000000
G01 X73.359311 Y115.985380 Z0.000000
G01 X74.691908 Y117.907365 Z0.000000
G01 X76.024505 Y119.829349 Z0.000000
G01 X77.357102 Y121.751333 Z0.000000
G01 X78.689699 Y123.673317 Z0.000000
G01 X80.022298 Y125.595301 Z0.000000
G01 X81.354895 Y127.517285 Z0.000000
G01 X82.687492 Y129.439269 Z0.000000
G01 X84.020092 Y131.361254 Z0.000000
G01 X85.352689 Y133.283238 Z0.000000
G01 X86.685286 Y135.205222 Z0.000000
G01 X86.646184 Y135.326730 Z0.000000
G01 X86.607082 Y135.448238 Z0.000000
G01 X86.567980 Y135.569746 Z0.000000
G01 X86.528878 Y135.691254 Z0.000000
G01 X86.489776 Y135.812765 Z0.000000
G01 X86.450674 Y135.934272 Z0.000000
G01 X86.411572 Y136.055780 Z0.000000
G01 X86.372470 Y136.177288 Z0.000000
G01 X86.333369 Y136.298796 Z0.000000
G01 X86.294267 Y136.420304 Z0.000000
G01 X86.255165 Y136.541815 Z0.000000
G01 X86.216063 Y136.663323 Z0.000000
G01 X86.176961 Y136.784831 Z0.000000
G01 X86.137859 Y136.906339 Z0.000000
G01 X86.098757 Y137.027850 Z0.000000
G01 X86.059655 Y137.149358 Z0.000000
G01 X86.048310 Y137.212767 Z0.000000
G01 X86.051330 Y137.273931 Z0.000000
G01 X86.067614 Y137.332664 Z0.000000
G01 X86.096104 Y137.388781 Z0.000000
G01 X86.135742 Y137.442096 Z0.000000
G01 X86.185462 Y137.492427 Z0.000000
G01 X86.244195 Y137.539589 Z0.000000
G01 X86.310878 Y137.583399 Z0.000000
G01 X86.384448 Y137.623669 Z0.000000
G01 X86.463840 Y137.660214 Z0.000000
G01 X86.547987 Y137.692853 Z0.000000
G01 X86.635826 Y137.721400 Z0.000000
G01 X86.726290 Y137.745671 Z0.000000
G01 X86.818314 Y137.765483 Z0.000000
G01 X86.910835 Y137.780638 Z0.000000
G01 X87.002788 Y137.790967 Z0.000000
G01 X87.057240 Y137.794777 Z0.000000
G01 X87.110877 Y137.796753 Z0.000000
G01 X87.163460 Y137.796835 Z0.000000
G01 X87.214766 Y137.794859 Z0.000000
G01 X87.264564 Y137.791049 Z0.000000
G01 X87.312623 Y137.785235 Z0.000000
G01 X87.358713 Y137.777361 Z0.000000
G01 X87.402610 Y137.767399 Z0.000000
G01 X87.444080 Y137.755320 Z0.000000
G01 X87.482894 Y137.741068 Z0.000000
G01 X87.518820 Y137.724614 Z0.000000
G01 X87.551634 Y137.705903 Z0.000000
G01 X87.581107 Y137.684905 Z0.000000
G01 X87.607015 Y137.661594 Z0.000000
G01 X87.629113 Y137.635912 Z0.000000
G01 X87.647175 Y137.607802 Z0.000000
G01 X87.662697 Y137.566770 Z0.000000
G01 X87.678248 Y137.525741 Z0.000000
G01 X87.693770 Y137.484708 Z0.000000
G01 X87.709292 Y137.443676 Z0.000000
G01 X87.724843 Y137.402646 Z0.000000
G01 X87.740365 Y137.361614 Z0.000000
G01 X87.755915 Y137.320585 Z0.000000
G01 X87.771438 Y137.279552 Z0.000000
G01 X87.786960 Y137.238523 Z0.000000
G01 X87.802510 Y137.197491 Z0.000000
G01 X87.818032 Y137.156461 Z0.000000
G01 X87.833555 Y137.115429 Z0.000000
G01 X87.849105 Y137.074399 Z0.000000
G01 X87.864627 Y137.033367 Z0.000000
G01 X87.880178 Y136.992338 Z0.000000
G01 X87.895700 Y136.951305 Z0.000000
G01 X88.514921 Y137.844378 Z0.000000
G01 X89.134142 Y138.737450 Z0.000000
G01 X89.753363 Y139.630523 Z0.000000
G01 X90.372584 Y140.523594 Z0.000000
G01 X90.991808 Y141.416666 Z0.000000
G01 X91.611029 Y142.309738 Z0.000000
G01 X92.230250 Y143.202810 Z0.000000
G01 X92.849471 Y144.095882 Z0.000000
G01 X93.468691 Y144.988954 Z0.000000
G01 X94.087912 Y145.882026 Z0.000000
G01 X94.707136 Y146.775098 Z0.000000
G01 X95.326357 Y147.668171 Z0.000000
G01 X95.945578 Y148.561242 Z0.000000
G01 X96.564799 Y149.454315 Z0.000000
G01 X97.184023 Y150.347387 Z0.000000
G01 X97.803244 Y151.240459 Z0.000000
G01 X97.572490 Y151.243560 Z0.000000
G01 X97.341737 Y151.246662 Z0.000000
G01 X97.110987 Y151.249764 Z0.000000
G01 X96.880233 Y151.252865 Z0.000000
G01 X96.649480 Y151.255967 Z0.000000
G01 X96.418727 Y151.259068 Z0.000000
G01 X96.187976 Y151.262170 Z0.000000
G01 X95.957223 Y151.265272 Z0.000000
G01 X95.726469 Y151.268371 Z0.000000
G01 X95.495719 Y151.271469 Z0.000000
G01 X95.264965 Y151.274568 Z0.000000
G01 X95.034212 Y151.277670 Z0.000000
G01 X94.803461 Y151.280769 Z0.000000
G01 X94.572708 Y151.283870 Z0.000000
G01 X94.341958 Y151.286969 Z0.000000
G01 X94.111258 Y151.290235 Z0.000000
G00 Z18.000000

(Change tool to Default tool)

G00 Z18.000000
G00 X94.111142 Y151.290503

G01 Z0.000000 F100.0(Penetrate)
G01 X94.079962 Y151.366897 Z0.000000 F400.000000
G01 X94.048780 Y151.443292 Z0.000000
G01 X94.017600 Y151.519686 Z0.000000
G01 X93.986417 Y151.596081 Z0.000000
G01 X93.955237 Y151.672475 Z0.000000
G01 X93.924054 Y151.748870 Z0.000000
G01 X93.892874 Y151.825264 Z0.000000
G01 X93.861692 Y151.901659 Z0.000000
G01 X93.830512 Y151.978053 Z0.000000
G01 X93.799329 Y152.054448 Z0.000000
G01 X93.768149 Y152.130842 Z0.000000
G01 X93.736966 Y152.207237 Z0.000000
G01 X93.705786 Y152.283632 Z0.000000
G01 X93.674604 Y152.360026 Z0.000000
G01 X93.643424 Y152.436421 Z0.000000
G01 X93.612241 Y152.512815 Z0.000000
G01 X93.830856 Y152.511828 Z0.000000
G01 X94.049474 Y152.510840 Z0.000000
G01 X94.268089 Y152.509852 Z0.000000
G01 X94.486707 Y152.508864 Z0.000000
G01 X94.705322 Y152.507876 Z0.000000
G01 X94.923937 Y152.506889 Z0.000000
G01 X95.142554 Y152.505901 Z0.000000
G01 X95.361169 Y152.504913 Z0.000000
G01 X95.579784 Y152.503925 Z0.000000
G01 X95.798402 Y152.502938 Z0.000000
G01 X96.017017 Y152.501950 Z0.000000
G01 X96.235632 Y152.500962 Z0.000000
G01 X96.454247 Y152.499974 Z0.000000
G01 X96.672865 Y152.498986 Z0.000000
G01 X96.891480 Y152.497999 Z0.000000
G01 X97.110095 Y152.497011 Z0.000000
G01 X97.153405 Y152.418490 Z0.000000
G01 X97.196712 Y152.339969 Z0.000000
G01 X97.240021 Y152.261448 Z0.000000
G01 X97.283328 Y152.182927 Z0.000000
G01 X97.326638 Y152.104406 Z0.000000
G01 X97.369945 Y152.025885 Z0.000000
G01 X97.413255 Y151.947363 Z0.000000
G01 X97.456562 Y151.868842 Z0.000000
G01 X97.499869 Y151.790321 Z0.000000
G01 X97.543179 Y151.711800 Z0.000000
G01 X97.586486 Y151.633279 Z0.000000
G01 X97.629796 Y151.554758 Z0.000000
G01 X97.673103 Y151.476237 Z0.000000
G01 X97.716410 Y151.397716 Z0.000000
G01 X97.759720 Y151.319195 Z0.000000
G01 X97.803027 Y151.240674 Z0.000000
G01 X97.572284 Y151.243793 Z0.000000
G01 X97.341542 Y151.246911 Z0.000000
G01 X97.110798 Y151.250030 Z0.000000
G01 X96.880055 Y151.253148 Z0.000000
G01 X96.649313 Y151.256267 Z0.000000
G01 X96.418571 Y151.259385 Z0.000000
G01 X96.187826 Y151.262504 Z0.000000
G01 X95.957084 Y151.265623 Z0.000000
G01 X95.726342 Y151.268741 Z0.000000
G01 X95.495600 Y151.271860 Z0.000000
G01 X95.264855 Y151.274978 Z0.000000
G01 X95.034113 Y151.278097 Z0.000000
G01 X94.803371 Y151.281215 Z0.000000
G01 X94.572629 Y151.284334 Z0.000000
G01 X94.341884 Y151.287452 Z0.000000
G01 X94.111142 Y151.290503 Z0.000000
G00 Z18.000000

(Change tool to Default tool)

G00 Z18.000000
G00 X137.349006 Y125.547851

G01 Z0.000000 F100.0(Penetrate)
G01 X137.368818 Y125.516160 Z0.000000 F400.000000
G01 X137.384200 Y125.482599 Z0.000000
G01 X137.395206 Y125.447445 Z0.000000
G01 X137.401951 Y125.410993 Z0.000000
G01 X137.404491 Y125.373528 Z0.000000
G01 X137.402798 Y125.335338 Z0.000000
G01 X137.397210 Y125.296707 Z0.000000
G01 X137.387699 Y125.257924 Z0.000000
G01 X137.374322 Y125.219277 Z0.000000
G01 X137.357191 Y125.181053 Z0.000000
G01 X137.336363 Y125.143537 Z0.000000
G01 X137.311951 Y125.107020 Z0.000000
G01 X137.284011 Y125.071785 Z0.000000
G01 X137.252650 Y125.038121 Z0.000000
G01 X137.217942 Y125.006315 Z0.000000
G01 X137.179978 Y124.976653 Z0.000000
G01 X137.139812 Y124.950040 Z0.000000
G01 X137.098644 Y124.927208 Z0.000000
G01 X137.056777 Y124.908130 Z0.000000
G01 X137.014503 Y124.892805 Z0.000000
G01 X136.972127 Y124.881206 Z0.000000
G01 X136.929946 Y124.873332 Z0.000000
G01 X136.888259 Y124.869183 Z0.000000
G01 X136.847368 Y124.868618 Z0.000000
G01 X136.807569 Y124.871892 Z0.000000
G01 X136.769158 Y124.878835 Z0.000000
G01 X136.732444 Y124.889446 Z0.000000
G01 X136.697717 Y124.903727 Z0.000000
G01 X136.665281 Y124.921676 Z0.000000
G01 X136.635433 Y124.943266 Z0.000000
G01 X136.608481 Y124.968497 Z0.000000
G01 X136.584718 Y124.997346 Z0.000000
G01 X136.564906 Y125.029036 Z0.000000
G01 X136.549524 Y125.062598 Z0.000000
G01 X136.538518 Y125.097752 Z0.000000
G01 X136.531773 Y125.134204 Z0.000000
G01 X136.529233 Y125.171669 Z0.000000
G01 X136.530926 Y125.209859 Z0.000000
G01 X136.536514 Y125.248490 Z0.000000
G01 X136.546025 Y125.287273 Z0.000000
G01 X136.559402 Y125.325920 Z0.000000
G01 X136.576533 Y125.364141 Z0.000000
G01 X136.597361 Y125.401657 Z0.000000
G01 X136.621773 Y125.438177 Z0.000000
G01 X136.649713 Y125.473409 Z0.000000
G01 X136.681074 Y125.507073 Z0.000000
G01 X136.715782 Y125.538879 Z0.000000
G01 X136.753746 Y125.568541 Z0.000000
G01 X136.793912 Y125.595154 Z0.000000
G01 X136.835080 Y125.617986 Z0.000000
G01 X136.876947 Y125.637064 Z0.000000
G01 X136.919221 Y125.652389 Z0.000000
G01 X136.961597 Y125.663960 Z0.000000
G01 X137.003778 Y125.671834 Z0.000000
G01 X137.045465 Y125.675983 Z0.000000
G01 X137.086356 Y125.676547 Z0.000000
G01 X137.126155 Y125.673274 Z0.000000
G01 X137.164566 Y125.666331 Z0.000000
G01 X137.201280 Y125.655691 Z0.000000
G01 X137.236007 Y125.641411 Z0.000000
G01 X137.268443 Y125.623461 Z0.000000
G01 X137.298291 Y125.601871 Z0.000000
G01 X137.325243 Y125.576641 Z0.000000
G01 X137.349006 Y125.547851 Z0.000000
G00 Z18.000000

(Change tool to Default tool)

G00 Z18.000000
G00 X115.475342 Y100.118254

G01 Z0.000000 F100.0(Penetrate)
G01 X115.495154 Y100.086564 Z0.000000 F400.000000
G01 X115.510535 Y100.053002 Z0.000000
G01 X115.521542 Y100.017848 Z0.000000
G01 X115.528287 Y99.981396 Z0.000000
G01 X115.530827 Y99.943931 Z0.000000
G01 X115.529133 Y99.905741 Z0.000000
G01 X115.523545 Y99.867110 Z0.000000
G01 X115.514035 Y99.828327 Z0.000000
G01 X115.500657 Y99.789680 Z0.000000
G01 X115.483526 Y99.751459 Z0.000000
G01 X115.462698 Y99.713943 Z0.000000
G01 X115.438286 Y99.677423 Z0.000000
G01 X115.410346 Y99.642191 Z0.000000
G01 X115.378986 Y99.608527 Z0.000000
G01 X115.344278 Y99.576721 Z0.000000
G01 X115.306313 Y99.547059 Z0.000000
G01 X115.266148 Y99.520446 Z0.000000
G01 X115.224983 Y99.497614 Z0.000000
G01 X115.183112 Y99.478536 Z0.000000
G01 X115.140841 Y99.463211 Z0.000000
G01 X115.098465 Y99.451612 Z0.000000
G01 X115.056284 Y99.443738 Z0.000000
G01 X115.014597 Y99.439589 Z0.000000
G01 X114.973703 Y99.439025 Z0.000000
G01 X114.933904 Y99.442298 Z0.000000
G01 X114.895497 Y99.449241 Z0.000000
G01 X114.858780 Y99.459881 Z0.000000
G01 X114.824055 Y99.474161 Z0.000000
G01 X114.791619 Y99.492111 Z0.000000
G01 X114.761771 Y99.513701 Z0.000000
G01 X114.734819 Y99.538931 Z0.000000
G01 X114.711056 Y99.567780 Z0.000000
G01 X114.691244 Y99.599471 Z0.000000
G01 X114.675863 Y99.633033 Z0.000000
G01 X114.664856 Y99.668186 Z0.000000
G01 X114.658111 Y99.704638 Z0.000000
G01 X114.655571 Y99.742103 Z0.000000
G01 X114.657264 Y99.780293 Z0.000000
G01 X114.662852 Y99.818924 Z0.000000
G01 X114.672363 Y99.857707 Z0.000000
G01 X114.685741 Y99.896354 Z0.000000
G01 X114.702871 Y99.934576 Z0.000000
G01 X114.723699 Y99.972091 Z0.000000
G01 X114.748112 Y100.008611 Z0.000000
G01 X114.776052 Y100.043844 Z0.000000
G01 X114.807412 Y100.077507 Z0.000000
G01 X114.842120 Y100.109314 Z0.000000
G01 X114.880084 Y100.138975 Z0.000000
G01 X114.920250 Y100.165589 Z0.000000
G01 X114.961415 Y100.188420 Z0.000000
G01 X115.003286 Y100.207499 Z0.000000
G01 X115.045557 Y100.222823 Z0.000000
G01 X115.087933 Y100.234423 Z0.000000
G01 X115.130114 Y100.242297 Z0.000000
G01 X115.171801 Y100.246445 Z0.000000
G01 X115.212695 Y100.247010 Z0.000000
G01 X115.252494 Y100.243736 Z0.000000
G01 X115.290901 Y100.236793 Z0.000000
G01 X115.327618 Y100.226154 Z0.000000
G01 X115.362343 Y100.211873 Z0.000000
G01 X115.394779 Y100.193924 Z0.000000
G01 X115.424627 Y100.172334 Z0.000000
G01 X115.451579 Y100.147103 Z0.000000
G01 X115.475342 Y100.118254 Z0.000000
G00 Z18.000000

(Change tool to Default tool)

G00 Z18.000000
G00 X125.228773 Y111.456958

G01 Z0.000000 F100.0(Penetrate)
G01 X125.248585 Y111.425268 Z0.000000 F400.000000
G01 X125.263966 Y111.391706 Z0.000000
G01 X125.274972 Y111.356552 Z0.000000
G01 X125.281718 Y111.320100 Z0.000000
G01 X125.284258 Y111.282635 Z0.000000
G01 X125.282564 Y111.244445 Z0.000000
G01 X125.276976 Y111.205814 Z0.000000
G01 X125.267465 Y111.167031 Z0.000000
G01 X125.254088 Y111.128384 Z0.000000
G01 X125.236957 Y111.090160 Z0.000000
G01 X125.216129 Y111.052644 Z0.000000
G01 X125.191717 Y111.016127 Z0.000000
G01 X125.163777 Y110.980892 Z0.000000
G01 X125.132416 Y110.947228 Z0.000000
G01 X125.097709 Y110.915422 Z0.000000
G01 X125.059744 Y110.885760 Z0.000000
G01 X125.019578 Y110.859147 Z0.000000
G01 X124.978413 Y110.836315 Z0.000000
G01 X124.936543 Y110.817237 Z0.000000
G01 X124.894272 Y110.801912 Z0.000000
G01 X124.851896 Y110.790313 Z0.000000
G01 X124.809715 Y110.782439 Z0.000000
G01 X124.768028 Y110.778290 Z0.000000
G01 X124.727134 Y110.777726 Z0.000000
G01 X124.687335 Y110.780999 Z0.000000
G01 X124.648927 Y110.787942 Z0.000000
G01 X124.612210 Y110.798582 Z0.000000
G01 X124.577486 Y110.812862 Z0.000000
G01 X124.545050 Y110.830812 Z0.000000
G01 X124.515202 Y110.852402 Z0.000000
G01 X124.488250 Y110.877632 Z0.000000
G01 X124.464487 Y110.906481 Z0.000000
G01 X124.444675 Y110.938172 Z0.000000
G01 X124.429294 Y110.971734 Z0.000000
G01 X124.418287 Y111.006887 Z0.000000
G01 X124.411542 Y111.043339 Z0.000000
G01 X124.409002 Y111.080804 Z0.000000
G01 X124.410695 Y111.118994 Z0.000000
G01 X124.416283 Y111.157625 Z0.000000
G01 X124.425794 Y111.196408 Z0.000000
G01 X124.439171 Y111.235056 Z0.000000
G01 X124.456302 Y111.273277 Z0.000000
G01 X124.477130 Y111.310793 Z0.000000
G01 X124.501542 Y111.347312 Z0.000000
G01 X124.529482 Y111.382545 Z0.000000
G01 X124.560843 Y111.416208 Z0.000000
G01 X124.595551 Y111.448015 Z0.000000
G01 X124.633515 Y111.477676 Z0.000000
G01 X124.673681 Y111.504290 Z0.000000
G01 X124.714846 Y111.527122 Z0.000000
G01 X124.756716 Y111.546200 Z0.000000
G01 X124.798988 Y111.561525 Z0.000000
G01 X124.841363 Y111.573096 Z0.000000
G01 X124.883544 Y111.580970 Z0.000000
G01 X124.925231 Y111.585118 Z0.000000
G01 X124.966125 Y111.585683 Z0.000000
G01 X125.005924 Y111.582409 Z0.000000
G01 X125.044332 Y111.575466 Z0.000000
G01 X125.081049 Y111.564827 Z0.000000
G01 X125.115774 Y111.550546 Z0.000000
G01 X125.148209 Y111.532597 Z0.000000
G01 X125.178057 Y111.511007 Z0.000000
G01 X125.205010 Y111.485776 Z0.000000
G01 X125.228773 Y111.456958 Z0.000000
G00 Z18.000000

(Change tool to Default tool)

G00 Z18.000000
G00 X137.390990 Y127.567656

G01 Z0.000000 F100.0(Penetrate)
G01 X137.362341 Y127.643856 Z0.000000 F400.000000
G01 X137.333693 Y127.720056 Z0.000000
G01 X137.305045 Y127.796256 Z0.000000
G01 X137.276396 Y127.872454 Z0.000000
G01 X137.247751 Y127.948654 Z0.000000
G01 X137.219102 Y128.024854 Z0.000000
G01 X137.190454 Y128.101054 Z0.000000
G01 X137.161806 Y128.177254 Z0.000000
G01 X137.133157 Y128.253454 Z0.000000
G01 X137.104509 Y128.329654 Z0.000000
G01 X137.075860 Y128.405854 Z0.000000
G01 X137.047215 Y128.482054 Z0.000000
G01 X137.018567 Y128.558254 Z0.000000
G01 X136.989918 Y128.634454 Z0.000000
G01 X136.961270 Y128.710654 Z0.000000
G01 X136.932621 Y128.786854 Z0.000000
G01 X135.371430 Y126.991099 Z0.000000
G01 X133.810236 Y125.195344 Z0.000000
G01 X132.249045 Y123.399590 Z0.000000
G01 X130.687851 Y121.603832 Z0.000000
G01 X129.126659 Y119.808078 Z0.000000
G01 X127.565468 Y118.012323 Z0.000000
G01 X126.004274 Y116.216568 Z0.000000
G01 X124.443083 Y114.420814 Z0.000000
G01 X122.881892 Y112.625059 Z0.000000
G01 X121.320698 Y110.829305 Z0.000000
G01 X119.759506 Y109.033550 Z0.000000
G01 X118.198312 Y107.237793 Z0.000000
G01 X116.637121 Y105.442038 Z0.000000
G01 X115.075930 Y103.646283 Z0.000000
G01 X113.514736 Y101.850529 Z0.000000
G01 X111.953544 Y100.054774 Z0.000000
G01 X111.976517 Y99.947098 Z0.000000
G01 X111.999490 Y99.839419 Z0.000000
G01 X112.022463 Y99.731743 Z0.000000
G01 X112.045436 Y99.624066 Z0.000000
G01 X112.068409 Y99.516387 Z0.000000
G01 X112.091382 Y99.408711 Z0.000000
G01 X112.114355 Y99.301032 Z0.000000
G01 X112.137328 Y99.193356 Z0.000000
G01 X112.160300 Y99.085679 Z0.000000
G01 X112.183273 Y98.978000 Z0.000000
G01 X112.206246 Y98.870324 Z0.000000
G01 X112.229219 Y98.762648 Z0.000000
G01 X112.252192 Y98.654969 Z0.000000
G01 X112.275165 Y98.547293 Z0.000000
G01 X112.298138 Y98.439614 Z0.000000
G01 X112.321111 Y98.331937 Z0.000000
G01 X113.887977 Y100.159171 Z0.000000
G01 X115.454844 Y101.986402 Z0.000000
G01 X117.021714 Y103.813633 Z0.000000
G01 X118.588580 Y105.640866 Z0.000000
G01 X120.155447 Y107.468097 Z0.000000
G01 X121.722314 Y109.295331 Z0.000000
G01 X123.289183 Y111.122562 Z0.000000
G01 X124.856050 Y112.949795 Z0.000000
G01 X126.422917 Y114.777029 Z0.000000
G01 X127.989787 Y116.604260 Z0.000000
G01 X129.556653 Y118.431494 Z0.000000
G01 X131.123520 Y120.258724 Z0.000000
G01 X132.690390 Y122.085958 Z0.000000
G01 X134.257256 Y123.913192 Z0.000000
G01 X135.824126 Y125.740423 Z0.000000
G01 X137.390990 Y127.567656 Z0.000000
G00 Z18.000000

(Change tool to Default tool)

G00 Z18.000000
G00 X137.390990 Y127.567656

G01 Z0.000000 F100.0(Penetrate)
G01 X137.574180 Y127.560629 Z0.000000 F400.000000
G01 X137.757371 Y127.553602 Z0.000000
G01 X137.940561 Y127.546574 Z0.000000
G01 X138.123752 Y127.539547 Z0.000000
G01 X138.306945 Y127.532520 Z0.000000
G01 X138.490135 Y127.525492 Z0.000000
G01 X138.673326 Y127.518465 Z0.000000
G01 X138.856516 Y127.511438 Z0.000000
G01 X139.039707 Y127.504410 Z0.000000
G01 X139.222897 Y127.497383 Z0.000000
G01 X139.406090 Y127.490356 Z0.000000
G01 X139.589281 Y127.483328 Z0.000000
G01 X139.772471 Y127.476301 Z0.000000
G01 X139.955662 Y127.469274 Z0.000000
G01 X140.138855 Y127.462246 Z0.000000
G01 X140.322045 Y127.455219 Z0.000000
G01 X138.752839 Y125.638120 Z0.000000
G01 X137.183633 Y123.821021 Z0.000000
G01 X135.614426 Y122.003922 Z0.000000
G01 X134.045220 Y120.186826 Z0.000000
G01 X132.476014 Y118.369726 Z0.000000
G01 X130.906807 Y116.552627 Z0.000000
G01 X129.337601 Y114.735528 Z0.000000
G01 X127.768394 Y112.918429 Z0.000000
G01 X126.199188 Y111.101330 Z0.000000
G01 X124.629982 Y109.284231 Z0.000000
G01 X123.060775 Y107.467132 Z0.000000
G01 X121.491569 Y105.650036 Z0.000000
G01 X119.922365 Y103.832937 Z0.000000
G01 X118.353159 Y102.015838 Z0.000000
G01 X116.783953 Y100.198739 Z0.000000
G01 X115.214746 Y98.381639 Z0.000000
G01 X115.033893 Y98.378535 Z0.000000
G01 X114.853042 Y98.375402 Z0.000000
G01 X114.672188 Y98.372298 Z0.000000
G01 X114.491335 Y98.369165 Z0.000000
G01 X114.310484 Y98.366033 Z0.000000
G01 X114.129630 Y98.362928 Z0.000000
G01 X113.948779 Y98.359795 Z0.000000
G01 X113.767926 Y98.356691 Z0.000000
G01 X113.587072 Y98.353558 Z0.000000
G01 X113.406221 Y98.350426 Z0.000000
G01 X113.225368 Y98.347321 Z0.000000
G01 X113.044517 Y98.344189 Z0.000000
G01 X112.863663 Y98.341084 Z0.000000
G01 X112.682812 Y98.337951 Z0.000000
G01 X112.501959 Y98.334819 Z0.000000
G01 X112.321108 Y98.331714 Z0.000000
G01 X113.887975 Y100.158948 Z0.000000
G01 X115.454841 Y101.986179 Z0.000000
G01 X117.021711 Y103.813413 Z0.000000
G01 X118.588578 Y105.640643 Z0.000000
G01 X120.155444 Y107.467877 Z0.000000
G01 X121.722311 Y109.295108 Z0.000000
G01 X123.289181 Y111.122342 Z0.000000
G01 X124.856047 Y112.949572 Z0.000000
G01 X126.422914 Y114.776806 Z0.000000
G01 X127.989784 Y116.604040 Z0.000000
G01 X129.556650 Y118.431273 Z0.000000
G01 X131.123517 Y120.258507 Z0.000000
G01 X132.690387 Y122.085741 Z0.000000
G01 X134.257254 Y123.912975 Z0.000000
G01 X135.824123 Y125.740208 Z0.000000
G01 X137.390990 Y127.567656 Z0.000000
G00 Z18.000000

(Change tool to Default tool)

G00 Z18.000000
G00 X139.835616 Y128.727607

G01 Z0.000000 F100.0(Penetrate)
G01 X139.866017 Y128.648093 Z0.000000 F400.000000
G01 X139.896418 Y128.568583 Z0.000000
G01 X139.926821 Y128.489070 Z0.000000
G01 X139.957222 Y128.409556 Z0.000000
G01 X139.987623 Y128.330043 Z0.000000
G01 X140.018024 Y128.250533 Z0.000000
G01 X140.048428 Y128.171019 Z0.000000
G01 X140.078829 Y128.091506 Z0.000000
G01 X140.109230 Y128.011993 Z0.000000
G01 X140.139634 Y127.932482 Z0.000000
G01 X140.170035 Y127.852969 Z0.000000
G01 X140.200436 Y127.773456 Z0.000000
G01 X140.230840 Y127.693942 Z0.000000
G01 X140.261241 Y127.614432 Z0.000000
G01 X140.291644 Y127.534919 Z0.000000
G01 X140.322045 Y127.455405 Z0.000000
G01 X140.138855 Y127.462433 Z0.000000
G01 X139.955662 Y127.469460 Z0.000000
G01 X139.772471 Y127.476487 Z0.000000
G01 X139.589281 Y127.483515 Z0.000000
G01 X139.406090 Y127.490542 Z0.000000
G01 X139.222897 Y127.497569 Z0.000000
G01 X139.039707 Y127.504597 Z0.000000
G01 X138.856516 Y127.511624 Z0.000000
G01 X138.673326 Y127.518651 Z0.000000
G01 X138.490135 Y127.525679 Z0.000000
G01 X138.306945 Y127.532706 Z0.000000
G01 X138.123752 Y127.539733 Z0.000000
G01 X137.940561 Y127.546761 Z0.000000
G01 X137.757371 Y127.553788 Z0.000000
G01 X137.574180 Y127.560815 Z0.000000
G01 X137.390990 Y127.567843 Z0.000000
G01 X137.362341 Y127.644043 Z0.000000
G01 X137.333693 Y127.720243 Z0.000000
G01 X137.305045 Y127.796443 Z0.000000
G01 X137.276396 Y127.872643 Z0.000000
G01 X137.247751 Y127.948840 Z0.000000
G01 X137.219102 Y128.025040 Z0.000000
G01 X137.190454 Y128.101240 Z0.000000
G01 X137.161806 Y128.177440 Z0.000000
G01 X137.133157 Y128.253640 Z0.000000
G01 X137.104509 Y128.329840 Z0.000000
G01 X137.075860 Y128.406040 Z0.000000
G01 X137.047215 Y128.482240 Z0.000000
G01 X137.018567 Y128.558440 Z0.000000
G01 X136.989918 Y128.634640 Z0.000000
G01 X136.961270 Y128.710840 Z0.000000
G01 X136.932621 Y128.787040 Z0.000000
G01 X137.114059 Y128.783343 Z0.000000
G01 X137.295494 Y128.779646 Z0.000000
G01 X137.476932 Y128.775948 Z0.000000
G01 X137.658370 Y128.772251 Z0.000000
G01 X137.839808 Y128.768554 Z0.000000
G01 X138.021243 Y128.764857 Z0.000000
G01 X138.202681 Y128.761160 Z0.000000
G01 X138.384119 Y128.757463 Z0.000000
G01 X138.565556 Y128.753766 Z0.000000
G01 X138.746991 Y128.750069 Z0.000000
G01 X138.928429 Y128.746372 Z0.000000
G01 X139.109867 Y128.742674 Z0.000000
G01 X139.291305 Y128.738977 Z0.000000
G01 X139.472740 Y128.735280 Z0.000000
G01 X139.654178 Y128.731583 Z0.000000
G01 X139.835616 Y128.727607 Z0.000000
G00 Z18.000000

(Change tool to Default tool)

G00 Z18.000000
G00 X169.966123 Y43.672610

G01 Z0.000000 F100.0(Penetrate)
G01 X169.966123 Y43.645601 Z0.000000 F400.000000
G01 X169.966123 Y43.618593 Z0.000000
G01 X169.966123 Y43.591584 Z0.000000
G01 X169.966123 Y43.564575 Z0.000000
G01 X169.966123 Y43.537567 Z0.000000
G01 X169.966123 Y43.510558 Z0.000000
G01 X169.966123 Y43.483549 Z0.000000
G01 X169.966123 Y43.456541 Z0.000000
G01 X169.966123 Y43.429532 Z0.000000
G01 X169.966123 Y43.402523 Z0.000000
G01 X169.966123 Y43.375515 Z0.000000
G01 X169.966123 Y43.348506 Z0.000000
G01 X169.966123 Y43.321497 Z0.000000
G01 X169.966123 Y43.294489 Z0.000000
G01 X169.966123 Y43.267480 Z0.000000
G01 X169.966123 Y43.240471 Z0.000000
G01 X169.806797 Y43.222127 Z0.000000
G01 X169.647432 Y43.205053 Z0.000000
G01 X169.488005 Y43.189897 Z0.000000
G01 X169.328493 Y43.177338 Z0.000000
G01 X169.168876 Y43.168025 Z0.000000
G01 X169.009136 Y43.162635 Z0.000000
G01 X168.849243 Y43.161788 Z0.000000
G01 X168.689183 Y43.166247 Z0.000000
G01 X168.528932 Y43.176633 Z0.000000
G01 X168.368469 Y43.193594 Z0.000000
G01 X168.207769 Y43.217837 Z0.000000
G01 X168.046814 Y43.249991 Z0.000000
G01 X167.885584 Y43.290735 Z0.000000
G01 X167.724054 Y43.340739 Z0.000000
G01 X167.562202 Y43.400666 Z0.000000
G01 X167.400012 Y43.471185 Z0.000000
G01 X167.400012 Y43.493989 Z0.000000
G01 X167.400012 Y43.516792 Z0.000000
G01 X167.400012 Y43.539596 Z0.000000
G01 X167.400012 Y43.562400 Z0.000000
G01 X167.400012 Y43.585203 Z0.000000
G01 X167.400012 Y43.608007 Z0.000000
G01 X167.400012 Y43.630810 Z0.000000
G01 X167.400012 Y43.653614 Z0.000000
G01 X167.400012 Y43.676417 Z0.000000
G01 X167.400012 Y43.699221 Z0.000000
G01 X167.400012 Y43.722024 Z0.000000
G01 X167.400012 Y43.744828 Z0.000000
G01 X167.400012 Y43.767632 Z0.000000
G01 X167.400012 Y43.790435 Z0.000000
G01 X167.400012 Y43.813239 Z0.000000
G01 X167.400012 Y43.836042 Z0.000000
G01 X167.478371 Y43.815863 Z0.000000
G01 X167.556730 Y43.795684 Z0.000000
G01 X167.635089 Y43.775506 Z0.000000
G01 X167.713448 Y43.755327 Z0.000000
G01 X167.791807 Y43.735148 Z0.000000
G01 X167.870166 Y43.714969 Z0.000000
G01 X167.948525 Y43.694790 Z0.000000
G01 X168.026884 Y43.674611 Z0.000000
G01 X168.105243 Y43.654432 Z0.000000
G01 X168.183602 Y43.634253 Z0.000000
G01 X168.261961 Y43.614074 Z0.000000
G01 X168.340317 Y43.593896 Z0.000000
G01 X168.418676 Y43.573717 Z0.000000
G01 X168.497035 Y43.553538 Z0.000000
G01 X168.575394 Y43.533359 Z0.000000
G01 X168.653753 Y43.513180 Z0.000000
G01 X168.735775 Y43.523142 Z0.000000
G01 X168.817798 Y43.533105 Z0.000000
G01 X168.899823 Y43.543067 Z0.000000
G01 X168.981845 Y43.553030 Z0.000000
G01 X169.063867 Y43.562992 Z0.000000
G01 X169.145889 Y43.572955 Z0.000000
G01 X169.227914 Y43.582917 Z0.000000
G01 X169.309937 Y43.592880 Z0.000000
G01 X169.391959 Y43.602842 Z0.000000
G01 X169.473984 Y43.612804 Z0.000000
G01 X169.556006 Y43.622767 Z0.000000
G01 X169.638028 Y43.632729 Z0.000000
G01 X169.720054 Y43.642692 Z0.000000
G01 X169.802076 Y43.652654 Z0.000000
G01 X169.884101 Y43.662617 Z0.000000
G01 X169.966123 Y43.672610 Z0.000000
G00 Z18.000000

(Change tool to Default tool)

G00 Z18.000000
G00 X168.697850 Y45.629982

G01 Z0.000000 F100.0(Penetrate)
G01 X168.910067 Y45.653689 Z0.000000 F400.000000
G01 X169.122284 Y45.677395 Z0.000000
G01 X169.334504 Y45.701102 Z0.000000
G01 X169.546721 Y45.724809 Z0.000000
G01 X169.758938 Y45.748515 Z0.000000
G01 X169.971155 Y45.772222 Z0.000000
G01 X170.183375 Y45.795929 Z0.000000
G01 X170.395592 Y45.819635 Z0.000000
G01 X170.607809 Y45.843342 Z0.000000
G01 X170.820029 Y45.867049 Z0.000000
G01 X171.032246 Y45.890755 Z0.000000
G01 X171.244463 Y45.914462 Z0.000000
G01 X171.456683 Y45.938169 Z0.000000
G01 X171.668900 Y45.961875 Z0.000000
G01 X171.881119 Y45.985582 Z0.000000
G01 X172.093336 Y46.009289 Z0.000000
G01 X172.078294 Y45.877564 Z0.000000
G01 X172.063252 Y45.745837 Z0.000000
G01 X172.048209 Y45.614113 Z0.000000
G01 X172.033167 Y45.482386 Z0.000000
G01 X172.018124 Y45.350658 Z0.000000
G01 X172.003082 Y45.218934 Z0.000000
G01 X171.988039 Y45.087207 Z0.000000
G01 X171.972997 Y44.955482 Z0.000000
G01 X171.957954 Y44.823755 Z0.000000
G01 X171.942912 Y44.692031 Z0.000000
G01 X171.927870 Y44.560303 Z0.000000
G01 X171.912827 Y44.428579 Z0.000000
G01 X171.897785 Y44.296852 Z0.000000
G01 X171.882742 Y44.165127 Z0.000000
G01 X171.867700 Y44.033400 Z0.000000
G01 X171.852657 Y43.901676 Z0.000000
G01 X171.652723 Y43.877405 Z0.000000
G01 X171.452785 Y43.853134 Z0.000000
G01 X171.252850 Y43.828862 Z0.000000
G01 X171.052913 Y43.804591 Z0.000000
G01 X170.852978 Y43.780320 Z0.000000
G01 X170.653044 Y43.756049 Z0.000000
G01 X170.453106 Y43.731778 Z0.000000
G01 X170.253171 Y43.707507 Z0.000000
G01 X170.053237 Y43.683236 Z0.000000
G01 X169.853299 Y43.658965 Z0.000000
G01 X169.653364 Y43.634694 Z0.000000
G01 X169.453430 Y43.610422 Z0.000000
G01 X169.253495 Y43.586151 Z0.000000
G01 X169.053560 Y43.561880 Z0.000000
G01 X168.853623 Y43.537609 Z0.000000
G01 X168.653688 Y43.513338 Z0.000000
G01 X168.656510 Y43.645630 Z0.000000
G01 X168.659333 Y43.777921 Z0.000000
G01 X168.662155 Y43.910213 Z0.000000
G01 X168.664977 Y44.042505 Z0.000000
G01 X168.667799 Y44.174796 Z0.000000
G01 X168.670622 Y44.307088 Z0.000000
G01 X168.673444 Y44.439380 Z0.000000
G01 X168.676266 Y44.571671 Z0.000000
G01 X168.679088 Y44.703963 Z0.000000
G01 X168.681910 Y44.836255 Z0.000000
G01 X168.684733 Y44.968546 Z0.000000
G01 X168.687555 Y45.100838 Z0.000000
G01 X168.690377 Y45.233130 Z0.000000
G01 X168.693199 Y45.365421 Z0.000000
G01 X168.696022 Y45.497713 Z0.000000
G01 X168.697850 Y45.629982 Z0.000000
G00 Z18.000000

(Change tool to Default tool)

G00 Z18.000000
G00 X165.562536 Y46.361996

G01 Z0.000000 F100.0(Penetrate)
G01 X165.758495 Y46.316245 Z0.000000 F400.000000
G01 X165.954450 Y46.270494 Z0.000000
G01 X166.150408 Y46.224743 Z0.000000
G01 X166.346363 Y46.178995 Z0.000000
G01 X166.542322 Y46.133244 Z0.000000
G01 X166.738280 Y46.087493 Z0.000000
G01 X166.934235 Y46.041742 Z0.000000
G01 X167.130193 Y45.995991 Z0.000000
G01 X167.326152 Y45.950239 Z0.000000
G01 X167.522107 Y45.904488 Z0.000000
G01 X167.718065 Y45.858737 Z0.000000
G01 X167.914023 Y45.812986 Z0.000000
G01 X168.109979 Y45.767235 Z0.000000
G01 X168.305937 Y45.721484 Z0.000000
G01 X168.501892 Y45.675733 Z0.000000
G01 X168.697850 Y45.629982 Z0.000000
G01 X168.695028 Y45.497690 Z0.000000
G01 X168.692206 Y45.365399 Z0.000000
G01 X168.689384 Y45.233107 Z0.000000
G01 X168.686561 Y45.100815 Z0.000000
G01 X168.683739 Y44.968524 Z0.000000
G01 X168.680917 Y44.836232 Z0.000000
G01 X168.678095 Y44.703940 Z0.000000
G01 X168.675273 Y44.571649 Z0.000000
G01 X168.672450 Y44.439357 Z0.000000
G01 X168.669628 Y44.307065 Z0.000000
G01 X168.666806 Y44.174774 Z0.000000
G01 X168.663984 Y44.042482 Z0.000000
G01 X168.661161 Y43.910190 Z0.000000
G01 X168.658339 Y43.777899 Z0.000000
G01 X168.655517 Y43.645607 Z0.000000
G01 X168.652695 Y43.513315 Z0.000000
G01 X168.470794 Y43.560170 Z0.000000
G01 X168.288893 Y43.607022 Z0.000000
G01 X168.106993 Y43.653876 Z0.000000
G01 X167.925092 Y43.700731 Z0.000000
G01 X167.743188 Y43.747582 Z0.000000
G01 X167.561288 Y43.794437 Z0.000000
G01 X167.379387 Y43.841289 Z0.000000
G01 X167.197486 Y43.888143 Z0.000000
G01 X167.015586 Y43.934998 Z0.000000
G01 X166.833685 Y43.981850 Z0.000000
G01 X166.651784 Y44.028701 Z0.000000
G01 X166.469884 Y44.075556 Z0.000000
G01 X166.287980 Y44.122410 Z0.000000
G01 X166.106079 Y44.169262 Z0.000000
G01 X165.924179 Y44.216114 Z0.000000
G01 X165.742278 Y44.262968 Z0.000000
G01 X165.730989 Y44.394156 Z0.000000
G01 X165.719700 Y44.525347 Z0.000000
G01 X165.708411 Y44.656536 Z0.000000
G01 X165.697123 Y44.787727 Z0.000000
G01 X165.685834 Y44.918915 Z0.000000
G01 X165.674545 Y45.050103 Z0.000000
G01 X165.663256 Y45.181294 Z0.000000
G01 X165.651967 Y45.312482 Z0.000000
G01 X165.640678 Y45.443670 Z0.000000
G01 X165.629389 Y45.574861 Z0.000000
G01 X165.618100 Y45.706050 Z0.000000
G01 X165.606783 Y45.837241 Z0.000000
G01 X165.595494 Y45.968429 Z0.000000
G01 X165.584205 Y46.099617 Z0.000000
G01 X165.572888 Y46.230808 Z0.000000
G01 X165.562536 Y46.361996 Z0.000000
G00 Z18.000000

(Change tool to Default tool)

G00 Z18.000000
G00 X166.190371 Y43.876567

G01 Z0.000000 F100.0(Penetrate)
G01 X166.116129 Y43.848076 Z0.000000 F400.000000
G01 X166.041888 Y43.819583 Z0.000000
G01 X165.967647 Y43.791093 Z0.000000
G01 X165.893402 Y43.762602 Z0.000000
G01 X165.819161 Y43.734112 Z0.000000
G01 X165.744920 Y43.705622 Z0.000000
G01 X165.670678 Y43.677129 Z0.000000
G01 X165.596437 Y43.648638 Z0.000000
G01 X165.522196 Y43.620148 Z0.000000
G01 X165.447954 Y43.591658 Z0.000000
G01 X165.373713 Y43.563164 Z0.000000
G01 X165.299469 Y43.534674 Z0.000000
G01 X165.225227 Y43.506184 Z0.000000
G01 X165.150986 Y43.477693 Z0.000000
G01 X165.076744 Y43.449200 Z0.000000
G01 X165.002503 Y43.420710 Z0.000000
G01 X165.373710 Y43.403466 Z0.000000
G01 X165.741361 Y43.382187 Z0.000000
G01 X166.105701 Y43.357097 Z0.000000
G01 X166.466965 Y43.328502 Z0.000000
G01 X166.825393 Y43.296662 Z0.000000
G01 X167.181222 Y43.261855 Z0.000000
G01 X167.534691 Y43.224351 Z0.000000
G01 X167.886041 Y43.184425 Z0.000000
G01 X168.235508 Y43.142348 Z0.000000
G01 X168.583333 Y43.098392 Z0.000000
G01 X168.929755 Y43.052833 Z0.000000
G01 X169.275009 Y43.005942 Z0.000000
G01 X169.619340 Y42.957992 Z0.000000
G01 X169.962979 Y42.909255 Z0.000000
G01 X170.306170 Y42.860005 Z0.000000
G01 X170.649152 Y42.810514 Z0.000000
G01 X170.725529 Y42.834673 Z0.000000
G01 X170.801907 Y42.858831 Z0.000000
G01 X170.878285 Y42.882989 Z0.000000
G01 X170.954663 Y42.907147 Z0.000000
G01 X171.031041 Y42.931306 Z0.000000
G01 X171.107418 Y42.955464 Z0.000000
G01 X171.183796 Y42.979622 Z0.000000
G01 X171.260174 Y43.003780 Z0.000000
G01 X171.336552 Y43.027938 Z0.000000
G01 X171.412930 Y43.052097 Z0.000000
G01 X171.489307 Y43.076255 Z0.000000
G01 X171.565685 Y43.100413 Z0.000000
G01 X171.642063 Y43.124571 Z0.000000
G01 X171.718441 Y43.148730 Z0.000000
G01 X171.794819 Y43.172888 Z0.000000
G01 X171.871196 Y43.197046 Z0.000000
G01 X171.752144 Y43.215532 Z0.000000
G01 X171.633088 Y43.233904 Z0.000000
G01 X171.514027 Y43.252164 Z0.000000
G01 X171.394966 Y43.270339 Z0.000000
G01 X171.275902 Y43.288401 Z0.000000
G01 X171.156836 Y43.306351 Z0.000000
G01 X171.037769 Y43.324187 Z0.000000
G01 X170.918702 Y43.341911 Z0.000000
G01 X170.799635 Y43.359521 Z0.000000
G01 X170.680566 Y43.377019 Z0.000000
G01 X170.561499 Y43.394432 Z0.000000
G01 X170.442435 Y43.411732 Z0.000000
G01 X170.323371 Y43.428920 Z0.000000
G01 X170.204310 Y43.445994 Z0.000000
G01 X170.085252 Y43.462956 Z0.000000
G01 X169.966196 Y43.479804 Z0.000000
G01 X169.966196 Y43.464847 Z0.000000
G01 X169.966196 Y43.449889 Z0.000000
G01 X169.966196 Y43.434931 Z0.000000
G01 X169.966196 Y43.419973 Z0.000000
G01 X169.966196 Y43.405016 Z0.000000
G01 X169.966196 Y43.390058 Z0.000000
G01 X169.966196 Y43.375100 Z0.000000
G01 X169.966196 Y43.360142 Z0.000000
G01 X169.966196 Y43.345184 Z0.000000
G01 X169.966196 Y43.330227 Z0.000000
G01 X169.966196 Y43.315269 Z0.000000
G01 X169.966196 Y43.300311 Z0.000000
G01 X169.966196 Y43.285353 Z0.000000
G01 X169.966196 Y43.270396 Z0.000000
G01 X169.966196 Y43.255438 Z0.000000
G01 X169.966196 Y43.240480 Z0.000000
G01 X169.806868 Y43.222136 Z0.000000
G01 X169.647491 Y43.205061 Z0.000000
G01 X169.488047 Y43.189906 Z0.000000
G01 X169.328513 Y43.177347 Z0.000000
G01 X169.168871 Y43.168062 Z0.000000
G01 X169.009096 Y43.162700 Z0.000000
G01 X168.849175 Y43.161853 Z0.000000
G01 X168.689082 Y43.166340 Z0.000000
G01 X168.528796 Y43.176754 Z0.000000
G01 X168.368302 Y43.193744 Z0.000000
G01 X168.207574 Y43.217987 Z0.000000
G01 X168.046594 Y43.250157 Z0.000000
G01 X167.885341 Y43.290919 Z0.000000
G01 X167.723794 Y43.340931 Z0.000000
G01 X167.561934 Y43.400864 Z0.000000
G01 X167.399738 Y43.471386 Z0.000000
G01 X167.399738 Y43.491085 Z0.000000
G01 X167.399738 Y43.510784 Z0.000000
G01 X167.399738 Y43.530483 Z0.000000
G01 X167.399738 Y43.550182 Z0.000000
G01 X167.399738 Y43.569881 Z0.000000
G01 X167.399738 Y43.589580 Z0.000000
G01 X167.399738 Y43.609279 Z0.000000
G01 X167.399738 Y43.628979 Z0.000000
G01 X167.399738 Y43.648678 Z0.000000
G01 X167.399738 Y43.668377 Z0.000000
G01 X167.399738 Y43.688076 Z0.000000
G01 X167.399738 Y43.707775 Z0.000000
G01 X167.399738 Y43.727474 Z0.000000
G01 X167.399738 Y43.747173 Z0.000000
G01 X167.399738 Y43.766872 Z0.000000
G01 X167.399738 Y43.786571 Z0.000000
G01 X167.324159 Y43.793373 Z0.000000
G01 X167.248577 Y43.800062 Z0.000000
G01 X167.172995 Y43.806637 Z0.000000
G01 X167.097413 Y43.813072 Z0.000000
G01 X167.021831 Y43.819366 Z0.000000
G01 X166.946249 Y43.825518 Z0.000000
G01 X166.870667 Y43.831501 Z0.000000
G01 X166.795083 Y43.837315 Z0.000000
G01 X166.719498 Y43.842931 Z0.000000
G01 X166.643910 Y43.848350 Z0.000000
G01 X166.568323 Y43.853571 Z0.000000
G01 X166.492735 Y43.858595 Z0.000000
G01 X166.417145 Y43.863392 Z0.000000
G01 X166.341554 Y43.867964 Z0.000000
G01 X166.265964 Y43.872311 Z0.000000
G01 X166.190371 Y43.876567 Z0.000000
G00 Z18.000000

(Change tool to Default tool)

G00 Z18.000000
G00 X165.002503 Y43.420710

G01 Z0.000000 F100.0(Penetrate)
G01 X164.983989 Y43.340336 Z0.000000 F400.000000
G01 X164.965504 Y43.259962 Z0.000000
G01 X164.946990 Y43.179588 Z0.000000
G01 X164.928476 Y43.099214 Z0.000000
G01 X164.909962 Y43.018840 Z0.000000
G01 X164.891449 Y42.938465 Z0.000000
G01 X164.872963 Y42.858091 Z0.000000
G01 X164.854449 Y42.777717 Z0.000000
G01 X164.835936 Y42.697343 Z0.000000
G01 X164.817422 Y42.616969 Z0.000000
G01 X164.798908 Y42.536595 Z0.000000
G01 X164.780422 Y42.456221 Z0.000000
G01 X164.761909 Y42.375847 Z0.000000
G01 X164.743395 Y42.295473 Z0.000000
G01 X164.724881 Y42.215099 Z0.000000
G01 X164.706396 Y42.134725 Z0.000000
G01 X164.746367 Y42.185914 Z0.000000
G01 X164.786730 Y42.234205 Z0.000000
G01 X164.827443 Y42.279573 Z0.000000
G01 X164.868470 Y42.321988 Z0.000000
G01 X164.909770 Y42.361425 Z0.000000
G01 X164.951308 Y42.397858 Z0.000000
G01 X164.993043 Y42.431261 Z0.000000
G01 X165.034936 Y42.461606 Z0.000000
G01 X165.076950 Y42.488869 Z0.000000
G01 X165.119044 Y42.513027 Z0.000000
G01 X165.161183 Y42.534052 Z0.000000
G01 X165.203324 Y42.551917 Z0.000000
G01 X165.245431 Y42.566564 Z0.000000
G01 X165.287466 Y42.578023 Z0.000000
G01 X165.329390 Y42.586235 Z0.000000
G01 X165.371161 Y42.591174 Z0.000000
G01 X165.374407 Y42.599020 Z0.000000
G01 X165.377653 Y42.606866 Z0.000000
G01 X165.380898 Y42.614711 Z0.000000
G01 X165.384144 Y42.622557 Z0.000000
G01 X165.387389 Y42.630403 Z0.000000
G01 X165.390635 Y42.638249 Z0.000000
G01 X165.393880 Y42.646095 Z0.000000
G01 X165.397126 Y42.653940 Z0.000000
G01 X165.400371 Y42.661786 Z0.000000
G01 X165.403617 Y42.669632 Z0.000000
G01 X165.406863 Y42.677478 Z0.000000
G01 X165.410108 Y42.685323 Z0.000000
G01 X165.413354 Y42.693169 Z0.000000
G01 X165.416599 Y42.701015 Z0.000000
G01 X165.419845 Y42.708861 Z0.000000
G01 X165.423090 Y42.716707 Z0.000000
G01 X165.725458 Y42.694383 Z0.000000
G01 X166.025214 Y42.669434 Z0.000000
G01 X166.322499 Y42.642031 Z0.000000
G01 X166.617455 Y42.612284 Z0.000000
G01 X166.910218 Y42.580348 Z0.000000
G01 X167.200927 Y42.546357 Z0.000000
G01 X167.489725 Y42.510456 Z0.000000
G01 X167.776748 Y42.472776 Z0.000000
G01 X168.062133 Y42.433463 Z0.000000
G01 X168.346024 Y42.392653 Z0.000000
G01 X168.628556 Y42.350487 Z0.000000
G01 X168.909873 Y42.307101 Z0.000000
G01 X169.190108 Y42.262639 Z0.000000
G01 X169.469406 Y42.217235 Z0.000000
G01 X169.747903 Y42.171033 Z0.000000
G01 X170.025740 Y42.124167 Z0.000000
G01 X169.986570 Y41.968725 Z0.000000
G01 X169.947398 Y41.813282 Z0.000000
G01 X169.908228 Y41.657840 Z0.000000
G01 X169.869058 Y41.502395 Z0.000000
G01 X169.829886 Y41.346952 Z0.000000
G01 X169.790716 Y41.191510 Z0.000000
G01 X169.751544 Y41.036068 Z0.000000
G01 X169.712374 Y40.880625 Z0.000000
G01 X169.673205 Y40.725183 Z0.000000
G01 X169.634032 Y40.569741 Z0.000000
G01 X169.594863 Y40.414298 Z0.000000
G01 X169.555693 Y40.258853 Z0.000000
G01 X169.516521 Y40.103411 Z0.000000
G01 X169.477351 Y39.947968 Z0.000000
G01 X169.438178 Y39.792526 Z0.000000
G01 X169.399009 Y39.637084 Z0.000000
G01 X169.365323 Y39.441334 Z0.000000
G01 X169.351183 Y39.268521 Z0.000000
G01 X169.354739 Y39.117137 Z0.000000
G01 X169.374156 Y38.985681 Z0.000000
G01 X169.407571 Y38.872645 Z0.000000
G01 X169.453145 Y38.776529 Z0.000000
G01 X169.509030 Y38.695830 Z0.000000
G01 X169.573380 Y38.629039 Z0.000000
G01 X169.644345 Y38.574655 Z0.000000
G01 X169.720082 Y38.531176 Z0.000000
G01 X169.798743 Y38.497095 Z0.000000
G01 X169.878482 Y38.470905 Z0.000000
G01 X169.957450 Y38.451121 Z0.000000
G01 X170.033800 Y38.436220 Z0.000000
G01 X170.105690 Y38.424705 Z0.000000
G01 X170.171268 Y38.415053 Z0.000000
G01 X170.171304 Y38.415231 Z0.000000
G01 X170.171338 Y38.415406 Z0.000000
G01 X170.171375 Y38.415581 Z0.000000
G01 X170.171409 Y38.415758 Z0.000000
G01 X170.171445 Y38.415936 Z0.000000
G01 X170.171479 Y38.416111 Z0.000000
G01 X170.171516 Y38.416286 Z0.000000
G01 X170.171550 Y38.416464 Z0.000000
G01 X170.171587 Y38.416639 Z0.000000
G01 X170.171620 Y38.416817 Z0.000000
G01 X170.171657 Y38.416992 Z0.000000
G01 X170.171691 Y38.417170 Z0.000000
G01 X170.171728 Y38.417344 Z0.000000
G01 X170.171762 Y38.417522 Z0.000000
G01 X170.171798 Y38.417697 Z0.000000
G01 X170.171832 Y38.417875 Z0.000000
G01 X170.120541 Y38.425862 Z0.000000
G01 X170.070980 Y38.442852 Z0.000000
G01 X170.023626 Y38.468788 Z0.000000
G01 X169.978959 Y38.503642 Z0.000000
G01 X169.937452 Y38.547376 Z0.000000
G01 X169.899584 Y38.599956 Z0.000000
G01 X169.865835 Y38.661348 Z0.000000
G01 X169.836682 Y38.731514 Z0.000000
G01 X169.812608 Y38.810424 Z0.000000
G01 X169.794066 Y38.898039 Z0.000000
G01 X169.781564 Y38.994325 Z0.000000
G01 X169.775581 Y39.099253 Z0.000000
G01 X169.776710 Y39.212779 Z0.000000
G01 X169.785148 Y39.334877 Z0.000000
G01 X169.801545 Y39.465507 Z0.000000
G01 X169.826353 Y39.604636 Z0.000000
G01 X169.877788 Y39.805003 Z0.000000
G01 X169.929223 Y40.005369 Z0.000000
G01 X169.980658 Y40.205736 Z0.000000
G01 X170.032093 Y40.406102 Z0.000000
G01 X170.083528 Y40.606472 Z0.000000
G01 X170.134963 Y40.806838 Z0.000000
G01 X170.186398 Y41.007205 Z0.000000
G01 X170.237833 Y41.207571 Z0.000000
G01 X170.289268 Y41.407938 Z0.000000
G01 X170.340703 Y41.608304 Z0.000000
G01 X170.392138 Y41.808671 Z0.000000
G01 X170.443573 Y42.009040 Z0.000000
G01 X170.495010 Y42.209406 Z0.000000
G01 X170.546445 Y42.409773 Z0.000000
G01 X170.597880 Y42.610139 Z0.000000
G01 X170.649315 Y42.810506 Z0.000000
G01 X170.306334 Y42.859996 Z0.000000
G01 X169.963143 Y42.909247 Z0.000000
G01 X169.619501 Y42.957984 Z0.000000
G01 X169.275173 Y43.005934 Z0.000000
G01 X168.929916 Y43.052825 Z0.000000
G01 X168.583497 Y43.098384 Z0.000000
G01 X168.235672 Y43.142340 Z0.000000
G01 X167.886205 Y43.184417 Z0.000000
G01 X167.534855 Y43.224342 Z0.000000
G01 X167.181383 Y43.261847 Z0.000000
G01 X166.825554 Y43.296653 Z0.000000
G01 X166.467126 Y43.328494 Z0.000000
G01 X166.105865 Y43.357089 Z0.000000
G01 X165.741525 Y43.382178 Z0.000000
G01 X165.373874 Y43.403458 Z0.000000
G01 X165.002667 Y43.420701 Z0.000000
G01 X165.002667 Y43.420699 Z0.000000
G01 X165.002664 Y43.420693 Z0.000000
G01 X165.002664 Y43.420687 Z0.000000
G01 X165.002664 Y43.420684 Z0.000000
G01 X165.002664 Y43.420682 Z0.000000
G01 X165.002661 Y43.420676 Z0.000000
G01 X165.002661 Y43.420673 Z0.000000
G01 X165.002661 Y43.420668 Z0.000000
G01 X165.002661 Y43.420662 Z0.000000
G01 X165.002661 Y43.420659 Z0.000000
G01 X165.002661 Y43.420656 Z0.000000
G01 X165.002661 Y43.420651 Z0.000000
G01 X165.002661 Y43.420648 Z0.000000
G01 X165.002661 Y43.420642 Z0.000000
G01 X165.002661 Y43.420637 Z0.000000
G01 X165.002503 Y43.420710 Z0.000000
G00 Z18.000000

(Change tool to Default tool)

G00 Z18.000000
G00 X169.825929 Y39.604803

G01 Z0.000000 F100.0(Penetrate)
G01 X169.877378 Y39.805144 Z0.000000 F400.000000
G01 X169.928827 Y40.005485 Z0.000000
G01 X169.980277 Y40.205826 Z0.000000
G01 X170.031726 Y40.406165 Z0.000000
G01 X170.083175 Y40.606506 Z0.000000
G01 X170.134624 Y40.806847 Z0.000000
G01 X170.186073 Y41.007188 Z0.000000
G01 X170.237522 Y41.207529 Z0.000000
G01 X170.288971 Y41.407870 Z0.000000
G01 X170.340420 Y41.608211 Z0.000000
G01 X170.391869 Y41.808552 Z0.000000
G01 X170.443319 Y42.008890 Z0.000000
G01 X170.494770 Y42.209231 Z0.000000
G01 X170.546220 Y42.409573 Z0.000000
G01 X170.597669 Y42.609914 Z0.000000
G01 X170.649118 Y42.810255 Z0.000000
G01 X170.725513 Y42.834413 Z0.000000
G01 X170.801907 Y42.858571 Z0.000000
G01 X170.878302 Y42.882729 Z0.000000
G01 X170.954697 Y42.906888 Z0.000000
G01 X171.031091 Y42.931046 Z0.000000
G01 X171.107486 Y42.955204 Z0.000000
G01 X171.183881 Y42.979362 Z0.000000
G01 X171.260276 Y43.003521 Z0.000000
G01 X171.336670 Y43.027679 Z0.000000
G01 X171.413065 Y43.051837 Z0.000000
G01 X171.489460 Y43.075995 Z0.000000
G01 X171.565852 Y43.100153 Z0.000000
G01 X171.642247 Y43.124312 Z0.000000
G01 X171.718641 Y43.148470 Z0.000000
G01 X171.795036 Y43.172628 Z0.000000
G01 X171.871431 Y43.196786 Z0.000000
G01 X171.871431 Y43.155080 Z0.000000
G01 X171.871431 Y43.113376 Z0.000000
G01 X171.871431 Y43.071669 Z0.000000
G01 X171.871431 Y43.029965 Z0.000000
G01 X171.871431 Y42.988258 Z0.000000
G01 X171.871431 Y42.946554 Z0.000000
G01 X171.871431 Y42.904847 Z0.000000
G01 X171.871431 Y42.863143 Z0.000000
G01 X171.871431 Y42.821439 Z0.000000
G01 X171.871431 Y42.779732 Z0.000000
G01 X171.871431 Y42.738028 Z0.000000
G01 X171.871431 Y42.696322 Z0.000000
G01 X171.871431 Y42.654618 Z0.000000
G01 X171.871431 Y42.612914 Z0.000000
G01 X171.871431 Y42.571207 Z0.000000
G01 X171.871431 Y42.529503 Z0.000000
G01 X171.834846 Y42.524818 Z0.000000
G01 X171.798753 Y42.519004 Z0.000000
G01 X171.763249 Y42.511808 Z0.000000
G01 X171.728446 Y42.502974 Z0.000000
G01 X171.694446 Y42.492278 Z0.000000
G01 X171.661359 Y42.479437 Z0.000000
G01 X171.629284 Y42.464253 Z0.000000
G01 X171.598330 Y42.446445 Z0.000000
G01 X171.568603 Y42.425758 Z0.000000
G01 X171.540209 Y42.401995 Z0.000000
G01 X171.513257 Y42.374873 Z0.000000
G01 X171.487829 Y42.344139 Z0.000000
G01 X171.464066 Y42.309561 Z0.000000
G01 X171.442052 Y42.270889 Z0.000000
G01 X171.421902 Y42.227881 Z0.000000
G01 X171.403698 Y42.180287 Z0.000000
G01 X171.365110 Y41.993199 Z0.000000
G01 X171.326525 Y41.806108 Z0.000000
G01 X171.287936 Y41.619020 Z0.000000
G01 X171.249351 Y41.431932 Z0.000000
G01 X171.210763 Y41.244844 Z0.000000
G01 X171.172177 Y41.057754 Z0.000000
G01 X171.133589 Y40.870666 Z0.000000
G01 X171.095004 Y40.683578 Z0.000000
G01 X171.056415 Y40.496490 Z0.000000
G01 X171.017830 Y40.309399 Z0.000000
G01 X170.979242 Y40.122311 Z0.000000
G01 X170.940653 Y39.935223 Z0.000000
G01 X170.902068 Y39.748135 Z0.000000
G01 X170.863480 Y39.561044 Z0.000000
G01 X170.824894 Y39.373956 Z0.000000
G01 X170.786306 Y39.186869 Z0.000000
G01 X170.729715 Y38.981716 Z0.000000
G01 X170.659004 Y38.808609 Z0.000000
G01 X170.577103 Y38.667292 Z0.000000
G01 X170.486939 Y38.557502 Z0.000000
G01 X170.391440 Y38.478982 Z0.000000
G01 X170.293529 Y38.431473 Z0.000000
G01 X170.196137 Y38.414709 Z0.000000
G01 X170.102191 Y38.428425 Z0.000000
G01 X170.014617 Y38.472381 Z0.000000
G01 X169.936343 Y38.546309 Z0.000000
G01 X169.870297 Y38.649946 Z0.000000
G01 X169.819404 Y38.783031 Z0.000000
G01 X169.786593 Y38.945309 Z0.000000
G01 X169.774796 Y39.136517 Z0.000000
G01 X169.786932 Y39.356394 Z0.000000
G01 X169.825929 Y39.604803 Z0.000000
G00 Z18.000000

(Change tool to Default tool)

G00 Z18.000000
G00 X170.325590 Y40.031839

G01 Z0.000000 F100.0(Penetrate)
G01 X170.293597 Y40.028227 Z0.000000 F400.000000
G01 X170.261788 Y40.017587 Z0.000000
G01 X170.230348 Y40.000287 Z0.000000
G01 X170.199476 Y39.976665 Z0.000000
G01 X170.169360 Y39.947096 Z0.000000
G01 X170.140192 Y39.911923 Z0.000000
G01 X170.112167 Y39.871497 Z0.000000
G01 X170.085469 Y39.826175 Z0.000000
G01 X170.060295 Y39.776307 Z0.000000
G01 X170.036842 Y39.722244 Z0.000000
G01 X170.015309 Y39.664341 Z0.000000
G01 X169.995892 Y39.602952 Z0.000000
G01 X169.978761 Y39.538430 Z0.000000
G01 X169.964114 Y39.471126 Z0.000000
G01 X169.952147 Y39.401394 Z0.000000
G01 X169.943060 Y39.329585 Z0.000000
G01 X169.937161 Y39.257780 Z0.000000
G01 X169.934621 Y39.188048 Z0.000000
G01 X169.935186 Y39.120744 Z0.000000
G01 X169.938855 Y39.056219 Z0.000000
G01 X169.945459 Y38.994830 Z0.000000
G01 X169.954913 Y38.936930 Z0.000000
G01 X169.967077 Y38.882867 Z0.000000
G01 X169.981837 Y38.832999 Z0.000000
G01 X169.999081 Y38.787674 Z0.000000
G01 X170.018667 Y38.747248 Z0.000000
G01 X170.040483 Y38.712075 Z0.000000
G01 X170.064415 Y38.682506 Z0.000000
G01 X170.090352 Y38.658884 Z0.000000
G01 X170.118179 Y38.641584 Z0.000000
G01 X170.147770 Y38.630944 Z0.000000
G01 X170.179003 Y38.627332 Z0.000000
G01 X170.189248 Y38.625639 Z0.000000
G01 X170.199464 Y38.623945 Z0.000000
G01 X170.209681 Y38.622252 Z0.000000
G01 X170.219926 Y38.620559 Z0.000000
G01 X170.230142 Y38.618865 Z0.000000
G01 X170.240387 Y38.617172 Z0.000000
G01 X170.250603 Y38.615479 Z0.000000
G01 X170.260848 Y38.613785 Z0.000000
G01 X170.271064 Y38.612092 Z0.000000
G01 X170.281309 Y38.610399 Z0.000000
G01 X170.291525 Y38.608705 Z0.000000
G01 X170.301742 Y38.607012 Z0.000000
G01 X170.311986 Y38.605319 Z0.000000
G01 X170.322203 Y38.603625 Z0.000000
G01 X170.332448 Y38.601932 Z0.000000
G01 X170.342664 Y38.600239 Z0.000000
G01 X170.315345 Y38.611443 Z0.000000
G01 X170.289634 Y38.628320 Z0.000000
G01 X170.265617 Y38.650559 Z0.000000
G01 X170.243378 Y38.677906 Z0.000000
G01 X170.222974 Y38.710034 Z0.000000
G01 X170.204516 Y38.746661 Z0.000000
G01 X170.188091 Y38.787496 Z0.000000
G01 X170.173754 Y38.832251 Z0.000000
G01 X170.161618 Y38.880632 Z0.000000
G01 X170.151741 Y38.932346 Z0.000000
G01 X170.144205 Y38.987109 Z0.000000
G01 X170.139125 Y39.044623 Z0.000000
G01 X170.136585 Y39.104601 Z0.000000
G01 X170.136619 Y39.166752 Z0.000000
G01 X170.139441 Y39.230782 Z0.000000
G01 X170.144917 Y39.296405 Z0.000000
G01 X170.154004 Y39.368213 Z0.000000
G01 X170.165970 Y39.437945 Z0.000000
G01 X170.180618 Y39.505249 Z0.000000
G01 X170.197749 Y39.569771 Z0.000000
G01 X170.217165 Y39.631160 Z0.000000
G01 X170.238699 Y39.689063 Z0.000000
G01 X170.262152 Y39.743126 Z0.000000
G01 X170.287326 Y39.792994 Z0.000000
G01 X170.314024 Y39.838316 Z0.000000
G01 X170.342049 Y39.878742 Z0.000000
G01 X170.371216 Y39.913915 Z0.000000
G01 X170.401332 Y39.943484 Z0.000000
G01 X170.432205 Y39.967106 Z0.000000
G01 X170.463644 Y39.984406 Z0.000000
G01 X170.495453 Y39.995046 Z0.000000
G01 X170.527446 Y39.998658 Z0.000000
G01 X170.517258 Y40.000352 Z0.000000
G01 X170.507070 Y40.002045 Z0.000000
G01 X170.496882 Y40.003738 Z0.000000
G01 X170.486693 Y40.005432 Z0.000000
G01 X170.476505 Y40.007125 Z0.000000
G01 X170.466317 Y40.008818 Z0.000000
G01 X170.456129 Y40.010512 Z0.000000
G01 X170.445940 Y40.012205 Z0.000000
G01 X170.435752 Y40.013898 Z0.000000
G01 X170.425564 Y40.015592 Z0.000000
G01 X170.415376 Y40.017285 Z0.000000
G01 X170.405188 Y40.018978 Z0.000000
G01 X170.394999 Y40.020672 Z0.000000
G01 X170.384811 Y40.022365 Z0.000000
G01 X170.374623 Y40.024058 Z0.000000
G01 X170.364435 Y40.025752 Z0.000000
G01 X170.362177 Y40.026598 Z0.000000
G01 X170.359919 Y40.027163 Z0.000000
G01 X170.357661 Y40.027727 Z0.000000
G01 X170.355404 Y40.028292 Z0.000000
G01 X170.353146 Y40.028856 Z0.000000
G01 X170.350606 Y40.029420 Z0.000000
G01 X170.348066 Y40.029985 Z0.000000
G01 X170.345526 Y40.030267 Z0.000000
G01 X170.342986 Y40.030549 Z0.000000
G01 X170.340446 Y40.030832 Z0.000000
G01 X170.337906 Y40.031114 Z0.000000
G01 X170.335366 Y40.031351 Z0.000000
G01 X170.332826 Y40.031537 Z0.000000
G01 X170.330286 Y40.031667 Z0.000000
G01 X170.327746 Y40.031749 Z0.000000
G01 X170.325206 Y40.031774 Z0.000000
G01 X170.325206 Y40.031774 Z0.000000
G01 X170.325206 Y40.031774 Z0.000000
G01 X170.325206 Y40.031774 Z0.000000
G01 X170.325206 Y40.031771 Z0.000000
G01 X170.325206 Y40.031771 Z0.000000
G01 X170.325206 Y40.031771 Z0.000000
G01 X170.325206 Y40.031771 Z0.000000
G01 X170.325206 Y40.031771 Z0.000000
G01 X170.325206 Y40.031760 Z0.000000
G01 X170.325206 Y40.031749 Z0.000000
G01 X170.325203 Y40.031737 Z0.000000
G01 X170.325203 Y40.031729 Z0.000000
G01 X170.325203 Y40.031718 Z0.000000
G01 X170.325200 Y40.031706 Z0.000000
G01 X170.325200 Y40.031695 Z0.000000
G01 X170.325590 Y40.031839 Z0.000000
G00 Z18.000000

(Change tool to Default tool)

G00 Z18.000000
G00 X168.988342 Y40.424856

G01 Z0.000000 F100.0(Penetrate)
G01 X168.966949 Y40.359152 Z0.000000 F400.000000
G01 X168.946347 Y40.292593 Z0.000000
G01 X168.926563 Y40.225223 Z0.000000
G01 X168.907626 Y40.157095 Z0.000000
G01 X168.889507 Y40.088252 Z0.000000
G01 X168.872235 Y40.018744 Z0.000000
G01 X168.855838 Y39.948620 Z0.000000
G01 X168.840316 Y39.877926 Z0.000000
G01 X168.825669 Y39.806710 Z0.000000
G01 X168.811896 Y39.735023 Z0.000000
G01 X168.799027 Y39.662907 Z0.000000
G01 X168.787061 Y39.590415 Z0.000000
G01 X168.776026 Y39.517593 Z0.000000
G01 X168.765922 Y39.444487 Z0.000000
G01 X168.756750 Y39.371148 Z0.000000
G01 X168.748537 Y39.297621 Z0.000000
G01 X168.742131 Y39.231753 Z0.000000
G01 X168.736515 Y39.166021 Z0.000000
G01 X168.731689 Y39.100461 Z0.000000
G01 X168.727653 Y39.035106 Z0.000000
G01 X168.724436 Y38.969992 Z0.000000
G01 X168.721896 Y38.905154 Z0.000000
G01 X168.720202 Y38.840624 Z0.000000
G01 X168.719356 Y38.776441 Z0.000000
G01 X168.719322 Y38.712636 Z0.000000
G01 X168.720168 Y38.649244 Z0.000000
G01 X168.721580 Y38.586302 Z0.000000
G01 X168.723837 Y38.523841 Z0.000000
G01 X168.726942 Y38.461899 Z0.000000
G01 X168.730865 Y38.400510 Z0.000000
G01 X168.735578 Y38.339708 Z0.000000
G01 X168.741081 Y38.279527 Z0.000000
G01 X168.787487 Y38.278116 Z0.000000
G01 X168.833893 Y38.276705 Z0.000000
G01 X168.880299 Y38.275294 Z0.000000
G01 X168.926701 Y38.273882 Z0.000000
G01 X168.973107 Y38.272471 Z0.000000
G01 X169.019513 Y38.271060 Z0.000000
G01 X169.065919 Y38.269649 Z0.000000
G01 X169.112325 Y38.268238 Z0.000000
G01 X169.158730 Y38.266827 Z0.000000
G01 X169.205136 Y38.265416 Z0.000000
G01 X169.251542 Y38.264005 Z0.000000
G01 X169.297945 Y38.262594 Z0.000000
G01 X169.344351 Y38.261182 Z0.000000
G01 X169.390757 Y38.259771 Z0.000000
G01 X169.437162 Y38.258360 Z0.000000
G01 X169.483568 Y38.256949 Z0.000000
G01 X169.436347 Y38.262424 Z0.000000
G01 X169.391612 Y38.278511 Z0.000000
G01 X169.349544 Y38.304673 Z0.000000
G01 X169.310323 Y38.340366 Z0.000000
G01 X169.274128 Y38.385067 Z0.000000
G01 X169.241137 Y38.438240 Z0.000000
G01 X169.211531 Y38.499353 Z0.000000
G01 X169.185482 Y38.567873 Z0.000000
G01 X169.163187 Y38.643266 Z0.000000
G01 X169.144814 Y38.724998 Z0.000000
G01 X169.130534 Y38.812535 Z0.000000
G01 X169.120543 Y38.905343 Z0.000000
G01 X169.115011 Y39.002888 Z0.000000
G01 X169.114165 Y39.104640 Z0.000000
G01 X169.118088 Y39.210062 Z0.000000
G01 X169.127006 Y39.318618 Z0.000000
G01 X169.137871 Y39.407225 Z0.000000
G01 X169.151729 Y39.494121 Z0.000000
G01 X169.168436 Y39.578971 Z0.000000
G01 X169.187825 Y39.661431 Z0.000000
G01 X169.209753 Y39.741161 Z0.000000
G01 X169.234053 Y39.817827 Z0.000000
G01 X169.260610 Y39.891086 Z0.000000
G01 X169.289247 Y39.960601 Z0.000000
G01 X169.319826 Y40.026028 Z0.000000
G01 X169.352194 Y40.087030 Z0.000000
G01 X169.386207 Y40.143272 Z0.000000
G01 X169.421716 Y40.194405 Z0.000000
G01 X169.458569 Y40.240099 Z0.000000
G01 X169.496618 Y40.280008 Z0.000000
G01 X169.535714 Y40.313796 Z0.000000
G01 X169.575711 Y40.341115 Z0.000000
G01 X169.576558 Y40.344050 Z0.000000
G01 X169.577404 Y40.346985 Z0.000000
G01 X169.578251 Y40.349920 Z0.000000
G01 X169.579098 Y40.352856 Z0.000000
G01 X169.579944 Y40.355791 Z0.000000
G01 X169.580791 Y40.358726 Z0.000000
G01 X169.581638 Y40.361661 Z0.000000
G01 X169.582484 Y40.364596 Z0.000000
G01 X169.583331 Y40.367531 Z0.000000
G01 X169.584178 Y40.370466 Z0.000000
G01 X169.585024 Y40.373401 Z0.000000
G01 X169.585871 Y40.376336 Z0.000000
G01 X169.586718 Y40.379272 Z0.000000
G01 X169.587564 Y40.382207 Z0.000000
G01 X169.588411 Y40.385142 Z0.000000
G01 X169.589258 Y40.388077 Z0.000000
G01 X169.551810 Y40.390617 Z0.000000
G01 X169.514362 Y40.393157 Z0.000000
G01 X169.476913 Y40.395697 Z0.000000
G01 X169.439465 Y40.398237 Z0.000000
G01 X169.402017 Y40.400777 Z0.000000
G01 X169.364569 Y40.403317 Z0.000000
G01 X169.327121 Y40.405857 Z0.000000
G01 X169.289673 Y40.408397 Z0.000000
G01 X169.252225 Y40.410937 Z0.000000
G01 X169.214777 Y40.413477 Z0.000000
G01 X169.177329 Y40.416017 Z0.000000
G01 X169.139881 Y40.418557 Z0.000000
G01 X169.102433 Y40.421097 Z0.000000
G01 X169.064985 Y40.423637 Z0.000000
G01 X169.027537 Y40.426177 Z0.000000
G01 X168.990089 Y40.428717 Z0.000000
G01 X168.990089 Y40.428717 Z0.000000
G01 X168.990089 Y40.428717 Z0.000000
G01 X168.990089 Y40.428717 Z0.000000
G01 X168.990089 Y40.428720 Z0.000000
G01 X168.990091 Y40.428720 Z0.000000
G01 X168.990091 Y40.428720 Z0.000000
G01 X168.990091 Y40.428720 Z0.000000
G01 X168.990091 Y40.428720 Z0.000000
G01 X168.990091 Y40.428720 Z0.000000
G01 X168.990091 Y40.428720 Z0.000000
G01 X168.990091 Y40.428720 Z0.000000
G01 X168.990089 Y40.428720 Z0.000000
G01 X168.990089 Y40.428717 Z0.000000
G01 X168.990089 Y40.428717 Z0.000000
G01 X168.990089 Y40.428717 Z0.000000
G01 X168.988342 Y40.424856 Z0.000000
G00 Z18.000000

(Change tool to Default tool)

G00 Z18.000000
G00 X170.763370 Y39.297624

G01 Z0.000000 F100.0(Penetrate)
G01 X170.754282 Y39.225812 Z0.000000 F400.000000
G01 X170.742316 Y39.156075 Z0.000000
G01 X170.727669 Y39.088765 Z0.000000
G01 X170.710538 Y39.024235 Z0.000000
G01 X170.691121 Y38.962838 Z0.000000
G01 X170.669587 Y38.904929 Z0.000000
G01 X170.646135 Y38.850860 Z0.000000
G01 X170.620961 Y38.800983 Z0.000000
G01 X170.594262 Y38.755653 Z0.000000
G01 X170.566238 Y38.715219 Z0.000000
G01 X170.537073 Y38.680040 Z0.000000
G01 X170.506954 Y38.650463 Z0.000000
G01 X170.476082 Y38.626841 Z0.000000
G01 X170.444642 Y38.609541 Z0.000000
G01 X170.412827 Y38.598901 Z0.000000
G01 X170.380835 Y38.595260 Z0.000000
G01 X170.349598 Y38.598901 Z0.000000
G01 X170.320007 Y38.609541 Z0.000000
G01 X170.292180 Y38.626841 Z0.000000
G01 X170.266244 Y38.650463 Z0.000000
G01 X170.242311 Y38.680040 Z0.000000
G01 X170.220496 Y38.715219 Z0.000000
G01 X170.200909 Y38.755653 Z0.000000
G01 X170.183694 Y38.800983 Z0.000000
G01 X170.168934 Y38.850860 Z0.000000
G01 X170.156770 Y38.904929 Z0.000000
G01 X170.147315 Y38.962838 Z0.000000
G01 X170.140711 Y39.024235 Z0.000000
G01 X170.137043 Y39.088765 Z0.000000
G01 X170.136478 Y39.156075 Z0.000000
G01 X170.139018 Y39.225812 Z0.000000
G01 X170.144917 Y39.297624 Z0.000000
G01 X170.154004 Y39.369435 Z0.000000
G01 X170.165970 Y39.439172 Z0.000000
G01 X170.180618 Y39.506482 Z0.000000
G01 X170.197749 Y39.571012 Z0.000000
G01 X170.217165 Y39.632410 Z0.000000
G01 X170.238699 Y39.690319 Z0.000000
G01 X170.262152 Y39.744390 Z0.000000
G01 X170.287326 Y39.794267 Z0.000000
G01 X170.314024 Y39.839598 Z0.000000
G01 X170.342049 Y39.880032 Z0.000000
G01 X170.371216 Y39.915211 Z0.000000
G01 X170.401335 Y39.944788 Z0.000000
G01 X170.432207 Y39.968410 Z0.000000
G01 X170.463647 Y39.985710 Z0.000000
G01 X170.495462 Y39.996350 Z0.000000
G01 X170.527455 Y39.999990 Z0.000000
G01 X170.558691 Y39.996350 Z0.000000
G01 X170.588282 Y39.985710 Z0.000000
G01 X170.616109 Y39.968410 Z0.000000
G01 X170.642045 Y39.944788 Z0.000000
G01 X170.665978 Y39.915211 Z0.000000
G01 X170.687794 Y39.880032 Z0.000000
G01 X170.707380 Y39.839598 Z0.000000
G01 X170.724595 Y39.794267 Z0.000000
G01 X170.739356 Y39.744390 Z0.000000
G01 X170.751519 Y39.690319 Z0.000000
G01 X170.760974 Y39.632410 Z0.000000
G01 X170.767578 Y39.571015 Z0.000000
G01 X170.771247 Y39.506485 Z0.000000
G01 X170.771811 Y39.439175 Z0.000000
G01 X170.769271 Y39.369435 Z0.000000
G01 X170.763370 Y39.297624 Z0.000000
G00 Z18.000000

(Change tool to Default tool)

G00 Z18.000000
G00 X169.575386 Y40.338315

G01 Z0.000000 F100.0(Penetrate)
G01 X169.535438 Y40.310940 Z0.000000 F400.000000
G01 X169.496387 Y40.277110 Z0.000000
G01 X169.458386 Y40.237175 Z0.000000
G01 X169.421578 Y40.191472 Z0.000000
G01 X169.386117 Y40.140339 Z0.000000
G01 X169.352149 Y40.084115 Z0.000000
G01 X169.319823 Y40.023138 Z0.000000
G01 X169.289286 Y39.957750 Z0.000000
G01 X169.260689 Y39.888287 Z0.000000
G01 X169.234188 Y39.815087 Z0.000000
G01 X169.209917 Y39.738489 Z0.000000
G01 X169.188017 Y39.658829 Z0.000000
G01 X169.168656 Y39.576451 Z0.000000
G01 X169.151977 Y39.491691 Z0.000000
G01 X169.138120 Y39.404885 Z0.000000
G01 X169.127254 Y39.316375 Z0.000000
G01 X169.118336 Y39.207818 Z0.000000
G01 X169.114413 Y39.102397 Z0.000000
G01 X169.115260 Y39.000644 Z0.000000
G01 X169.120791 Y38.903100 Z0.000000
G01 X169.130782 Y38.810291 Z0.000000
G01 X169.145062 Y38.722754 Z0.000000
G01 X169.163435 Y38.641023 Z0.000000
G01 X169.185731 Y38.565630 Z0.000000
G01 X169.211780 Y38.497109 Z0.000000
G01 X169.241385 Y38.435997 Z0.000000
G01 X169.274377 Y38.382823 Z0.000000
G01 X169.310572 Y38.338122 Z0.000000
G01 X169.349792 Y38.302429 Z0.000000
G01 X169.391860 Y38.276267 Z0.000000
G01 X169.436595 Y38.260181 Z0.000000
G01 X169.483817 Y38.254705 Z0.000000
G01 X169.504278 Y38.255552 Z0.000000
G01 X169.524852 Y38.258515 Z0.000000
G01 X169.545482 Y38.263454 Z0.000000
G01 X169.566169 Y38.270341 Z0.000000
G01 X169.586856 Y38.279174 Z0.000000
G01 X169.607543 Y38.289899 Z0.000000
G01 X169.628202 Y38.302514 Z0.000000
G01 X169.648776 Y38.317020 Z0.000000
G01 X169.669265 Y38.333361 Z0.000000
G01 X169.689613 Y38.351536 Z0.000000
G01 X169.709792 Y38.371517 Z0.000000
G01 X169.729802 Y38.393277 Z0.000000
G01 X169.749585 Y38.416786 Z0.000000
G01 X169.769143 Y38.442045 Z0.000000
G01 X169.788419 Y38.469025 Z0.000000
G01 X169.807384 Y38.497699 Z0.000000
G01 X169.752444 Y38.519769 Z0.000000
G01 X169.698537 Y38.545987 Z0.000000
G01 X169.646283 Y38.576885 Z0.000000
G01 X169.596302 Y38.612967 Z0.000000
G01 X169.549213 Y38.654739 Z0.000000
G01 X169.505632 Y38.702722 Z0.000000
G01 X169.466181 Y38.757428 Z0.000000
G01 X169.431476 Y38.819370 Z0.000000
G01 X169.402136 Y38.889062 Z0.000000
G01 X169.378768 Y38.967017 Z0.000000
G01 X169.362004 Y39.053747 Z0.000000
G01 X169.352465 Y39.149770 Z0.000000
G01 X169.350771 Y39.255598 Z0.000000
G01 X169.357545 Y39.371741 Z0.000000
G01 X169.373377 Y39.498718 Z0.000000
G01 X169.398919 Y39.637041 Z0.000000
G01 X169.409953 Y39.680862 Z0.000000
G01 X169.420988 Y39.724685 Z0.000000
G01 X169.432023 Y39.768506 Z0.000000
G01 X169.443058 Y39.812329 Z0.000000
G01 X169.454093 Y39.856150 Z0.000000
G01 X169.465128 Y39.899971 Z0.000000
G01 X169.476163 Y39.943794 Z0.000000
G01 X169.487198 Y39.987615 Z0.000000
G01 X169.498233 Y40.031435 Z0.000000
G01 X169.509267 Y40.075259 Z0.000000
G01 X169.520302 Y40.119080 Z0.000000
G01 X169.531337 Y40.162900 Z0.000000
G01 X169.542372 Y40.206721 Z0.000000
G01 X169.553407 Y40.250544 Z0.000000
G01 X169.564442 Y40.294365 Z0.000000
G01 X169.575386 Y40.338315 Z0.000000
G00 Z18.000000

(Change tool to Default tool)

G00 Z18.000000
G00 X169.826189 Y39.604648

G01 Z0.000000 F100.0(Penetrate)
G01 X169.822238 Y39.584892 Z0.000000 F400.000000
G01 X169.818484 Y39.565334 Z0.000000
G01 X169.814928 Y39.545974 Z0.000000
G01 X169.811542 Y39.526811 Z0.000000
G01 X169.808352 Y39.507846 Z0.000000
G01 X169.805333 Y39.489050 Z0.000000
G01 X169.802482 Y39.470423 Z0.000000
G01 X169.799660 Y39.451966 Z0.000000
G01 X169.797120 Y39.433678 Z0.000000
G01 X169.794862 Y39.415531 Z0.000000
G01 X169.792604 Y39.397553 Z0.000000
G01 X169.790629 Y39.379717 Z0.000000
G01 X169.788653 Y39.362021 Z0.000000
G01 X169.786960 Y39.344467 Z0.000000
G01 X169.785267 Y39.327026 Z0.000000
G01 X169.783856 Y39.309726 Z0.000000
G01 X169.785267 Y39.326998 Z0.000000
G01 X169.786960 Y39.344411 Z0.000000
G01 X169.788653 Y39.361965 Z0.000000
G01 X169.790629 Y39.379660 Z0.000000
G01 X169.792604 Y39.397497 Z0.000000
G01 X169.794862 Y39.415474 Z0.000000
G01 X169.797120 Y39.433621 Z0.000000
G01 X169.799660 Y39.451909 Z0.000000
G01 X169.802482 Y39.470366 Z0.000000
G01 X169.805333 Y39.488993 Z0.000000
G01 X169.808352 Y39.507789 Z0.000000
G01 X169.811542 Y39.526783 Z0.000000
G01 X169.814928 Y39.545946 Z0.000000
G01 X169.818484 Y39.565306 Z0.000000
G01 X169.822238 Y39.584864 Z0.000000
G01 X169.826189 Y39.604648 Z0.000000
G00 Z18.000000

(Change tool to Default tool)

G00 Z18.000000
G00 X169.780438 Y39.228169

G01 Z0.000000 F100.0(Penetrate)
G01 X169.779873 Y39.216880 Z0.000000 F400.000000
G01 X169.779309 Y39.205648 Z0.000000
G01 X169.779027 Y39.194443 Z0.000000
G01 X169.778744 Y39.183296 Z0.000000
G01 X169.778462 Y39.172232 Z0.000000
G01 X169.778225 Y39.161226 Z0.000000
G01 X169.778039 Y39.150276 Z0.000000
G01 X169.777906 Y39.139410 Z0.000000
G01 X169.777836 Y39.128629 Z0.000000
G01 X169.777830 Y39.117933 Z0.000000
G01 X169.777895 Y39.107321 Z0.000000
G01 X169.778030 Y39.096794 Z0.000000
G01 X169.778239 Y39.086352 Z0.000000
G01 X169.778522 Y39.076023 Z0.000000
G01 X169.778804 Y39.065806 Z0.000000
G01 X169.779368 Y39.055675 Z0.000000
G01 X169.778804 Y39.065778 Z0.000000
G01 X169.778522 Y39.075995 Z0.000000
G01 X169.778239 Y39.086324 Z0.000000
G01 X169.778039 Y39.096766 Z0.000000
G01 X169.777918 Y39.107293 Z0.000000
G01 X169.777872 Y39.117933 Z0.000000
G01 X169.777889 Y39.128657 Z0.000000
G01 X169.777968 Y39.139466 Z0.000000
G01 X169.778112 Y39.150332 Z0.000000
G01 X169.778327 Y39.161282 Z0.000000
G01 X169.778598 Y39.172289 Z0.000000
G01 X169.778880 Y39.183380 Z0.000000
G01 X169.779162 Y39.194528 Z0.000000
G01 X169.779444 Y39.205704 Z0.000000
G01 X169.779727 Y39.216936 Z0.000000
G01 X169.780438 Y39.228169 Z0.000000
G00 Z18.000000

(Change tool to Default tool)

G00 Z18.000000
G00 X169.787042 Y38.976263

G01 Z0.000000 F100.0(Penetrate)
G01 X169.788171 Y38.967006 Z0.000000 F400.000000
G01 X169.789300 Y38.957834 Z0.000000
G01 X169.790428 Y38.948718 Z0.000000
G01 X169.791557 Y38.939687 Z0.000000
G01 X169.792686 Y38.930741 Z0.000000
G01 X169.793815 Y38.921879 Z0.000000
G01 X169.795226 Y38.913073 Z0.000000
G01 X169.796637 Y38.904353 Z0.000000
G01 X169.798048 Y38.895717 Z0.000000
G01 X169.799460 Y38.887165 Z0.000000
G01 X169.800871 Y38.878671 Z0.000000
G01 X169.802564 Y38.870260 Z0.000000
G01 X169.804257 Y38.861907 Z0.000000
G01 X169.805951 Y38.853637 Z0.000000
G01 X169.807644 Y38.845453 Z0.000000
G01 X169.809620 Y38.837353 Z0.000000
G01 X169.807644 Y38.845425 Z0.000000
G01 X169.805951 Y38.853581 Z0.000000
G01 X169.804257 Y38.861822 Z0.000000
G01 X169.802564 Y38.870176 Z0.000000
G01 X169.800871 Y38.878614 Z0.000000
G01 X169.799460 Y38.887137 Z0.000000
G01 X169.798048 Y38.895717 Z0.000000
G01 X169.796637 Y38.904381 Z0.000000
G01 X169.795226 Y38.913130 Z0.000000
G01 X169.793815 Y38.921935 Z0.000000
G01 X169.792404 Y38.930825 Z0.000000
G01 X169.791275 Y38.939772 Z0.000000
