%
(Header)
(Generated by gcodetools from Inkscape.)
(Using default header. To add your own header create file "header" in the output dir.)
M3
(Header end.)
G21 (All units in mm)

(Start cutting path id: path7270)
(Change tool to Default tool)

G00 Z5.000000
G00 X59.062857 Y72.276584

G01 Z0.000000 F100.0(Penetrate)
G01 X59.092848 Y72.158480 Z0.000000 F400.000000
G01 X59.121763 Y72.038274 Z0.000000
G01 X59.149841 Y71.916425 Z0.000000
G01 X59.177317 Y71.793401 Z0.000000
G01 X59.149952 Y71.916594 Z0.000000
G01 X59.121774 Y72.038274 Z0.000000
G01 X59.092757 Y72.158315 Z0.000000
G01 X59.062857 Y72.276584 Z0.000000
G00 Z5.000000

(End cutting path id: path7270)


(Start cutting path id: path7270)
(Change tool to Default tool)

G00 Z5.000000
G00 X59.062857 Y72.276584

G01 Z0.000000 F100.0(Penetrate)
G01 X59.092743 Y72.158315 Z0.000000 F400.000000
G01 X59.121761 Y72.038274 Z0.000000
G01 X59.149938 Y71.916594 Z0.000000
G01 X59.177303 Y71.793401 Z0.000000
G01 X59.149828 Y71.916425 Z0.000000
G01 X59.121750 Y72.038274 Z0.000000
G01 X59.092834 Y72.158480 Z0.000000
G01 X59.062857 Y72.276584 Z0.000000
G00 Z5.000000

(End cutting path id: path7270)


(Start cutting path id: path7270)
(Change tool to Default tool)

G00 Z5.000000
G00 X59.062857 Y72.276584

G01 Z0.000000 F100.0(Penetrate)
G01 X59.092743 Y72.158315 Z0.000000 F400.000000
G01 X59.121761 Y72.038274 Z0.000000
G01 X59.149938 Y71.916594 Z0.000000
G01 X59.177303 Y71.793401 Z0.000000
G01 X59.149828 Y71.916425 Z0.000000
G01 X59.121750 Y72.038274 Z0.000000
G01 X59.092834 Y72.158480 Z0.000000
G01 X59.062857 Y72.276584 Z0.000000
G00 Z5.000000

(End cutting path id: path7270)


(Start cutting path id: path7270)
(Change tool to Default tool)

G00 Z5.000000
G00 X58.826393 Y73.066417

G01 Z0.000000 F100.0(Penetrate)
G01 X58.870517 Y72.934844 Z0.000000 F400.000000
G01 X58.913317 Y72.799147 Z0.000000
G01 X58.955036 Y72.660227 Z0.000000
G01 X58.995912 Y72.518988 Z0.000000
G01 X58.955174 Y72.660481 Z0.000000
G01 X58.913375 Y72.799202 Z0.000000
G01 X58.870465 Y72.934675 Z0.000000
G01 X58.826393 Y73.066417 Z0.000000
G00 Z5.000000

(End cutting path id: path7270)


(Start cutting path id: path7270)
(Change tool to Default tool)

G00 Z5.000000
G00 X58.826393 Y73.066417

G01 Z0.000000 F100.0(Penetrate)
G01 X58.870465 Y72.934675 Z0.000000 F400.000000
G01 X58.913375 Y72.799202 Z0.000000
G01 X58.955174 Y72.660481 Z0.000000
G01 X58.995912 Y72.518988 Z0.000000
G01 X58.955036 Y72.660227 Z0.000000
G01 X58.913317 Y72.799147 Z0.000000
G01 X58.870517 Y72.934844 Z0.000000
G01 X58.826393 Y73.066417 Z0.000000
G00 Z5.000000

(End cutting path id: path7270)


(Start cutting path id: path7270)
(Change tool to Default tool)

G00 Z5.000000
G00 X58.826393 Y73.066417

G01 Z0.000000 F100.0(Penetrate)
G01 X58.870465 Y72.934675 Z0.000000 F400.000000
G01 X58.913375 Y72.799202 Z0.000000
G01 X58.955174 Y72.660481 Z0.000000
G01 X58.995912 Y72.518988 Z0.000000
G01 X58.955036 Y72.660227 Z0.000000
G01 X58.913317 Y72.799147 Z0.000000
G01 X58.870517 Y72.934844 Z0.000000
G01 X58.826393 Y73.066417 Z0.000000
G00 Z5.000000

(End cutting path id: path7270)


(Start cutting path id: path7270)
(Change tool to Default tool)

G00 Z5.000000
G00 X55.415492 Y76.392020

G01 Z0.000000 F100.0(Penetrate)
G01 X55.273774 Y76.304291 Z0.000000 F400.000000
G01 X55.132057 Y76.216560 Z0.000000
G01 X54.990343 Y76.128832 Z0.000000
G01 X54.848625 Y76.041101 Z0.000000
G01 X54.855370 Y75.798158 Z0.000000
G01 X54.862114 Y75.555218 Z0.000000
G01 X54.868859 Y75.312278 Z0.000000
G01 X54.875603 Y75.069336 Z0.000000
G01 X55.010571 Y75.153691 Z0.000000
G01 X55.145538 Y75.238045 Z0.000000
G01 X55.280508 Y75.322401 Z0.000000
G01 X55.415475 Y75.406754 Z0.000000
G01 X55.415475 Y75.653069 Z0.000000
G01 X55.415475 Y75.899387 Z0.000000
G01 X55.415475 Y76.145704 Z0.000000
G01 X55.415475 Y76.392020 Z0.000000
G01 X55.415472 Y76.392020 Z0.000000
G01 X55.415470 Y76.392020 Z0.000000
G01 X55.415467 Y76.392020 Z0.000000
G01 X55.415492 Y76.392020 Z0.000000
G00 Z5.000000

(End cutting path id: path7270)


(Start cutting path id: path7270)
(Change tool to Default tool)

G00 Z5.000000
G00 X54.848625 Y76.041104

G01 Z0.000000 F100.0(Penetrate)
G01 X54.990343 Y76.128835 Z0.000000 F400.000000
G01 X55.132057 Y76.216563 Z0.000000
G01 X55.273774 Y76.304294 Z0.000000
G01 X55.415492 Y76.392022 Z0.000000
G01 X55.415492 Y76.145707 Z0.000000
G01 X55.415492 Y75.899389 Z0.000000
G01 X55.415492 Y75.653074 Z0.000000
G01 X55.415492 Y75.406757 Z0.000000
G01 X55.280519 Y75.322403 Z0.000000
G01 X55.145546 Y75.238047 Z0.000000
G01 X55.010576 Y75.153694 Z0.000000
G01 X54.875603 Y75.069338 Z0.000000
G01 X54.868859 Y75.312281 Z0.000000
G01 X54.862114 Y75.555221 Z0.000000
G01 X54.855370 Y75.798164 Z0.000000
G01 X54.848625 Y76.041104 Z0.000000
G00 Z5.000000

(End cutting path id: path7270)


(Start cutting path id: path7270)
(Change tool to Default tool)

G00 Z5.000000
G00 X55.415492 Y77.444769

G01 Z0.000000 F100.0(Penetrate)
G01 X46.103475 Y79.317132 Z0.000000 F400.000000
G01 X36.791455 Y81.189495 Z0.000000
G01 X27.479438 Y83.061856 Z0.000000
G01 X18.167420 Y84.934219 Z0.000000
G01 X16.913765 Y84.873797 Z0.000000
G01 X15.660110 Y84.813376 Z0.000000
G01 X14.406456 Y84.752952 Z0.000000
G01 X13.152801 Y84.692531 Z0.000000
G01 X23.576758 Y82.529673 Z0.000000
G01 X34.000713 Y80.366819 Z0.000000
G01 X44.424670 Y78.203961 Z0.000000
G01 X54.848625 Y76.041104 Z0.000000
G01 X54.990343 Y76.128835 Z0.000000
G01 X55.132057 Y76.216563 Z0.000000
G01 X55.273774 Y76.304294 Z0.000000
G01 X55.415492 Y76.392022 Z0.000000
G01 X55.415492 Y76.655210 Z0.000000
G01 X55.415492 Y76.918397 Z0.000000
G01 X55.415492 Y77.181582 Z0.000000
G01 X55.415492 Y77.444769 Z0.000000
G00 Z5.000000

(End cutting path id: path7270)


(Start cutting path id: path7270)
(Change tool to Default tool)

G00 Z5.000000
G00 X55.415492 Y78.230815

G01 Z0.000000 F100.0(Penetrate)
G01 X47.126012 Y79.862753 Z0.000000 F400.000000
G01 X38.836530 Y81.494692 Z0.000000
G01 X30.547048 Y83.126630 Z0.000000
G01 X22.257568 Y84.758569 Z0.000000
G01 X22.257568 Y85.117459 Z0.000000
G01 X22.257568 Y85.476352 Z0.000000
G01 X22.257568 Y85.835242 Z0.000000
G01 X22.257568 Y86.194135 Z0.000000
G01 X30.811899 Y84.607547 Z0.000000
G01 X39.366227 Y83.020963 Z0.000000
G01 X47.920558 Y81.434376 Z0.000000
G01 X56.474886 Y79.847791 Z0.000000
G01 X56.210038 Y79.834136 Z0.000000
G01 X55.945189 Y79.820481 Z0.000000
G01 X55.680340 Y79.806827 Z0.000000
G01 X55.415492 Y79.793172 Z0.000000
G01 X55.415492 Y79.402574 Z0.000000
G01 X55.415492 Y79.011977 Z0.000000
G01 X55.415492 Y78.621382 Z0.000000
G01 X55.415492 Y78.230815 Z0.000000
G00 Z5.000000

(End cutting path id: path7270)


(Start cutting path id: path7270)
(Change tool to Default tool)

G00 Z5.000000
G00 X55.415492 Y79.793202

G01 Z0.000000 F100.0(Penetrate)
G01 X55.415492 Y78.650162 Z0.000000 F400.000000
G01 X55.415492 Y77.507120 Z0.000000
G01 X55.415492 Y76.364080 Z0.000000
G01 X55.415492 Y75.221040 Z0.000000
G01 X55.422679 Y75.020336 Z0.000000
G01 X55.444432 Y74.835324 Z0.000000
G01 X55.480999 Y74.655025 Z0.000000
G01 X55.532644 Y74.468459 Z0.000000
G01 X56.358646 Y70.338821 Z0.000000
G01 X56.100011 Y66.542746 Z0.000000
G01 X54.546920 Y63.688547 Z0.000000
G01 X51.489554 Y62.384537 Z0.000000
G01 X50.411027 Y62.293838 Z0.000000
G01 X49.332502 Y62.203141 Z0.000000
G01 X48.253974 Y62.112441 Z0.000000
G01 X47.175449 Y62.021744 Z0.000000
G01 X45.509089 Y61.700695 Z0.000000
G01 X44.315725 Y60.983559 Z0.000000
G01 X43.597867 Y59.759624 Z0.000000
G01 X43.358023 Y57.918186 Z0.000000
G01 X43.358023 Y56.524779 Z0.000000
G01 X43.358023 Y55.131375 Z0.000000
G01 X43.358023 Y53.737967 Z0.000000
G01 X43.358023 Y52.344563 Z0.000000
G01 X44.057695 Y52.139411 Z0.000000
G01 X44.757368 Y51.934260 Z0.000000
G01 X45.457040 Y51.729111 Z0.000000
G01 X46.156712 Y51.523960 Z0.000000
G01 X46.156712 Y53.145325 Z0.000000
G01 X46.156712 Y54.766691 Z0.000000
G01 X46.156712 Y56.388059 Z0.000000
G01 X46.156712 Y58.009425 Z0.000000
G01 X46.324542 Y59.128779 Z0.000000
G01 X46.826957 Y60.008123 Z0.000000
G01 X47.662341 Y60.637188 Z0.000000
G01 X48.829072 Y61.005706 Z0.000000
G01 X50.509419 Y61.221654 Z0.000000
G01 X52.189766 Y61.437602 Z0.000000
G01 X53.870115 Y61.653550 Z0.000000
G01 X55.550462 Y61.869499 Z0.000000
G01 X58.298283 Y63.698666 Z0.000000
G01 X59.428898 Y67.020610 Z0.000000
G01 X59.373820 Y70.731832 Z0.000000
G01 X58.564557 Y73.728837 Z0.000000
G01 X58.464147 Y73.953973 Z0.000000
G01 X58.390890 Y74.164260 Z0.000000
G01 X58.346025 Y74.383987 Z0.000000
G01 X58.330794 Y74.637439 Z0.000000
G01 X58.330794 Y75.811658 Z0.000000
G01 X58.330794 Y76.985875 Z0.000000
G01 X58.330794 Y78.160095 Z0.000000
G01 X58.330794 Y79.334314 Z0.000000
G01 X57.601969 Y79.449037 Z0.000000
G01 X56.873143 Y79.563757 Z0.000000
G01 X56.144320 Y79.678479 Z0.000000
G01 X55.415492 Y79.793202 Z0.000000
G00 Z5.000000

(End cutting path id: path7270)


(Start cutting path id: path7270)
(Change tool to Default tool)

G00 Z5.000000
G00 X55.415492 Y79.793202

G01 Z0.000000 F100.0(Penetrate)
G01 X65.565056 Y80.316202 Z0.000000 F400.000000
G01 X75.714623 Y80.839199 Z0.000000
G01 X85.864190 Y81.362198 Z0.000000
G01 X96.013755 Y81.885198 Z0.000000
G01 X99.090350 Y82.058678 Z0.000000
G01 X102.186853 Y82.322388 Z0.000000
G01 X104.066107 Y82.701547 Z0.000000
G01 X103.490962 Y83.221379 Z0.000000
G01 X103.241272 Y83.288863 Z0.000000
G01 X102.991582 Y83.356347 Z0.000000
G01 X102.741892 Y83.423830 Z0.000000
G01 X102.492202 Y83.491314 Z0.000000
G01 X101.850179 Y84.161673 Z0.000000
G01 X103.710208 Y84.917766 Z0.000000
G01 X107.370407 Y85.601730 Z0.000000
G01 X112.128892 Y86.055698 Z0.000000
G01 X121.508365 Y86.609651 Z0.000000
G01 X130.892039 Y87.197522 Z0.000000
G01 X140.278154 Y87.795938 Z0.000000
G01 X149.664960 Y88.381538 Z0.000000
G01 X155.222270 Y88.719835 Z0.000000
G01 X160.779579 Y89.058132 Z0.000000
G01 X166.336891 Y89.396429 Z0.000000
G01 X171.894201 Y89.734727 Z0.000000
G01 X173.653671 Y89.873260 Z0.000000
G01 X175.826982 Y90.147586 Z0.000000
G01 X176.370912 Y90.571168 Z0.000000
G01 X173.242240 Y91.157475 Z0.000000
G01 X167.328783 Y91.777115 Z0.000000
G01 X161.314998 Y92.258199 Z0.000000
G01 X155.204787 Y92.627568 Z0.000000
G01 X149.002051 Y92.912056 Z0.000000
G01 X158.990624 Y92.577791 Z0.000000
G01 X168.534944 Y92.032233 Z0.000000
G01 X175.688775 Y91.247282 Z0.000000
G01 X178.505882 Y90.194831 Z0.000000
G00 Z5.000000

(End cutting path id: path7270)


(Start cutting path id: path7270)
(Change tool to Default tool)

G00 Z5.000000
G00 X172.513522 Y69.187445

G01 Z0.000000 F100.0(Penetrate)
G01 X171.086240 Y69.077446 Z0.000000 F400.000000
G01 X169.658956 Y68.967447 Z0.000000
G01 X168.231671 Y68.857451 Z0.000000
G01 X166.804390 Y68.747452 Z0.000000
G01 X166.804390 Y68.391138 Z0.000000
G01 X166.804390 Y68.034821 Z0.000000
G01 X166.804390 Y67.678507 Z0.000000
G01 X166.804390 Y67.322194 Z0.000000
G01 X168.231671 Y67.433541 Z0.000000
G01 X169.658956 Y67.544889 Z0.000000
G01 X171.086240 Y67.656237 Z0.000000
G01 X172.513522 Y67.767585 Z0.000000
G01 X172.513522 Y68.122550 Z0.000000
G01 X172.513522 Y68.477515 Z0.000000
G01 X172.513522 Y68.832480 Z0.000000
G01 X172.513522 Y69.187445 Z0.000000
G00 Z5.000000

(End cutting path id: path7270)


(Start cutting path id: path7270)
(Change tool to Default tool)

G00 Z5.000000
G00 X168.692857 Y67.469577

G01 Z0.000000 F100.0(Penetrate)
G01 X168.220739 Y67.432731 Z0.000000 F400.000000
G01 X167.748622 Y67.395885 Z0.000000
G01 X167.276507 Y67.359040 Z0.000000
G01 X166.804390 Y67.322194 Z0.000000
G01 X164.585243 Y67.352278 Z0.000000
G01 X162.922775 Y66.897031 Z0.000000
G01 X161.786518 Y65.983035 Z0.000000
G01 X161.146007 Y64.636876 Z0.000000
G01 X162.584221 Y64.751463 Z0.000000
G01 X164.022437 Y64.866050 Z0.000000
G01 X165.460651 Y64.980640 Z0.000000
G01 X166.898868 Y65.095228 Z0.000000
G01 X167.090022 Y65.714546 Z0.000000
G01 X167.397637 Y66.322225 Z0.000000
G01 X167.904364 Y66.909992 Z0.000000
G01 X168.692857 Y67.469577 Z0.000000
G00 Z5.000000

(End cutting path id: path7270)


(Start cutting path id: path7270)
(Change tool to Default tool)

G00 Z5.000000
G00 X166.405865 Y65.055816

G01 Z0.000000 F100.0(Penetrate)
G01 X165.120027 Y64.953375 Z0.000000 F400.000000
G01 X163.834191 Y64.850936 Z0.000000
G01 X162.548353 Y64.748494 Z0.000000
G01 X161.262518 Y64.646055 Z0.000000
G01 X161.261136 Y59.102260 Z0.000000
G01 X161.259754 Y53.558461 Z0.000000
G01 X161.258372 Y48.014666 Z0.000000
G01 X161.256990 Y42.470870 Z0.000000
G01 X161.285872 Y42.464126 Z0.000000
G01 X161.314755 Y42.457381 Z0.000000
G01 X161.343640 Y42.450637 Z0.000000
G01 X161.372522 Y42.443892 Z0.000000
G01 X162.189212 Y42.535131 Z0.000000
G01 X163.005901 Y42.626370 Z0.000000
G01 X163.822590 Y42.717606 Z0.000000
G01 X164.639280 Y42.808844 Z0.000000
G01 X165.080892 Y48.370593 Z0.000000
G01 X165.522507 Y53.932339 Z0.000000
G01 X165.964120 Y59.494084 Z0.000000
G01 X166.405735 Y65.055833 Z0.000000
G01 X166.405732 Y65.055836 Z0.000000
G01 X166.405729 Y65.055839 Z0.000000
G01 X166.405729 Y65.055841 Z0.000000
G01 X166.405865 Y65.055816 Z0.000000
G00 Z5.000000

(End cutting path id: path7270)


(Start cutting path id: path7270)
(Change tool to Default tool)

G00 Z5.000000
G00 X160.897127 Y69.734335

G01 Z0.000000 F100.0(Penetrate)
G01 X159.049420 Y69.566435 Z0.000000 F400.000000
G01 X157.201713 Y69.398533 Z0.000000
G01 X155.354006 Y69.230634 Z0.000000
G01 X153.506299 Y69.062735 Z0.000000
G01 X154.559308 Y68.581535 Z0.000000
G01 X155.454333 Y67.869122 Z0.000000
G01 X156.154373 Y66.871371 Z0.000000
G01 X156.622430 Y65.534142 Z0.000000
G01 X157.753324 Y65.309824 Z0.000000
G01 X158.884218 Y65.085509 Z0.000000
G01 X160.015113 Y64.861191 Z0.000000
G01 X161.146007 Y64.636876 Z0.000000
G01 X161.786518 Y65.983035 Z0.000000
G01 X162.922775 Y66.897031 Z0.000000
G01 X164.585243 Y67.352278 Z0.000000
G01 X166.804390 Y67.322194 Z0.000000
G01 X166.804390 Y67.678507 Z0.000000
G01 X166.804390 Y68.034821 Z0.000000
G01 X166.804390 Y68.391138 Z0.000000
G01 X166.804390 Y68.747452 Z0.000000
G01 X166.752156 Y68.743389 Z0.000000
G01 X166.699925 Y68.739325 Z0.000000
G01 X166.647691 Y68.735290 Z0.000000
G01 X166.595460 Y68.731226 Z0.000000
G01 X165.170876 Y68.981997 Z0.000000
G01 X163.746292 Y69.232765 Z0.000000
G01 X162.321711 Y69.483536 Z0.000000
G01 X160.897127 Y69.734335 Z0.000000
G00 Z5.000000

(End cutting path id: path7270)


(Start cutting path id: path7270)
(Change tool to Default tool)

G00 Z5.000000
G00 X160.896021 Y69.734183

G01 Z0.000000 F100.0(Penetrate)
G01 X162.320865 Y69.483426 Z0.000000 F400.000000
G01 X163.745711 Y69.232669 Z0.000000
G01 X165.170555 Y68.981912 Z0.000000
G01 X166.595402 Y68.731155 Z0.000000
G01 X168.420625 Y68.871924 Z0.000000
G01 X170.245849 Y69.012690 Z0.000000
G01 X172.071075 Y69.153460 Z0.000000
G01 X173.896298 Y69.294229 Z0.000000
G01 X174.153015 Y69.328631 Z0.000000
G01 X174.304860 Y69.385279 Z0.000000
G01 X174.378875 Y69.458438 Z0.000000
G01 X174.402122 Y69.542365 Z0.000000
G01 X174.402122 Y69.910352 Z0.000000
G01 X174.402122 Y70.278339 Z0.000000
G01 X174.402122 Y70.646326 Z0.000000
G01 X174.402122 Y71.014313 Z0.000000
G01 X171.025598 Y70.694281 Z0.000000
G01 X167.649077 Y70.374246 Z0.000000
G01 X164.272553 Y70.054214 Z0.000000
G01 X160.896021 Y69.734183 Z0.000000
G00 Z5.000000

(End cutting path id: path7270)


(Start cutting path id: path7270)
(Change tool to Default tool)

G00 Z5.000000
G00 X157.160043 Y65.427247

G01 Z0.000000 F100.0(Penetrate)
G01 X157.473842 Y59.854028 Z0.000000 F400.000000
G01 X157.787641 Y54.280808 Z0.000000
G01 X158.101442 Y48.707591 Z0.000000
G01 X158.415241 Y43.134371 Z0.000000
G01 X159.125710 Y42.968495 Z0.000000
G01 X159.836179 Y42.802619 Z0.000000
G01 X160.546651 Y42.636746 Z0.000000
G01 X161.257120 Y42.470870 Z0.000000
G01 X161.258502 Y48.014666 Z0.000000
G01 X161.259884 Y53.558461 Z0.000000
G01 X161.261266 Y59.102260 Z0.000000
G01 X161.262648 Y64.646055 Z0.000000
G01 X161.233495 Y64.643844 Z0.000000
G01 X161.204341 Y64.641633 Z0.000000
G01 X161.175191 Y64.639421 Z0.000000
G01 X161.146037 Y64.637210 Z0.000000
G01 X160.150110 Y64.834802 Z0.000000
G01 X159.154183 Y65.032396 Z0.000000
G01 X158.158259 Y65.229988 Z0.000000
G01 X157.162332 Y65.427582 Z0.000000
G01 X157.161779 Y65.427582 Z0.000000
G01 X157.161226 Y65.427582 Z0.000000
G01 X157.160674 Y65.427582 Z0.000000
G01 X157.160121 Y65.427582 Z0.000000
G01 X157.160135 Y65.427582 Z0.000000
G01 X157.160151 Y65.427579 Z0.000000
G01 X157.160165 Y65.427579 Z0.000000
G01 X157.160043 Y65.427247 Z0.000000
G00 Z5.000000

(End cutting path id: path7270)


(Start cutting path id: path7270)
(Change tool to Default tool)

G00 Z5.000000
G00 X158.301867 Y43.160824

G01 Z0.000000 F100.0(Penetrate)
G01 X159.069562 Y42.981586 Z0.000000 F400.000000
G01 X159.837260 Y42.802351 Z0.000000
G01 X160.604955 Y42.623114 Z0.000000
G01 X161.372652 Y42.443876 Z0.000000
G01 X161.361845 Y41.925600 Z0.000000
G01 X161.351037 Y41.407324 Z0.000000
G01 X161.340229 Y40.889049 Z0.000000
G01 X161.329421 Y40.370773 Z0.000000
G01 X160.616791 Y40.554328 Z0.000000
G01 X159.904163 Y40.737886 Z0.000000
G01 X159.191532 Y40.921442 Z0.000000
G01 X158.478905 Y41.104997 Z0.000000
G01 X158.434634 Y41.618955 Z0.000000
G01 X158.390364 Y42.132910 Z0.000000
G01 X158.346096 Y42.646869 Z0.000000
G01 X158.301867 Y43.160824 Z0.000000
G00 Z5.000000

(End cutting path id: path7270)


(Start cutting path id: path7270)
(Change tool to Default tool)

G00 Z5.000000
G00 X158.916780 Y40.726548

G01 Z0.000000 F100.0(Penetrate)
G01 X158.625926 Y40.614929 Z0.000000 F400.000000
G01 X158.335070 Y40.503310 Z0.000000
G01 X158.044214 Y40.391692 Z0.000000
G01 X157.753360 Y40.280073 Z0.000000
G01 X159.187682 Y40.189766 Z0.000000
G01 X160.577551 Y40.048654 Z0.000000
G01 X161.937932 Y39.873844 Z0.000000
G01 X163.283794 Y39.682439 Z0.000000
G01 X163.583017 Y39.777053 Z0.000000
G01 X163.882240 Y39.871664 Z0.000000
G01 X164.181464 Y39.966277 Z0.000000
G01 X164.480687 Y40.060888 Z0.000000
G01 X164.014258 Y40.132676 Z0.000000
G01 X163.547796 Y40.202777 Z0.000000
G01 X163.081332 Y40.271173 Z0.000000
G01 X162.614894 Y40.337841 Z0.000000
G01 X162.614894 Y40.279266 Z0.000000
G01 X162.614894 Y40.220688 Z0.000000
G01 X162.614894 Y40.162114 Z0.000000
G01 X162.614894 Y40.103536 Z0.000000
G01 X161.990335 Y40.041713 Z0.000000
G01 X161.364064 Y40.030961 Z0.000000
G01 X160.734800 Y40.113053 Z0.000000
G01 X160.101257 Y40.329731 Z0.000000
G01 X160.101257 Y40.406933 Z0.000000
G01 X160.101257 Y40.484136 Z0.000000
G01 X160.101257 Y40.561335 Z0.000000
G01 X160.101257 Y40.638538 Z0.000000
G01 X159.805157 Y40.664520 Z0.000000
G01 X159.509046 Y40.688237 Z0.000000
G01 X159.212921 Y40.709106 Z0.000000
G01 X158.916780 Y40.726548 Z0.000000
G00 Z5.000000

(End cutting path id: path7270)


(Start cutting path id: path7270)
(Change tool to Default tool)

G00 Z5.000000
G00 X157.753360 Y40.280073

G01 Z0.000000 F100.0(Penetrate)
G01 X157.680881 Y39.965194 Z0.000000 F400.000000
G01 X157.608406 Y39.650314 Z0.000000
G01 X157.535927 Y39.335435 Z0.000000
G01 X157.463449 Y39.020555 Z0.000000
G01 X157.622188 Y39.203964 Z0.000000
G01 X157.785228 Y39.340709 Z0.000000
G01 X157.950150 Y39.429131 Z0.000000
G01 X158.114533 Y39.467569 Z0.000000
G01 X158.127221 Y39.498342 Z0.000000
G01 X158.139908 Y39.529112 Z0.000000
G01 X158.152595 Y39.559885 Z0.000000
G01 X158.165283 Y39.590659 Z0.000000
G01 X159.335066 Y39.488372 Z0.000000
G01 X160.470499 Y39.351735 Z0.000000
G01 X161.580303 Y39.189469 Z0.000000
G01 X162.673204 Y39.010300 Z0.000000
G01 X162.519745 Y38.401325 Z0.000000
G01 X162.366288 Y37.792352 Z0.000000
G01 X162.212829 Y37.183377 Z0.000000
G01 X162.059372 Y36.574404 Z0.000000
G01 X162.035020 Y35.936408 Z0.000000
G01 X162.230138 Y35.587107 Z0.000000
G01 X162.528960 Y35.432232 Z0.000000
G01 X162.815720 Y35.377511 Z0.000000
G01 X162.815858 Y35.378063 Z0.000000
G01 X162.815997 Y35.378616 Z0.000000
G01 X162.816135 Y35.379445 Z0.000000
G01 X162.816273 Y35.379998 Z0.000000
G01 X162.627369 Y35.464011 Z0.000000
G01 X162.488021 Y35.687188 Z0.000000
G01 X162.428174 Y36.047358 Z0.000000
G01 X162.477774 Y36.542340 Z0.000000
G01 X162.679280 Y37.327311 Z0.000000
G01 X162.880785 Y38.112285 Z0.000000
G01 X163.082294 Y38.897258 Z0.000000
G01 X163.283799 Y39.682229 Z0.000000
G01 X161.937938 Y39.873634 Z0.000000
G01 X160.577557 Y40.048444 Z0.000000
G01 X159.187687 Y40.189556 Z0.000000
G01 X157.753365 Y40.279863 Z0.000000
G01 X157.753363 Y40.279847 Z0.000000
G01 X157.753360 Y40.279830 Z0.000000
G01 X157.753357 Y40.279813 Z0.000000
G01 X157.753360 Y40.280073 Z0.000000
G00 Z5.000000

(End cutting path id: path7270)


(Start cutting path id: path7270)
(Change tool to Default tool)

G00 Z5.000000
G00 X158.157184 Y39.472428

G01 Z0.000000 F100.0(Penetrate)
G01 X157.687645 Y39.267064 Z0.000000 F400.000000
G01 X157.263220 Y38.706759 Z0.000000
G01 X156.929733 Y37.875641 Z0.000000
G01 X156.733003 Y36.857836 Z0.000000
G01 X156.717220 Y35.839984 Z0.000000
G01 X156.877203 Y35.008844 Z0.000000
G01 X157.184675 Y34.448550 Z0.000000
G01 X157.611369 Y34.243241 Z0.000000
G01 X158.044614 Y34.187906 Z0.000000
G01 X158.477862 Y34.132568 Z0.000000
G01 X158.911108 Y34.077233 Z0.000000
G01 X159.344353 Y34.021895 Z0.000000
G01 X158.965644 Y34.299715 Z0.000000
G01 X158.699148 Y34.873348 Z0.000000
G01 X158.565759 Y35.671123 Z0.000000
G01 X158.586380 Y36.621372 Z0.000000
G01 X158.783023 Y37.638879 Z0.000000
G01 X159.116359 Y38.469862 Z0.000000
G01 X159.540618 Y39.030246 Z0.000000
G01 X160.010018 Y39.235964 Z0.000000
G01 X159.576773 Y39.291303 Z0.000000
G01 X159.143528 Y39.346638 Z0.000000
G01 X158.710279 Y39.401976 Z0.000000
G01 X158.277034 Y39.457311 Z0.000000
G01 X158.247430 Y39.463834 Z0.000000
G01 X158.217577 Y39.468533 Z0.000000
G01 X158.187490 Y39.471408 Z0.000000
G01 X158.157184 Y39.472428 Z0.000000
G00 Z5.000000

(End cutting path id: path7270)


(Start cutting path id: path7270)
(Change tool to Default tool)

G00 Z5.000000
G00 X160.010018 Y39.235964

G01 Z0.000000 F100.0(Penetrate)
G01 X159.540618 Y39.030246 Z0.000000 F400.000000
G01 X159.116359 Y38.469862 Z0.000000
G01 X158.783023 Y37.638879 Z0.000000
G01 X158.586380 Y36.621372 Z0.000000
G01 X158.570569 Y35.603819 Z0.000000
G01 X158.730427 Y34.772814 Z0.000000
G01 X159.037714 Y34.212440 Z0.000000
G01 X159.464198 Y34.006778 Z0.000000
G01 X159.528279 Y34.011615 Z0.000000
G01 X159.592929 Y34.024413 Z0.000000
G01 X159.657997 Y34.045116 Z0.000000
G01 X159.723336 Y34.073711 Z0.000000
G01 X159.455013 Y34.462175 Z0.000000
G01 X159.276366 Y35.030727 Z0.000000
G01 X159.196632 Y35.733930 Z0.000000
G01 X159.225036 Y36.526344 Z0.000000
G01 X159.382993 Y37.401625 Z0.000000
G01 X159.647283 Y38.157147 Z0.000000
G01 X159.991172 Y38.734315 Z0.000000
G01 X160.387917 Y39.074533 Z0.000000
G01 X160.299133 Y39.144292 Z0.000000
G01 X160.206189 Y39.194602 Z0.000000
G01 X160.109632 Y39.225234 Z0.000000
G01 X160.010018 Y39.235964 Z0.000000
G00 Z5.000000

(End cutting path id: path7270)


(Start cutting path id: path7270)
(Change tool to Default tool)

G00 Z5.000000
G00 X160.649225 Y39.140947

G01 Z0.000000 F100.0(Penetrate)
G01 X160.179689 Y38.935580 Z0.000000 F400.000000
G01 X159.755264 Y38.375276 Z0.000000
G01 X159.421777 Y37.544160 Z0.000000
G01 X159.225048 Y36.526355 Z0.000000
G01 X159.209264 Y35.508503 Z0.000000
G01 X159.369244 Y34.677366 Z0.000000
G01 X159.676716 Y34.117072 Z0.000000
G01 X160.103410 Y33.911760 Z0.000000
G01 X160.597527 Y33.844816 Z0.000000
G01 X161.091645 Y33.777874 Z0.000000
G01 X161.585759 Y33.710929 Z0.000000
G01 X162.079876 Y33.643985 Z0.000000
G01 X161.702994 Y33.924141 Z0.000000
G01 X161.437991 Y34.497957 Z0.000000
G01 X161.305514 Y35.294252 Z0.000000
G01 X161.326218 Y36.241843 Z0.000000
G01 X161.504704 Y37.193148 Z0.000000
G01 X161.805530 Y37.991113 Z0.000000
G01 X162.192648 Y38.563906 Z0.000000
G01 X162.630006 Y38.839701 Z0.000000
G01 X162.631941 Y38.847661 Z0.000000
G01 X162.633876 Y38.855622 Z0.000000
G01 X162.635811 Y38.863583 Z0.000000
G01 X162.637746 Y38.871543 Z0.000000
G01 X162.171568 Y38.934709 Z0.000000
G01 X161.705391 Y38.997873 Z0.000000
G01 X161.239211 Y39.061039 Z0.000000
G01 X160.773034 Y39.124202 Z0.000000
G01 X160.742382 Y39.131334 Z0.000000
G01 X160.711460 Y39.136503 Z0.000000
G01 X160.680280 Y39.139709 Z0.000000
G01 X160.648863 Y39.140815 Z0.000000
G01 X160.648863 Y39.140817 Z0.000000
G01 X160.648863 Y39.140823 Z0.000000
G01 X160.648860 Y39.140826 Z0.000000
G01 X160.649225 Y39.140947 Z0.000000
G00 Z5.000000

(End cutting path id: path7270)


(Start cutting path id: path7270)
(Change tool to Default tool)

G00 Z5.000000
G00 X162.572244 Y38.609716

G01 Z0.000000 F100.0(Penetrate)
G01 X162.184109 Y38.334563 Z0.000000 F400.000000
G01 X161.843180 Y37.807229 Z0.000000
G01 X161.579302 Y37.089170 Z0.000000
G01 X161.422321 Y36.241843 Z0.000000
G01 X161.407892 Y35.309115 Z0.000000
G01 X161.554505 Y34.547490 Z0.000000
G01 X161.836265 Y34.034054 Z0.000000
G01 X162.227274 Y33.845896 Z0.000000
G01 X162.657484 Y34.034264 Z0.000000
G01 X163.046343 Y34.547750 Z0.000000
G01 X163.351885 Y35.309294 Z0.000000
G01 X163.532140 Y36.241843 Z0.000000
G01 X163.545187 Y36.388425 Z0.000000
G01 X163.554226 Y36.534286 Z0.000000
G01 X163.559229 Y36.679016 Z0.000000
G01 X163.560058 Y36.822204 Z0.000000
G01 X163.524561 Y36.649984 Z0.000000
G01 X163.489064 Y36.477767 Z0.000000
G01 X163.453570 Y36.305548 Z0.000000
G01 X163.418073 Y36.133328 Z0.000000
G01 X163.307181 Y35.792322 Z0.000000
G01 X163.158501 Y35.554462 Z0.000000
G01 X162.989117 Y35.417756 Z0.000000
G01 X162.816118 Y35.380208 Z0.000000
G01 X162.815980 Y35.379656 Z0.000000
G01 X162.815842 Y35.379103 Z0.000000
G01 X162.815704 Y35.378550 Z0.000000
G01 X162.815565 Y35.377997 Z0.000000
G01 X162.528805 Y35.432719 Z0.000000
G01 X162.229983 Y35.587593 Z0.000000
G01 X162.034865 Y35.936895 Z0.000000
G01 X162.059217 Y36.574891 Z0.000000
G01 X162.187437 Y37.083719 Z0.000000
G01 X162.315654 Y37.592547 Z0.000000
G01 X162.443872 Y38.101375 Z0.000000
G01 X162.572092 Y38.610202 Z0.000000
G01 X162.572095 Y38.610219 Z0.000000
G01 X162.572097 Y38.610236 Z0.000000
G01 X162.572100 Y38.610252 Z0.000000
G01 X162.572244 Y38.609716 Z0.000000
G00 Z5.000000

(End cutting path id: path7270)


(Start cutting path id: path7270)
(Change tool to Default tool)

G00 Z5.000000
G00 X162.631090 Y38.842398

G01 Z0.000000 F100.0(Penetrate)
G01 X162.193217 Y38.566734 Z0.000000 F400.000000
G01 X161.805668 Y37.993366 Z0.000000
G01 X161.504615 Y37.194375 Z0.000000
G01 X161.326223 Y36.241843 Z0.000000
G01 X161.310440 Y35.224289 Z0.000000
G01 X161.470298 Y34.393287 Z0.000000
G01 X161.777585 Y33.832913 Z0.000000
G01 X162.204066 Y33.627250 Z0.000000
G01 X162.673605 Y33.832615 Z0.000000
G01 X163.098030 Y34.392919 Z0.000000
G01 X163.431517 Y35.224037 Z0.000000
G01 X163.628247 Y36.241843 Z0.000000
G01 X163.649116 Y36.495825 Z0.000000
G01 X163.658873 Y36.746773 Z0.000000
G01 X163.657491 Y36.992922 Z0.000000
G01 X163.644970 Y37.232504 Z0.000000
G01 X163.588283 Y36.957710 Z0.000000
G01 X163.531599 Y36.682916 Z0.000000
G01 X163.474912 Y36.408122 Z0.000000
G01 X163.418225 Y36.133328 Z0.000000
G01 X163.307333 Y35.792322 Z0.000000
G01 X163.158653 Y35.554462 Z0.000000
G01 X162.989269 Y35.417756 Z0.000000
G01 X162.816270 Y35.380208 Z0.000000
G01 X162.816132 Y35.379656 Z0.000000
G01 X162.815994 Y35.379103 Z0.000000
G01 X162.815856 Y35.378550 Z0.000000
G01 X162.815717 Y35.377997 Z0.000000
G01 X162.528957 Y35.432719 Z0.000000
G01 X162.230135 Y35.587593 Z0.000000
G01 X162.035017 Y35.936895 Z0.000000
G01 X162.059369 Y36.574891 Z0.000000
G01 X162.202300 Y37.141890 Z0.000000
G01 X162.345231 Y37.708889 Z0.000000
G01 X162.488159 Y38.275886 Z0.000000
G01 X162.631090 Y38.842885 Z0.000000
G01 X162.631095 Y38.842901 Z0.000000
G01 X162.631101 Y38.842918 Z0.000000
G01 X162.631106 Y38.842935 Z0.000000
G01 X162.631090 Y38.842398 Z0.000000
G00 Z5.000000

(End cutting path id: path7270)


(Start cutting path id: path7270)
(Change tool to Default tool)

G00 Z5.000000
G00 X162.232128 Y37.261118

G01 Z0.000000 F100.0(Penetrate)
G01 X162.081485 Y37.117286 Z0.000000 F400.000000
G01 X161.951916 Y36.888374 Z0.000000
G01 X161.852722 Y36.595605 Z0.000000
G01 X161.793210 Y36.260199 Z0.000000
G01 X161.786936 Y35.855430 Z0.000000
G01 X161.850555 Y35.524905 Z0.000000
G01 X161.972821 Y35.302080 Z0.000000
G01 X162.142501 Y35.220408 Z0.000000
G01 X162.223150 Y35.235804 Z0.000000
G01 X162.304056 Y35.281526 Z0.000000
G01 X162.383412 Y35.356207 Z0.000000
G01 X162.459403 Y35.458486 Z0.000000
G01 X162.252665 Y35.571398 Z0.000000
G01 X162.091231 Y35.773556 Z0.000000
G01 X162.013871 Y36.097157 Z0.000000
G01 X162.059361 Y36.574399 Z0.000000
G01 X162.102551 Y36.746076 Z0.000000
G01 X162.145740 Y36.917757 Z0.000000
G01 X162.188930 Y37.089435 Z0.000000
G01 X162.232128 Y37.261118 Z0.000000
G00 Z5.000000

(End cutting path id: path7270)


(Start cutting path id: path7270)
(Change tool to Default tool)

G00 Z5.000000
G00 X161.657165 Y37.345878

G01 Z0.000000 F100.0(Penetrate)
G01 X161.578119 Y37.083627 Z0.000000 F400.000000
G01 X161.512203 Y36.810204 Z0.000000
G01 X161.460057 Y36.528611 Z0.000000
G01 X161.422321 Y36.241843 Z0.000000
G01 X161.401894 Y35.984731 Z0.000000
G01 X161.393906 Y35.731389 Z0.000000
G01 X161.398356 Y35.483988 Z0.000000
G01 X161.415273 Y35.244702 Z0.000000
G01 X161.597073 Y35.238621 Z0.000000
G01 X161.778876 Y35.232540 Z0.000000
G01 X161.960676 Y35.226459 Z0.000000
G01 X162.142478 Y35.220378 Z0.000000
G01 X161.972799 Y35.302050 Z0.000000
G01 X161.850533 Y35.524875 Z0.000000
G01 X161.786914 Y35.855400 Z0.000000
G01 X161.793188 Y36.260169 Z0.000000
G01 X161.852753 Y36.595926 Z0.000000
G01 X161.952076 Y36.888938 Z0.000000
G01 X162.081819 Y37.117930 Z0.000000
G01 X162.232645 Y37.261627 Z0.000000
G01 X162.235492 Y37.273098 Z0.000000
G01 X162.238311 Y37.284569 Z0.000000
G01 X162.241158 Y37.296040 Z0.000000
G01 X162.244005 Y37.307511 Z0.000000
G01 X162.097296 Y37.317103 Z0.000000
G01 X161.950587 Y37.326695 Z0.000000
G01 X161.803877 Y37.336286 Z0.000000
G01 X161.657168 Y37.345878 Z0.000000
G01 X161.657168 Y37.345878 Z0.000000
G01 X161.657171 Y37.345880 Z0.000000
G01 X161.657171 Y37.345880 Z0.000000
G01 X161.657165 Y37.345878 Z0.000000
G00 Z5.000000

(End cutting path id: path7270)


(Start cutting path id: path7270)
(Change tool to Default tool)

G00 Z5.000000
G00 X162.477514 Y36.542702

G01 Z0.000000 F100.0(Penetrate)
G01 X162.679075 Y37.327571 Z0.000000 F400.000000
G01 X162.880636 Y38.112442 Z0.000000
G01 X163.082200 Y38.897311 Z0.000000
G01 X163.283760 Y39.682182 Z0.000000
G01 X163.583050 Y39.776854 Z0.000000
G01 X163.882340 Y39.871528 Z0.000000
G01 X164.181627 Y39.966200 Z0.000000
G01 X164.480917 Y40.060874 Z0.000000
G01 X164.480917 Y39.897486 Z0.000000
G01 X164.480917 Y39.734098 Z0.000000
G01 X164.480917 Y39.570713 Z0.000000
G01 X164.480917 Y39.407324 Z0.000000
G01 X164.340877 Y39.381342 Z0.000000
G01 X164.213437 Y39.325965 Z0.000000
G01 X164.105215 Y39.225754 Z0.000000
G01 X164.022822 Y39.065273 Z0.000000
G01 X163.871651 Y38.332321 Z0.000000
G01 X163.720480 Y37.599368 Z0.000000
G01 X163.569307 Y36.866416 Z0.000000
G01 X163.418136 Y36.133463 Z0.000000
G01 X163.124930 Y35.517053 Z0.000000
G01 X162.748101 Y35.390643 Z0.000000
G01 X162.471134 Y35.737951 Z0.000000
G01 X162.477514 Y36.542702 Z0.000000
G00 Z5.000000

(End cutting path id: path7270)


(Start cutting path id: path7270)
(Change tool to Default tool)

G00 Z5.000000
G00 X162.477768 Y36.542550

G01 Z0.000000 F100.0(Penetrate)
G01 X162.463450 Y36.466349 Z0.000000 F400.000000
G01 X162.451951 Y36.393030 Z0.000000
G01 X162.442968 Y36.322262 Z0.000000
G01 X162.436196 Y36.253720 Z0.000000
G01 X162.442940 Y36.322221 Z0.000000
G01 X162.451924 Y36.392997 Z0.000000
G01 X162.463450 Y36.466340 Z0.000000
G01 X162.477768 Y36.542550 Z0.000000
G00 Z5.000000

(End cutting path id: path7270)


(Start cutting path id: path7270)
(Change tool to Default tool)

G00 Z5.000000
G00 X162.438896 Y36.288811

G01 Z0.000000 F100.0(Penetrate)
G01 X162.437238 Y36.269489 Z0.000000 F400.000000
G01 X162.436132 Y36.250887 Z0.000000
G01 X162.435303 Y36.232478 Z0.000000
G01 X162.434474 Y36.213792 Z0.000000
G01 X162.435579 Y36.232478 Z0.000000
G01 X162.436409 Y36.250887 Z0.000000
G01 X162.437514 Y36.269489 Z0.000000
G01 X162.438896 Y36.288811 Z0.000000
G00 Z5.000000

(End cutting path id: path7270)


(Start cutting path id: path7270)
(Change tool to Default tool)

G00 Z5.000000
G00 X162.438896 Y36.288811

G01 Z0.000000 F100.0(Penetrate)
G01 X162.437238 Y36.269489 Z0.000000 F400.000000
G01 X162.436132 Y36.250887 Z0.000000
G01 X162.435303 Y36.232478 Z0.000000
G01 X162.434474 Y36.213792 Z0.000000
G01 X162.435579 Y36.232478 Z0.000000
G01 X162.436409 Y36.250887 Z0.000000
G01 X162.437514 Y36.269489 Z0.000000
G01 X162.438896 Y36.288811 Z0.000000
G00 Z5.000000

(End cutting path id: path7270)


(Start cutting path id: path7270)
(Change tool to Default tool)

G00 Z5.000000
G00 X162.432959 Y36.173820

G01 Z0.000000 F100.0(Penetrate)
G01 X162.431300 Y36.129876 Z0.000000 F400.000000
G01 X162.430471 Y36.086879 Z0.000000
G01 X162.430609 Y36.045108 Z0.000000
G01 X162.431991 Y36.004840 Z0.000000
G01 X162.430609 Y36.045080 Z0.000000
G01 X162.430540 Y36.086882 Z0.000000
G01 X162.431370 Y36.129909 Z0.000000
G01 X162.432959 Y36.173820 Z0.000000
G00 Z5.000000

(End cutting path id: path7270)


(Start cutting path id: path7270)
(Change tool to Default tool)

G00 Z5.000000
G00 X162.428641 Y36.064764

G01 Z0.000000 F100.0(Penetrate)
G01 X162.429194 Y36.044779 Z0.000000 F400.000000
G01 X162.430576 Y36.025540 Z0.000000
G01 X162.432235 Y36.006606 Z0.000000
G01 X162.433617 Y35.987534 Z0.000000
G01 X162.432235 Y36.006579 Z0.000000
G01 X162.430853 Y36.025540 Z0.000000
G01 X162.429471 Y36.044779 Z0.000000
G01 X162.428641 Y36.064764 Z0.000000
G00 Z5.000000

(End cutting path id: path7270)


(Start cutting path id: path7270)
(Change tool to Default tool)

G00 Z5.000000
G00 X162.428641 Y36.064764

G01 Z0.000000 F100.0(Penetrate)
G01 X162.429194 Y36.044779 Z0.000000 F400.000000
G01 X162.430576 Y36.025540 Z0.000000
G01 X162.432235 Y36.006606 Z0.000000
G01 X162.433617 Y35.987534 Z0.000000
G01 X162.432235 Y36.006579 Z0.000000
G01 X162.430853 Y36.025540 Z0.000000
G01 X162.429471 Y36.044779 Z0.000000
G01 X162.428641 Y36.064764 Z0.000000
G00 Z5.000000

(End cutting path id: path7270)


(Start cutting path id: path7270)
(Change tool to Default tool)

G00 Z5.000000
G00 X162.439427 Y35.927098

G01 Z0.000000 F100.0(Penetrate)
G01 X162.443739 Y35.891286 Z0.000000 F400.000000
G01 X162.448797 Y35.856666 Z0.000000
G01 X162.454713 Y35.823250 Z0.000000
G01 X162.461568 Y35.791050 Z0.000000
G01 X162.454740 Y35.823208 Z0.000000
G01 X162.448853 Y35.856699 Z0.000000
G01 X162.443794 Y35.891380 Z0.000000
G01 X162.439427 Y35.927098 Z0.000000
G00 Z5.000000

(End cutting path id: path7270)


(Start cutting path id: path7270)
(Change tool to Default tool)

G00 Z5.000000
G00 X162.444286 Y35.871492

G01 Z0.000000 F100.0(Penetrate)
G01 X162.447051 Y35.855405 Z0.000000 F400.000000
G01 X162.450146 Y35.839898 Z0.000000
G01 X162.453436 Y35.824668 Z0.000000
G01 X162.456725 Y35.809410 Z0.000000
G01 X162.453436 Y35.824668 Z0.000000
G01 X162.450146 Y35.839898 Z0.000000
G01 X162.447051 Y35.855405 Z0.000000
G01 X162.444286 Y35.871492 Z0.000000
G00 Z5.000000

(End cutting path id: path7270)


(Start cutting path id: path7270)
(Change tool to Default tool)

G00 Z5.000000
G00 X162.444286 Y35.871492

G01 Z0.000000 F100.0(Penetrate)
G01 X162.447051 Y35.855405 Z0.000000 F400.000000
G01 X162.450146 Y35.839898 Z0.000000
G01 X162.453436 Y35.824668 Z0.000000
G01 X162.456725 Y35.809410 Z0.000000
G01 X162.453436 Y35.824668 Z0.000000
G01 X162.450146 Y35.839898 Z0.000000
G01 X162.447051 Y35.855405 Z0.000000
G01 X162.444286 Y35.871492 Z0.000000
G00 Z5.000000

(End cutting path id: path7270)


(Start cutting path id: path7270)
(Change tool to Default tool)

G00 Z5.000000
G00 X162.475596 Y35.735444

G01 Z0.000000 F100.0(Penetrate)
G01 X162.485768 Y35.703563 Z0.000000 F400.000000
G01 X162.496824 Y35.673312 Z0.000000
G01 X162.508738 Y35.644570 Z0.000000
G01 X162.521480 Y35.617206 Z0.000000
G01 X162.508793 Y35.644570 Z0.000000
G01 X162.496852 Y35.673359 Z0.000000
G01 X162.485768 Y35.703621 Z0.000000
G01 X162.475596 Y35.735444 Z0.000000
G00 Z5.000000

(End cutting path id: path7270)


(Start cutting path id: path7270)
(Change tool to Default tool)

G00 Z5.000000
G00 X162.483158 Y35.706830

G01 Z0.000000 F100.0(Penetrate)
G01 X162.487249 Y35.695221 Z0.000000 F400.000000
G01 X162.491561 Y35.683998 Z0.000000
G01 X162.495984 Y35.672997 Z0.000000
G01 X162.500434 Y35.662023 Z0.000000
G01 X162.495984 Y35.672997 Z0.000000
G01 X162.491561 Y35.683998 Z0.000000
G01 X162.487249 Y35.695221 Z0.000000
G01 X162.483158 Y35.706830 Z0.000000
G00 Z5.000000

(End cutting path id: path7270)


(Start cutting path id: path7270)
(Change tool to Default tool)

G00 Z5.000000
G00 X162.483158 Y35.706830

G01 Z0.000000 F100.0(Penetrate)
G01 X162.487249 Y35.695221 Z0.000000 F400.000000
G01 X162.491561 Y35.683998 Z0.000000
G01 X162.495984 Y35.672997 Z0.000000
G01 X162.500434 Y35.662023 Z0.000000
G01 X162.495984 Y35.672997 Z0.000000
G01 X162.491561 Y35.683998 Z0.000000
G01 X162.487249 Y35.695221 Z0.000000
G01 X162.483158 Y35.706830 Z0.000000
G00 Z5.000000

(End cutting path id: path7270)


(Start cutting path id: path7270)
(Change tool to Default tool)

G00 Z5.000000
G00 X162.541465 Y35.575641

G01 Z0.000000 F100.0(Penetrate)
G01 X162.546358 Y35.567404 Z0.000000 F400.000000
G01 X162.551278 Y35.559360 Z0.000000
G01 X162.556281 Y35.551510 Z0.000000
G01 X162.561422 Y35.543798 Z0.000000
G01 X162.556309 Y35.551510 Z0.000000
G01 X162.551278 Y35.559388 Z0.000000
G01 X162.546330 Y35.567432 Z0.000000
G01 X162.541465 Y35.575641 Z0.000000
G00 Z5.000000

(End cutting path id: path7270)


(Start cutting path id: path7270)
(Change tool to Default tool)

G00 Z5.000000
G00 X162.541465 Y35.575641

G01 Z0.000000 F100.0(Penetrate)
G01 X162.546358 Y35.567404 Z0.000000 F400.000000
G01 X162.551278 Y35.559360 Z0.000000
G01 X162.556281 Y35.551510 Z0.000000
G01 X162.561422 Y35.543798 Z0.000000
G01 X162.556309 Y35.551510 Z0.000000
G01 X162.551278 Y35.559388 Z0.000000
G01 X162.546330 Y35.567432 Z0.000000
G01 X162.541465 Y35.575641 Z0.000000
G00 Z5.000000

(End cutting path id: path7270)


(Start cutting path id: path7270)
(Change tool to Default tool)

G00 Z5.000000
G00 X162.618665 Y35.475226

G01 Z0.000000 F100.0(Penetrate)
G01 X162.622949 Y35.471052 Z0.000000 F400.000000
G01 X162.627234 Y35.466933 Z0.000000
G01 X162.631546 Y35.462925 Z0.000000
G01 X162.635941 Y35.459028 Z0.000000
G01 X162.631573 Y35.462925 Z0.000000
G01 X162.627234 Y35.466961 Z0.000000
G01 X162.622922 Y35.471079 Z0.000000
G01 X162.618665 Y35.475226 Z0.000000
G00 Z5.000000

(End cutting path id: path7270)


(Start cutting path id: path7270)
(Change tool to Default tool)

G00 Z5.000000
G00 X162.618665 Y35.475226

G01 Z0.000000 F100.0(Penetrate)
G01 X162.622949 Y35.471052 Z0.000000 F400.000000
G01 X162.627234 Y35.466933 Z0.000000
G01 X162.631546 Y35.462925 Z0.000000
G01 X162.635941 Y35.459028 Z0.000000
G01 X162.631573 Y35.462925 Z0.000000
G01 X162.627234 Y35.466961 Z0.000000
G01 X162.622922 Y35.471079 Z0.000000
G01 X162.618665 Y35.475226 Z0.000000
G00 Z5.000000

(End cutting path id: path7270)


(Start cutting path id: path7270)
(Change tool to Default tool)

G00 Z5.000000
G00 X162.708284 Y35.410443

G01 Z0.000000 F100.0(Penetrate)
G01 X162.711932 Y35.408508 Z0.000000 F400.000000
G01 X162.715553 Y35.406573 Z0.000000
G01 X162.719174 Y35.404638 Z0.000000
G01 X162.722851 Y35.402979 Z0.000000
G01 X162.719174 Y35.404638 Z0.000000
G01 X162.715553 Y35.406573 Z0.000000
G01 X162.711932 Y35.408508 Z0.000000
G01 X162.708284 Y35.410443 Z0.000000
G00 Z5.000000

(End cutting path id: path7270)


(Start cutting path id: path7270)
(Change tool to Default tool)

G00 Z5.000000
G00 X162.708284 Y35.410443

G01 Z0.000000 F100.0(Penetrate)
G01 X162.711932 Y35.408508 Z0.000000 F400.000000
G01 X162.715553 Y35.406573 Z0.000000
G01 X162.719174 Y35.404638 Z0.000000
G01 X162.722851 Y35.402979 Z0.000000
G01 X162.719174 Y35.404638 Z0.000000
G01 X162.715553 Y35.406573 Z0.000000
G01 X162.711932 Y35.408508 Z0.000000
G01 X162.708284 Y35.410443 Z0.000000
G00 Z5.000000

(End cutting path id: path7270)


(Start cutting path id: path7270)
(Change tool to Default tool)

G00 Z5.000000
G00 X163.395661 Y36.241845

G01 Z0.000000 F100.0(Penetrate)
G01 X163.343908 Y35.974083 Z0.000000 F400.000000
G01 X163.256180 Y35.755426 Z0.000000
G01 X163.144525 Y35.608004 Z0.000000
G01 X163.021002 Y35.553945 Z0.000000
G01 X162.908764 Y35.608004 Z0.000000
G01 X162.827891 Y35.755426 Z0.000000
G01 X162.785815 Y35.974083 Z0.000000
G01 X162.789961 Y36.241845 Z0.000000
G01 X162.841714 Y36.509607 Z0.000000
G01 X162.929442 Y36.728267 Z0.000000
G01 X163.041094 Y36.875690 Z0.000000
G01 X163.164621 Y36.929748 Z0.000000
G01 X163.276858 Y36.875690 Z0.000000
G01 X163.357734 Y36.728267 Z0.000000
G01 X163.399810 Y36.509607 Z0.000000
G01 X163.395661 Y36.241845 Z0.000000
G00 Z5.000000

(End cutting path id: path7270)


(Start cutting path id: path7270)
(Change tool to Default tool)

G00 Z5.000000
G00 X162.966891 Y36.960949

G01 Z0.000000 F100.0(Penetrate)
G01 X162.843373 Y36.906916 Z0.000000 F400.000000
G01 X162.731721 Y36.759524 Z0.000000
G01 X162.643987 Y36.540895 Z0.000000
G01 X162.592220 Y36.273155 Z0.000000
G01 X162.588074 Y36.005415 Z0.000000
G01 X162.630161 Y35.786788 Z0.000000
G01 X162.711039 Y35.639396 Z0.000000
G01 X162.823274 Y35.585360 Z0.000000
G01 X162.863360 Y35.579030 Z0.000000
G01 X162.903446 Y35.572673 Z0.000000
G01 X162.943528 Y35.566343 Z0.000000
G01 X162.983614 Y35.560013 Z0.000000
G01 X162.886336 Y35.636104 Z0.000000
G01 X162.818150 Y35.787269 Z0.000000
G01 X162.784245 Y35.995270 Z0.000000
G01 X162.789801 Y36.241870 Z0.000000
G01 X162.841568 Y36.509610 Z0.000000
G01 X162.929301 Y36.728240 Z0.000000
G01 X163.040953 Y36.875632 Z0.000000
G01 X163.164471 Y36.929665 Z0.000000
G01 X163.124521 Y36.936022 Z0.000000
G01 X163.084571 Y36.942352 Z0.000000
G01 X163.044621 Y36.948682 Z0.000000
G01 X163.004671 Y36.955040 Z0.000000
G01 X162.995356 Y36.957527 Z0.000000
G01 X162.985958 Y36.959462 Z0.000000
G01 X162.976449 Y36.960568 Z0.000000
G01 X162.966858 Y36.961121 Z0.000000
G01 X162.966858 Y36.961121 Z0.000000
G01 X162.966858 Y36.961118 Z0.000000
G01 X162.966858 Y36.961118 Z0.000000
G01 X162.966891 Y36.960949 Z0.000000
G00 Z5.000000

(End cutting path id: path7270)


(Start cutting path id: path7270)
(Change tool to Default tool)

G00 Z5.000000
G00 X162.614823 Y40.526789

G01 Z0.000000 F100.0(Penetrate)
G01 X162.614823 Y40.421000 Z0.000000 F400.000000
G01 X162.614823 Y40.315211 Z0.000000
G01 X162.614823 Y40.209419 Z0.000000
G01 X162.614823 Y40.103630 Z0.000000
G01 X161.990315 Y40.041774 Z0.000000
G01 X161.364164 Y40.030966 Z0.000000
G01 X160.735016 Y40.112987 Z0.000000
G01 X160.101525 Y40.329631 Z0.000000
G01 X160.101525 Y40.418990 Z0.000000
G01 X160.101525 Y40.508349 Z0.000000
G01 X160.101525 Y40.597709 Z0.000000
G01 X160.101525 Y40.687068 Z0.000000
G01 X160.408510 Y40.607997 Z0.000000
G01 X160.715495 Y40.528926 Z0.000000
G01 X161.022478 Y40.449852 Z0.000000
G01 X161.329463 Y40.370781 Z0.000000
G01 X161.650802 Y40.409786 Z0.000000
G01 X161.972141 Y40.448791 Z0.000000
G01 X162.293483 Y40.487793 Z0.000000
G01 X162.614823 Y40.526789 Z0.000000
G00 Z5.000000

(End cutting path id: path7270)


(Start cutting path id: path7270)
(Change tool to Default tool)

G00 Z5.000000
G00 X161.372652 Y42.443876

G01 Z0.000000 F100.0(Penetrate)
G01 X162.204052 Y42.536734 Z0.000000 F400.000000
G01 X163.035452 Y42.629593 Z0.000000
G01 X163.866855 Y42.722448 Z0.000000
G01 X164.698255 Y42.815307 Z0.000000
G01 X164.639340 Y42.299248 Z0.000000
G01 X164.580423 Y41.783189 Z0.000000
G01 X164.521508 Y41.267130 Z0.000000
G01 X164.462593 Y40.751071 Z0.000000
G01 X163.679311 Y40.655996 Z0.000000
G01 X162.896027 Y40.560921 Z0.000000
G01 X162.112745 Y40.465848 Z0.000000
G01 X161.329463 Y40.370773 Z0.000000
G01 X161.340271 Y40.889049 Z0.000000
G01 X161.351078 Y41.407324 Z0.000000
G01 X161.361886 Y41.925600 Z0.000000
G01 X161.372652 Y42.443876 Z0.000000
G00 Z5.000000

(End cutting path id: path7270)


(Start cutting path id: path7270)
(Change tool to Default tool)

G00 Z5.000000
G00 X149.002057 Y92.912058

G01 Z0.000000 F100.0(Penetrate)
G01 X136.201872 Y92.531063 Z0.000000 F400.000000
G01 X123.382928 Y92.089448 Z0.000000
G01 X110.549190 Y91.600519 Z0.000000
G01 X97.704633 Y91.077578 Z0.000000
G01 X98.544806 Y88.861273 Z0.000000
G01 X99.384980 Y86.644971 Z0.000000
G01 X100.225156 Y84.428669 Z0.000000
G01 X101.065329 Y82.212364 Z0.000000
G01 X102.718430 Y82.395331 Z0.000000
G01 X103.850032 Y82.620625 Z0.000000
G01 X104.195693 Y82.894042 Z0.000000
G01 X103.490968 Y83.221382 Z0.000000
G01 X103.241278 Y83.288866 Z0.000000
G01 X102.991588 Y83.356349 Z0.000000
G01 X102.741898 Y83.423833 Z0.000000
G01 X102.492207 Y83.491317 Z0.000000
G01 X101.850184 Y84.161675 Z0.000000
G01 X103.710214 Y84.917769 Z0.000000
G01 X107.370413 Y85.601733 Z0.000000
G01 X112.128897 Y86.055701 Z0.000000
G01 X121.342721 Y86.599324 Z0.000000
G01 X130.560638 Y87.175848 Z0.000000
G01 X139.780977 Y87.763346 Z0.000000
G01 X149.002057 Y88.339896 Z0.000000
G01 X149.002057 Y89.482936 Z0.000000
G01 X149.002057 Y90.625978 Z0.000000
G01 X149.002057 Y91.769018 Z0.000000
G01 X149.002057 Y92.912058 Z0.000000
G00 Z5.000000

(End cutting path id: path7270)


(Start cutting path id: path7270)
(Change tool to Default tool)

G00 Z5.000000
G00 X149.002057 Y92.912058

G01 Z0.000000 F100.0(Penetrate)
G01 X155.204792 Y92.627570 Z0.000000 F400.000000
G01 X161.315004 Y92.258204 Z0.000000
G01 X167.328791 Y91.777117 Z0.000000
G01 X173.242248 Y91.157478 Z0.000000
G01 X176.370917 Y90.571202 Z0.000000
G01 X175.826979 Y90.147683 Z0.000000
G01 X173.653662 Y89.873423 Z0.000000
G01 X171.894190 Y89.734920 Z0.000000
G01 X166.336897 Y89.396556 Z0.000000
G01 X160.779604 Y89.058193 Z0.000000
G01 X155.222311 Y88.719829 Z0.000000
G01 X149.665018 Y88.381466 Z0.000000
G01 X140.278204 Y87.795878 Z0.000000
G01 X130.892069 Y87.197486 Z0.000000
G01 X121.508378 Y86.609643 Z0.000000
G01 X112.128897 Y86.055701 Z0.000000
G01 X107.370413 Y85.601733 Z0.000000
G01 X103.710214 Y84.917769 Z0.000000
G01 X101.850184 Y84.161675 Z0.000000
G01 X102.492207 Y83.491317 Z0.000000
G01 X102.741898 Y83.423833 Z0.000000
G01 X102.991588 Y83.356349 Z0.000000
G01 X103.241278 Y83.288866 Z0.000000
G01 X103.490968 Y83.221382 Z0.000000
G01 X104.066113 Y82.701550 Z0.000000
G01 X102.186859 Y82.322391 Z0.000000
G01 X99.090356 Y82.058681 Z0.000000
G01 X96.013760 Y81.885201 Z0.000000
G01 X85.864193 Y81.362201 Z0.000000
G01 X75.714626 Y80.839202 Z0.000000
G01 X65.565059 Y80.316202 Z0.000000
G01 X55.415492 Y79.793202 Z0.000000
G01 X56.144317 Y79.678479 Z0.000000
G01 X56.873140 Y79.563759 Z0.000000
G01 X57.601966 Y79.449037 Z0.000000
G01 X58.330792 Y79.334314 Z0.000000
G01 X68.379133 Y79.864061 Z0.000000
G01 X78.427475 Y80.393811 Z0.000000
G01 X88.475817 Y80.923557 Z0.000000
G01 X98.524158 Y81.453304 Z0.000000
G01 X101.440735 Y81.688405 Z0.000000
G01 X104.084832 Y82.027352 Z0.000000
G01 X106.003477 Y82.379575 Z0.000000
G01 X106.743686 Y82.654518 Z0.000000
G01 X106.526892 Y82.927416 Z0.000000
G01 X106.002482 Y83.171302 Z0.000000
G01 X105.359417 Y83.392988 Z0.000000
G01 X104.786657 Y83.599292 Z0.000000
G01 X104.241337 Y84.257547 Z0.000000
G01 X105.274480 Y84.830130 Z0.000000
G01 X107.066791 Y85.255088 Z0.000000
G01 X108.798974 Y85.470483 Z0.000000
G01 X121.723475 Y86.284204 Z0.000000
G01 X134.647977 Y87.097925 Z0.000000
G01 X147.572481 Y87.911642 Z0.000000
G01 X160.496982 Y88.725363 Z0.000000
G01 X167.763081 Y89.158362 Z0.000000
G01 X173.317635 Y89.490120 Z0.000000
G01 X176.955201 Y89.790841 Z0.000000
G01 X178.470354 Y90.130645 Z0.000000
G01 X178.479255 Y90.146705 Z0.000000
G01 X178.488155 Y90.162764 Z0.000000
G01 X178.497056 Y90.178824 Z0.000000
G01 X178.505956 Y90.194884 Z0.000000
G01 X175.688833 Y91.247326 Z0.000000
G01 X168.534969 Y92.032258 Z0.000000
G01 X158.990615 Y92.577797 Z0.000000
G01 X149.002057 Y92.912058 Z0.000000
G00 Z5.000000

(End cutting path id: path7270)


(Start cutting path id: path7270)
(Change tool to Default tool)

G00 Z5.000000
G00 X149.002057 Y92.912058

G01 Z0.000000 F100.0(Penetrate)
G01 X136.212832 Y92.556118 Z0.000000 F400.000000
G01 X123.386203 Y92.151630 Z0.000000
G01 X110.527624 Y91.709498 Z0.000000
G01 X97.642548 Y91.240620 Z0.000000
G01 X97.658082 Y91.199860 Z0.000000
G01 X97.673617 Y91.159098 Z0.000000
G01 X97.689151 Y91.118338 Z0.000000
G01 X97.704686 Y91.077578 Z0.000000
G01 X110.549242 Y91.600519 Z0.000000
G01 X123.382980 Y92.089448 Z0.000000
G01 X136.201925 Y92.531063 Z0.000000
G01 X149.002057 Y92.912058 Z0.000000
G00 Z5.000000

(End cutting path id: path7270)


(Start cutting path id: path7270)
(Change tool to Default tool)

G00 Z5.000000
G00 X118.798222 Y106.916052

G01 Z0.000000 F100.0(Penetrate)
G01 X118.850094 Y106.782011 Z0.000000 F400.000000
G01 X118.836273 Y106.632092 Z0.000000
G01 X118.762072 Y106.484294 Z0.000000
G01 X118.632821 Y106.356610 Z0.000000
G01 X118.470754 Y106.274498 Z0.000000
G01 X118.307057 Y106.250976 Z0.000000
G01 X118.160488 Y106.285384 Z0.000000
G01 X118.049801 Y106.377065 Z0.000000
G01 X117.997932 Y106.511106 Z0.000000
G01 X118.011753 Y106.661024 Z0.000000
G01 X118.085951 Y106.808823 Z0.000000
G01 X118.215202 Y106.936504 Z0.000000
G01 X118.377269 Y107.018615 Z0.000000
G01 X118.540966 Y107.042138 Z0.000000
G01 X118.687535 Y107.007730 Z0.000000
G01 X118.798222 Y106.916052 Z0.000000
G00 Z5.000000

(End cutting path id: path7270)


(Start cutting path id: path7270)
(Change tool to Default tool)

G00 Z5.000000
G00 X109.245529 Y95.810712

G01 Z0.000000 F100.0(Penetrate)
G01 X109.297398 Y95.676671 Z0.000000 F400.000000
G01 X109.283577 Y95.526753 Z0.000000
G01 X109.209379 Y95.378954 Z0.000000
G01 X109.080128 Y95.251273 Z0.000000
G01 X108.918061 Y95.169162 Z0.000000
G01 X108.754364 Y95.145639 Z0.000000
G01 X108.607795 Y95.180047 Z0.000000
G01 X108.497108 Y95.271728 Z0.000000
G01 X108.445239 Y95.405769 Z0.000000
G01 X108.459060 Y95.555688 Z0.000000
G01 X108.533257 Y95.703486 Z0.000000
G01 X108.662509 Y95.831167 Z0.000000
G01 X108.824575 Y95.913279 Z0.000000
G01 X108.988273 Y95.936801 Z0.000000
G01 X109.134842 Y95.902393 Z0.000000
G01 X109.245529 Y95.810712 Z0.000000
G00 Z5.000000

(End cutting path id: path7270)


(Start cutting path id: path7270)
(Change tool to Default tool)

G00 Z5.000000
G00 X101.064249 Y82.212364

G01 Z0.000000 F100.0(Penetrate)
G01 X100.800340 Y82.189256 Z0.000000 F400.000000
G01 X100.532473 Y82.166894 Z0.000000
G01 X100.261502 Y82.145251 Z0.000000
G01 X99.988286 Y82.124354 Z0.000000
G01 X100.263721 Y82.145251 Z0.000000
G01 X100.534098 Y82.166839 Z0.000000
G01 X100.800561 Y82.189201 Z0.000000
G01 X101.064249 Y82.212364 Z0.000000
G00 Z5.000000

(End cutting path id: path7270)


(Start cutting path id: path7270)
(Change tool to Default tool)

G00 Z5.000000
G00 X99.858717 Y82.115185

G01 Z0.000000 F100.0(Penetrate)
G01 X99.434350 Y82.085186 Z0.000000 F400.000000
G01 X99.010779 Y82.056658 Z0.000000
G01 X98.589809 Y82.029597 Z0.000000
G01 X98.173243 Y82.003973 Z0.000000
G01 X98.591766 Y82.029569 Z0.000000
G01 X99.013684 Y82.056575 Z0.000000
G01 X99.436752 Y82.085084 Z0.000000
G01 X99.858717 Y82.115185 Z0.000000
G00 Z5.000000

(End cutting path id: path7270)


(Start cutting path id: path7270)
(Change tool to Default tool)

G00 Z5.000000
G00 X93.682597 Y90.906981

G01 Z0.000000 F100.0(Penetrate)
G01 X85.608823 Y90.564955 Z0.000000 F400.000000
G01 X77.534081 Y90.220673 Z0.000000
G01 X69.459159 Y89.876590 Z0.000000
G01 X61.384840 Y89.535167 Z0.000000
G01 X60.547724 Y87.515846 Z0.000000
G01 X59.788460 Y85.459485 Z0.000000
G01 X59.109761 Y83.356662 Z0.000000
G01 X58.514347 Y81.197948 Z0.000000
G01 X58.329036 Y81.280549 Z0.000000
G01 X58.143726 Y81.363149 Z0.000000
G01 X57.958415 Y81.445747 Z0.000000
G01 X57.773105 Y81.528348 Z0.000000
G01 X51.099225 Y82.755879 Z0.000000
G01 X44.425345 Y83.983408 Z0.000000
G01 X37.751465 Y85.210939 Z0.000000
G01 X31.077585 Y86.438471 Z0.000000
G01 X31.221453 Y86.924821 Z0.000000
G01 X31.367839 Y87.405573 Z0.000000
G01 X31.516212 Y87.882044 Z0.000000
G01 X31.666042 Y88.355552 Z0.000000
G01 X27.034672 Y88.190361 Z0.000000
G01 X22.405120 Y88.031567 Z0.000000
G01 X17.777718 Y87.880228 Z0.000000
G01 X13.152801 Y87.737400 Z0.000000
G01 X13.152801 Y86.976181 Z0.000000
G01 X13.152801 Y86.214962 Z0.000000
G01 X13.152801 Y85.453747 Z0.000000
G01 X13.152801 Y84.692528 Z0.000000
G01 X14.406515 Y84.752993 Z0.000000
G01 X15.660230 Y84.813459 Z0.000000
G01 X16.913944 Y84.873925 Z0.000000
G01 X18.167659 Y84.934390 Z0.000000
G01 X27.479618 Y83.061983 Z0.000000
G01 X36.791574 Y81.189578 Z0.000000
G01 X46.103533 Y79.317171 Z0.000000
G01 X55.415492 Y77.444766 Z0.000000
G01 X55.415492 Y78.031874 Z0.000000
G01 X55.415492 Y78.618983 Z0.000000
G01 X55.415492 Y79.206094 Z0.000000
G01 X55.415492 Y79.793202 Z0.000000
G01 X65.565059 Y80.316202 Z0.000000
G01 X75.714626 Y80.839202 Z0.000000
G01 X85.864193 Y81.362201 Z0.000000
G01 X96.013760 Y81.885201 Z0.000000
G01 X96.147525 Y81.892194 Z0.000000
G01 X96.289483 Y81.899740 Z0.000000
G01 X96.434078 Y81.907425 Z0.000000
G01 X96.575765 Y81.914888 Z0.000000
G01 X95.852473 Y84.162908 Z0.000000
G01 X95.129181 Y86.410931 Z0.000000
G01 X94.405889 Y88.658952 Z0.000000
G01 X93.682597 Y90.906981 Z0.000000
G00 Z5.000000

(End cutting path id: path7270)


(Start cutting path id: path7270)
(Change tool to Default tool)

G00 Z5.000000
G00 X93.623752 Y91.089455

G01 Z0.000000 F100.0(Penetrate)
G01 X85.610490 Y90.788363 Z0.000000 F400.000000
G01 X77.590721 Y90.485961 Z0.000000
G01 X69.566209 Y90.184062 Z0.000000
G01 X61.538703 Y89.884465 Z0.000000
G01 X61.500019 Y89.797213 Z0.000000
G01 X61.461484 Y89.709918 Z0.000000
G01 X61.423093 Y89.622574 Z0.000000
G01 X61.384840 Y89.535167 Z0.000000
G01 X69.459159 Y89.876590 Z0.000000
G01 X77.534081 Y90.220673 Z0.000000
G01 X85.608823 Y90.564955 Z0.000000
G01 X93.682597 Y90.906981 Z0.000000
G01 X93.667892 Y90.952600 Z0.000000
G01 X93.653187 Y90.998219 Z0.000000
G01 X93.638482 Y91.043836 Z0.000000
G01 X93.623752 Y91.089455 Z0.000000
G00 Z5.000000

(End cutting path id: path7270)


(Start cutting path id: path7270)
(Change tool to Default tool)

G00 Z5.000000
G00 X63.926011 Y100.315845

G01 Z0.000000 F100.0(Penetrate)
G01 X64.051260 Y99.472971 Z0.000000 F400.000000
G01 X64.176511 Y98.630099 Z0.000000
G01 X64.301760 Y97.787226 Z0.000000
G01 X64.427011 Y96.944352 Z0.000000
G01 X62.539219 Y93.471733 Z0.000000
G01 X60.759034 Y89.816089 Z0.000000
G01 X59.149363 Y85.870578 Z0.000000
G01 X57.773105 Y81.528348 Z0.000000
G01 X57.958415 Y81.445747 Z0.000000
G01 X58.143726 Y81.363149 Z0.000000
G01 X58.329036 Y81.280549 Z0.000000
G01 X58.514347 Y81.197948 Z0.000000
G01 X59.732353 Y85.299624 Z0.000000
G01 X61.248944 Y89.226844 Z0.000000
G01 X63.047408 Y93.045580 Z0.000000
G01 X65.111027 Y96.821801 Z0.000000
G01 X64.997924 Y97.652526 Z0.000000
G01 X64.884821 Y98.483255 Z0.000000
G01 X64.771718 Y99.313980 Z0.000000
G01 X64.658615 Y100.144706 Z0.000000
G01 X64.475464 Y100.187492 Z0.000000
G01 X64.292312 Y100.230275 Z0.000000
G01 X64.109163 Y100.273061 Z0.000000
G01 X63.926011 Y100.315845 Z0.000000
G00 Z5.000000

(End cutting path id: path7270)


(Start cutting path id: path7270)
(Change tool to Default tool)

G00 Z5.000000
G00 X60.919470 Y90.164658

G01 Z0.000000 F100.0(Penetrate)
G01 X60.893045 Y90.107390 Z0.000000 F400.000000
G01 X60.866509 Y90.050336 Z0.000000
G01 X60.840001 Y89.993215 Z0.000000
G01 X60.813686 Y89.935751 Z0.000000
G01 X60.813825 Y89.935751 Z0.000000
G01 X60.813963 Y89.935751 Z0.000000
G01 X60.814101 Y89.935751 Z0.000000
G01 X60.814239 Y89.935751 Z0.000000
G01 X60.840443 Y89.993168 Z0.000000
G01 X60.866785 Y90.050339 Z0.000000
G01 X60.893183 Y90.107443 Z0.000000
G01 X60.919525 Y90.164658 Z0.000000
G01 X60.919522 Y90.164658 Z0.000000
G01 X60.919517 Y90.164658 Z0.000000
G01 X60.919514 Y90.164658 Z0.000000
G01 X60.919470 Y90.164658 Z0.000000
G00 Z5.000000

(End cutting path id: path7270)


(Start cutting path id: path7270)
(Change tool to Default tool)

G00 Z5.000000
G00 X60.776945 Y89.855851

G01 Z0.000000 F100.0(Penetrate)
G01 X60.773518 Y89.848056 Z0.000000 F400.000000
G01 X60.770173 Y89.840206 Z0.000000
G01 X60.766829 Y89.832356 Z0.000000
G01 X60.763429 Y89.824561 Z0.000000
G01 X60.766939 Y89.832411 Z0.000000
G01 X60.770450 Y89.840234 Z0.000000
G01 X60.773960 Y89.848056 Z0.000000
G01 X60.777471 Y89.855879 Z0.000000
G01 X60.777346 Y89.855876 Z0.000000
G01 X60.777230 Y89.855879 Z0.000000
G01 X60.777095 Y89.855881 Z0.000000
G01 X60.776945 Y89.855851 Z0.000000
G00 Z5.000000

(End cutting path id: path7270)


(Start cutting path id: path7270)
(Change tool to Default tool)

G00 Z5.000000
G00 X57.772956 Y81.528434

G01 Z0.000000 F100.0(Penetrate)
G01 X59.149200 Y85.870612 Z0.000000 F400.000000
G01 X60.758843 Y89.816009 Z0.000000
G01 X62.538997 Y93.471539 Z0.000000
G01 X64.426776 Y96.944106 Z0.000000
G01 X64.301563 Y97.787002 Z0.000000
G01 X64.176351 Y98.629898 Z0.000000
G01 X64.051138 Y99.472791 Z0.000000
G01 X63.925925 Y100.315687 Z0.000000
G01 X62.171997 Y99.954204 Z0.000000
G01 X60.490398 Y100.002748 Z0.000000
G01 X58.862150 Y100.390999 Z0.000000
G01 X57.268274 Y101.048642 Z0.000000
G01 X53.910015 Y102.382919 Z0.000000
G01 X50.385856 Y103.148784 Z0.000000
G01 X46.687004 Y103.267703 Z0.000000
G01 X42.804673 Y102.661138 Z0.000000
G01 X40.891146 Y102.245956 Z0.000000
G01 X39.137517 Y102.061099 Z0.000000
G01 X37.592751 Y102.212911 Z0.000000
G01 X36.305827 Y102.807728 Z0.000000
G01 X35.829408 Y102.184719 Z0.000000
G01 X35.352987 Y101.561708 Z0.000000
G01 X34.876569 Y100.938699 Z0.000000
G01 X34.400150 Y100.315687 Z0.000000
G01 X33.857907 Y96.225134 Z0.000000
G01 X33.031783 Y92.746011 Z0.000000
G01 X32.059163 Y89.582417 Z0.000000
G01 X31.077433 Y86.438451 Z0.000000
G01 X37.751313 Y85.210947 Z0.000000
G01 X44.425193 Y83.983444 Z0.000000
G01 X51.099076 Y82.755937 Z0.000000
G01 X57.772956 Y81.528434 Z0.000000
G00 Z5.000000

(End cutting path id: path7270)


(Start cutting path id: path7270)
(Change tool to Default tool)

G00 Z5.000000
G00 X53.139396 Y81.634162

G01 Z0.000000 F100.0(Penetrate)
G01 X53.333748 Y81.681672 Z0.000000 F400.000000
G01 X53.528103 Y81.729179 Z0.000000
G01 X53.722455 Y81.776689 Z0.000000
G01 X53.916810 Y81.824196 Z0.000000
G01 X47.422165 Y83.014072 Z0.000000
G01 X40.927523 Y84.203947 Z0.000000
G01 X34.432878 Y85.393820 Z0.000000
G01 X27.938235 Y86.583696 Z0.000000
G01 X27.785992 Y86.549144 Z0.000000
G01 X27.633749 Y86.514592 Z0.000000
G01 X27.481506 Y86.480040 Z0.000000
G01 X27.329263 Y86.445489 Z0.000000
G01 X33.781796 Y85.242658 Z0.000000
G01 X40.234329 Y84.039827 Z0.000000
G01 X46.686863 Y82.836993 Z0.000000
G01 X53.139396 Y81.634162 Z0.000000
G00 Z5.000000

(End cutting path id: path7270)


(Start cutting path id: path7270)
(Change tool to Default tool)

G00 Z5.000000
G00 X53.139396 Y80.874024

G01 Z0.000000 F100.0(Penetrate)
G01 X53.139396 Y81.064059 Z0.000000 F400.000000
G01 X53.139396 Y81.254093 Z0.000000
G01 X53.139396 Y81.444128 Z0.000000
G01 X53.139396 Y81.634162 Z0.000000
G01 X53.333748 Y81.681672 Z0.000000
G01 X53.528103 Y81.729179 Z0.000000
G01 X53.722455 Y81.776689 Z0.000000
G01 X53.916810 Y81.824196 Z0.000000
G01 X53.916810 Y81.638482 Z0.000000
G01 X53.916810 Y81.452765 Z0.000000
G01 X53.916810 Y81.267051 Z0.000000
G01 X53.916810 Y81.081334 Z0.000000
G01 X53.722455 Y81.029507 Z0.000000
G01 X53.528103 Y80.977679 Z0.000000
G01 X53.333748 Y80.925852 Z0.000000
G01 X53.139396 Y80.874024 Z0.000000
G00 Z5.000000

(End cutting path id: path7270)


(Start cutting path id: path7270)
(Change tool to Default tool)

G00 Z5.000000
G00 X53.139396 Y80.874024

G01 Z0.000000 F100.0(Penetrate)
G01 X53.139396 Y81.064059 Z0.000000 F400.000000
G01 X53.139396 Y81.254093 Z0.000000
G01 X53.139396 Y81.444128 Z0.000000
G01 X53.139396 Y81.634162 Z0.000000
G01 X46.686863 Y82.836993 Z0.000000
G01 X40.234329 Y84.039827 Z0.000000
G01 X33.781796 Y85.242658 Z0.000000
G01 X27.329263 Y86.445489 Z0.000000
G01 X27.329263 Y86.242499 Z0.000000
G01 X27.329263 Y86.039506 Z0.000000
G01 X27.329263 Y85.836516 Z0.000000
G01 X27.329263 Y85.633523 Z0.000000
G01 X33.781796 Y84.443648 Z0.000000
G01 X40.234329 Y83.253775 Z0.000000
G01 X46.686863 Y82.063900 Z0.000000
G01 X53.139396 Y80.874024 Z0.000000
G00 Z5.000000

(End cutting path id: path7270)


(Start cutting path id: path7270)
(Change tool to Default tool)

G00 Z5.000000
G00 X31.100259 Y86.512433

G01 Z0.000000 F100.0(Penetrate)
G01 X30.520844 Y86.491509 Z0.000000 F400.000000
G01 X29.941425 Y86.470584 Z0.000000
G01 X29.362009 Y86.449660 Z0.000000
G01 X28.782594 Y86.428735 Z0.000000
G01 X35.066147 Y85.277596 Z0.000000
G01 X41.349700 Y84.126458 Z0.000000
G01 X47.633256 Y82.975319 Z0.000000
G01 X53.916810 Y81.824180 Z0.000000
G01 X53.722455 Y81.776670 Z0.000000
G01 X53.528103 Y81.729163 Z0.000000
G01 X53.333748 Y81.681653 Z0.000000
G01 X53.139396 Y81.634145 Z0.000000
G01 X53.139396 Y81.444111 Z0.000000
G01 X53.139396 Y81.254076 Z0.000000
G01 X53.139396 Y81.064042 Z0.000000
G01 X53.139396 Y80.874008 Z0.000000
G01 X46.686863 Y82.063883 Z0.000000
G01 X40.234329 Y83.253756 Z0.000000
G01 X33.781796 Y84.443631 Z0.000000
G01 X27.329263 Y85.633523 Z0.000000
G01 X27.329263 Y85.819237 Z0.000000
G01 X27.329263 Y86.004954 Z0.000000
G01 X27.329263 Y86.190668 Z0.000000
G01 X27.329263 Y86.376385 Z0.000000
G01 X26.061378 Y86.330766 Z0.000000
G01 X24.793490 Y86.285147 Z0.000000
G01 X23.525605 Y86.239527 Z0.000000
G01 X22.257717 Y86.193908 Z0.000000
G01 X30.811968 Y84.607362 Z0.000000
G01 X39.366216 Y83.020819 Z0.000000
G01 X47.920467 Y81.434273 Z0.000000
G01 X56.474718 Y79.847730 Z0.000000
G01 X59.059753 Y79.980942 Z0.000000
G01 X61.644788 Y80.114154 Z0.000000
G01 X64.229823 Y80.247369 Z0.000000
G01 X66.814858 Y80.380581 Z0.000000
G01 X64.782515 Y80.747559 Z0.000000
G01 X62.750172 Y81.114535 Z0.000000
G01 X60.717829 Y81.481512 Z0.000000
G01 X58.685486 Y81.848490 Z0.000000
G01 X58.642169 Y81.686222 Z0.000000
G01 X58.598965 Y81.523931 Z0.000000
G01 X58.556240 Y81.361284 Z0.000000
G01 X58.514347 Y81.197948 Z0.000000
G01 X58.329036 Y81.280549 Z0.000000
G01 X58.143726 Y81.363147 Z0.000000
G01 X57.958415 Y81.445747 Z0.000000
G01 X57.773105 Y81.528348 Z0.000000
G01 X51.099225 Y82.755879 Z0.000000
G01 X44.425345 Y83.983408 Z0.000000
G01 X37.751465 Y85.210939 Z0.000000
G01 X31.077585 Y86.438471 Z0.000000
G01 X31.083169 Y86.457101 Z0.000000
G01 X31.088890 Y86.475482 Z0.000000
G01 X31.094640 Y86.493836 Z0.000000
G01 X31.100251 Y86.512439 Z0.000000
G01 X31.100254 Y86.512439 Z0.000000
G01 X31.100257 Y86.512439 Z0.000000
G01 X31.100257 Y86.512439 Z0.000000
G01 X31.100259 Y86.512433 Z0.000000
G00 Z5.000000

(End cutting path id: path7270)


(Start cutting path id: path7270)
(Change tool to Default tool)

G00 Z5.000000
G00 X31.820447 Y88.837656

G01 Z0.000000 F100.0(Penetrate)
G01 X26.661970 Y88.674254 Z0.000000 F400.000000
G01 X21.504899 Y88.517832 Z0.000000
G01 X16.349565 Y88.369074 Z0.000000
G01 X11.196310 Y88.228681 Z0.000000
G01 X11.685433 Y88.105862 Z0.000000
G01 X12.174556 Y87.983040 Z0.000000
G01 X12.663678 Y87.860221 Z0.000000
G01 X13.152801 Y87.737400 Z0.000000
G01 X17.777718 Y87.880228 Z0.000000
G01 X22.405120 Y88.031567 Z0.000000
G01 X27.034672 Y88.190361 Z0.000000
G01 X31.666042 Y88.355552 Z0.000000
G01 X31.704550 Y88.476262 Z0.000000
G01 X31.743142 Y88.596825 Z0.000000
G01 X31.781788 Y88.717281 Z0.000000
G01 X31.820447 Y88.837656 Z0.000000
G00 Z5.000000

(End cutting path id: path7270)


(Start cutting path id: path7270)
(Change tool to Default tool)

G00 Z5.000000
G00 X15.318762 Y83.316405

G01 Z0.000000 F100.0(Penetrate)
G01 X15.318762 Y79.988508 Z0.000000 F400.000000
G01 X15.318762 Y76.660611 Z0.000000
G01 X15.318762 Y73.332711 Z0.000000
G01 X15.318762 Y70.004814 Z0.000000
G01 X22.971832 Y67.959919 Z0.000000
G01 X30.624902 Y65.915026 Z0.000000
G01 X38.277975 Y63.870131 Z0.000000
G01 X45.931045 Y61.825236 Z0.000000
G01 X46.219428 Y61.890365 Z0.000000
G01 X46.522778 Y61.944509 Z0.000000
G01 X46.841364 Y61.988146 Z0.000000
G01 X47.175446 Y62.021750 Z0.000000
G01 X48.253971 Y62.112450 Z0.000000
G01 X49.332499 Y62.203146 Z0.000000
G01 X50.411024 Y62.293846 Z0.000000
G01 X51.489551 Y62.384543 Z0.000000
G01 X54.546917 Y63.688552 Z0.000000
G01 X56.100008 Y66.542751 Z0.000000
G01 X56.358643 Y70.338824 Z0.000000
G01 X55.532641 Y74.468465 Z0.000000
G01 X55.480996 Y74.655030 Z0.000000
G01 X55.444430 Y74.835329 Z0.000000
G01 X55.422676 Y75.020341 Z0.000000
G01 X55.415489 Y75.221045 Z0.000000
G01 X55.415489 Y75.267474 Z0.000000
G01 X55.415489 Y75.313904 Z0.000000
G01 X55.415489 Y75.360330 Z0.000000
G01 X55.415489 Y75.406759 Z0.000000
G01 X55.280522 Y75.322406 Z0.000000
G01 X55.145552 Y75.238050 Z0.000000
G01 X55.010584 Y75.153697 Z0.000000
G01 X54.875617 Y75.069341 Z0.000000
G01 X44.986401 Y77.131108 Z0.000000
G01 X35.097188 Y79.192873 Z0.000000
G01 X25.207972 Y81.254640 Z0.000000
G01 X15.318762 Y83.316405 Z0.000000
G00 Z5.000000

(End cutting path id: path7270)


(Start cutting path id: path7270)
(Change tool to Default tool)

G00 Z5.000000
G00 X13.152801 Y83.767731

G01 Z0.000000 F100.0(Penetrate)
G01 X13.152801 Y83.730614 Z0.000000 F400.000000
G01 X13.152801 Y83.693500 Z0.000000
G01 X13.152801 Y83.656383 Z0.000000
G01 X13.152801 Y83.619266 Z0.000000
G01 X14.205082 Y80.185151 Z0.000000
G01 X14.046011 Y76.904574 Z0.000000
G01 X12.469648 Y74.388352 Z0.000000
G01 X9.270052 Y73.247271 Z0.000000
G01 X8.210285 Y73.182353 Z0.000000
G01 X7.150520 Y73.117434 Z0.000000
G01 X6.090753 Y73.052513 Z0.000000
G01 X5.030988 Y72.987595 Z0.000000
G01 X4.259175 Y72.859344 Z0.000000
G01 X3.570578 Y72.482382 Z0.000000
G01 X3.076094 Y71.725699 Z0.000000
G01 X2.886622 Y70.458301 Z0.000000
G01 X2.886622 Y69.179078 Z0.000000
G01 X2.886622 Y67.899854 Z0.000000
G01 X2.886622 Y66.620631 Z0.000000
G01 X2.886622 Y65.341407 Z0.000000
G01 X2.983258 Y65.350031 Z0.000000
G01 X3.079895 Y65.358655 Z0.000000
G01 X3.176532 Y65.367279 Z0.000000
G01 X3.273169 Y65.375904 Z0.000000
G01 X3.272899 Y65.376042 Z0.000000
G01 X3.272630 Y65.376180 Z0.000000
G01 X3.272360 Y65.376318 Z0.000000
G01 X3.272091 Y65.376456 Z0.000000
G01 X3.272091 Y65.852488 Z0.000000
G01 X3.272091 Y66.328519 Z0.000000
G01 X3.272091 Y66.804551 Z0.000000
G01 X3.272091 Y67.280582 Z0.000000
G01 X3.510174 Y67.334301 Z0.000000
G01 X3.748257 Y67.388016 Z0.000000
G01 X3.986340 Y67.441731 Z0.000000
G01 X4.224423 Y67.495450 Z0.000000
G01 X4.230631 Y67.664698 Z0.000000
G01 X4.236839 Y67.833949 Z0.000000
G01 X4.243047 Y68.003200 Z0.000000
G01 X4.249256 Y68.172448 Z0.000000
G01 X4.772255 Y68.233181 Z0.000000
G01 X5.295255 Y68.293918 Z0.000000
G01 X5.818254 Y68.354654 Z0.000000
G01 X6.341254 Y68.415388 Z0.000000
G01 X6.341254 Y68.728918 Z0.000000
G01 X6.341254 Y69.042446 Z0.000000
G01 X6.341254 Y69.355977 Z0.000000
G01 X6.341254 Y69.669507 Z0.000000
G01 X8.585631 Y69.753322 Z0.000000
G01 X10.830008 Y69.837136 Z0.000000
G01 X13.074385 Y69.920953 Z0.000000
G01 X15.318762 Y70.004767 Z0.000000
G01 X15.318762 Y73.332664 Z0.000000
G01 X15.318762 Y76.660564 Z0.000000
G01 X15.318762 Y79.988461 Z0.000000
G01 X15.318762 Y83.316358 Z0.000000
G01 X14.777272 Y83.429190 Z0.000000
G01 X14.235782 Y83.542022 Z0.000000
G01 X13.694292 Y83.654857 Z0.000000
G01 X13.152801 Y83.767689 Z0.000000
G01 X13.152801 Y83.767686 Z0.000000
G01 X13.152801 Y83.767684 Z0.000000
G01 X13.152801 Y83.767678 Z0.000000
G01 X13.152801 Y83.767731 Z0.000000
G00 Z5.000000

(End cutting path id: path7270)


(Start cutting path id: path7270)
(Change tool to Default tool)

G00 Z5.000000
G00 X13.152801 Y84.692531

G01 Z0.000000 F100.0(Penetrate)
G01 X23.576758 Y82.529673 Z0.000000 F400.000000
G01 X34.000713 Y80.366819 Z0.000000
G01 X44.424670 Y78.203961 Z0.000000
G01 X54.848625 Y76.041104 Z0.000000
G01 X54.855370 Y75.798164 Z0.000000
G01 X54.862114 Y75.555221 Z0.000000
G01 X54.868859 Y75.312281 Z0.000000
G01 X54.875603 Y75.069338 Z0.000000
G01 X44.444898 Y77.244004 Z0.000000
G01 X34.014196 Y79.418670 Z0.000000
G01 X23.583492 Y81.593336 Z0.000000
G01 X13.152787 Y83.768001 Z0.000000
G01 X13.152790 Y83.999133 Z0.000000
G01 X13.152794 Y84.230267 Z0.000000
G01 X13.152797 Y84.461399 Z0.000000
G01 X13.152801 Y84.692531 Z0.000000
G00 Z5.000000

(End cutting path id: path7270)


(Start cutting path id: path7270)
(Change tool to Default tool)

G00 Z5.000000
G00 X11.196310 Y88.228681

G01 Z0.000000 F100.0(Penetrate)
G01 X11.196310 Y87.231405 Z0.000000 F400.000000
G01 X11.196310 Y86.234129 Z0.000000
G01 X11.196310 Y85.236853 Z0.000000
G01 X11.196310 Y84.239577 Z0.000000
G01 X11.202413 Y84.129454 Z0.000000
G01 X11.219918 Y84.030069 Z0.000000
G01 X11.247619 Y83.931918 Z0.000000
G01 X11.284308 Y83.825495 Z0.000000
G01 X12.056007 Y81.140407 Z0.000000
G01 X12.179877 Y78.108328 Z0.000000
G01 X11.003642 Y75.456826 Z0.000000
G01 X7.875025 Y73.913473 Z0.000000
G01 X6.887197 Y73.841804 Z0.000000
G01 X5.899368 Y73.770138 Z0.000000
G01 X4.911540 Y73.698470 Z0.000000
G01 X3.923712 Y73.626801 Z0.000000
G01 X2.418761 Y73.335903 Z0.000000
G01 X1.513900 Y72.744972 Z0.000000
G01 X1.072837 Y71.922141 Z0.000000
G01 X0.959282 Y70.935546 Z0.000000
G01 X0.959282 Y69.690874 Z0.000000
G01 X0.959282 Y68.446202 Z0.000000
G01 X0.959282 Y67.201531 Z0.000000
G01 X0.959282 Y65.956859 Z0.000000
G01 X1.441117 Y65.802996 Z0.000000
G01 X1.922952 Y65.649133 Z0.000000
G01 X2.404786 Y65.495270 Z0.000000
G01 X2.886621 Y65.341407 Z0.000000
G01 X2.886621 Y66.620631 Z0.000000
G01 X2.886621 Y67.899854 Z0.000000
G01 X2.886621 Y69.179078 Z0.000000
G01 X2.886621 Y70.458301 Z0.000000
G01 X3.076093 Y71.725699 Z0.000000
G01 X3.570577 Y72.482382 Z0.000000
G01 X4.259174 Y72.859344 Z0.000000
G01 X5.030986 Y72.987595 Z0.000000
G01 X6.090753 Y73.052513 Z0.000000
G01 X7.150519 Y73.117434 Z0.000000
G01 X8.210285 Y73.182353 Z0.000000
G01 X9.270051 Y73.247271 Z0.000000
G01 X12.469647 Y74.388352 Z0.000000
G01 X14.046010 Y76.904574 Z0.000000
G01 X14.205081 Y80.185151 Z0.000000
G01 X13.152800 Y83.619266 Z0.000000
G01 X13.152800 Y84.648799 Z0.000000
G01 X13.152800 Y85.678333 Z0.000000
G01 X13.152800 Y86.707866 Z0.000000
G01 X13.152800 Y87.737400 Z0.000000
G01 X12.663677 Y87.860218 Z0.000000
G01 X12.174554 Y87.983040 Z0.000000
G01 X11.685431 Y88.105862 Z0.000000
G01 X11.196310 Y88.228681 Z0.000000
G00 Z5.000000

(End cutting path id: path7270)


(Start cutting path id: path7270)
(Change tool to Default tool)

G00 Z5.000000
G00 X3.272154 Y67.280524

G01 Z0.000000 F100.0(Penetrate)
G01 X3.510229 Y67.334207 Z0.000000 F400.000000
G01 X3.748303 Y67.387892 Z0.000000
G01 X3.986378 Y67.441574 Z0.000000
G01 X4.224453 Y67.495256 Z0.000000
G01 X14.007845 Y64.496200 Z0.000000
G01 X23.791236 Y61.497144 Z0.000000
G01 X33.574629 Y58.498086 Z0.000000
G01 X43.358020 Y55.499030 Z0.000000
G01 X43.358020 Y55.391057 Z0.000000
G01 X43.358020 Y55.283081 Z0.000000
G01 X43.358020 Y55.175109 Z0.000000
G01 X43.358020 Y55.067133 Z0.000000
G01 X33.336554 Y58.120482 Z0.000000
G01 X23.315088 Y61.173829 Z0.000000
G01 X13.293620 Y64.227178 Z0.000000
G01 X3.272154 Y67.280524 Z0.000000
G00 Z5.000000

(End cutting path id: path7270)


(Start cutting path id: path7270)
(Change tool to Default tool)

G00 Z5.000000
G00 X3.272154 Y65.376498

G01 Z0.000000 F100.0(Penetrate)
G01 X3.272154 Y65.852504 Z0.000000 F400.000000
G01 X3.272154 Y66.328511 Z0.000000
G01 X3.272154 Y66.804518 Z0.000000
G01 X3.272154 Y67.280524 Z0.000000
G01 X13.293620 Y64.227178 Z0.000000
G01 X23.315088 Y61.173829 Z0.000000
G01 X33.336554 Y58.120482 Z0.000000
G01 X43.358020 Y55.067133 Z0.000000
G01 X43.358020 Y54.460491 Z0.000000
G01 X43.358020 Y53.853848 Z0.000000
G01 X43.358020 Y53.247203 Z0.000000
G01 X43.358020 Y52.640561 Z0.000000
G01 X33.336554 Y55.824546 Z0.000000
G01 X23.315088 Y59.008531 Z0.000000
G01 X13.293620 Y62.192513 Z0.000000
G01 X3.272154 Y65.376498 Z0.000000
G00 Z5.000000

(End cutting path id: path7270)


(Start cutting path id: path7270)
(Change tool to Default tool)

G00 Z5.000000
G00 X1.949244 Y65.640744

G01 Z0.000000 F100.0(Penetrate)
G01 X1.949244 Y65.046219 Z0.000000 F400.000000
G01 X1.949244 Y64.451695 Z0.000000
G01 X1.949244 Y63.857170 Z0.000000
G01 X1.949244 Y63.262646 Z0.000000
G01 X13.260243 Y59.535851 Z0.000000
G01 X24.571242 Y55.809053 Z0.000000
G01 X35.882239 Y52.082257 Z0.000000
G01 X47.193239 Y48.355459 Z0.000000
G01 X47.193239 Y49.170880 Z0.000000
G01 X47.193239 Y49.986303 Z0.000000
G01 X47.193239 Y50.801724 Z0.000000
G01 X47.193239 Y51.617144 Z0.000000
G01 X46.934106 Y51.593842 Z0.000000
G01 X46.674971 Y51.570541 Z0.000000
G01 X46.415839 Y51.547239 Z0.000000
G01 X46.156707 Y51.523937 Z0.000000
G01 X45.457034 Y51.729089 Z0.000000
G01 X44.757362 Y51.934240 Z0.000000
G01 X44.057693 Y52.139389 Z0.000000
G01 X43.358020 Y52.344541 Z0.000000
G01 X43.358020 Y52.418539 Z0.000000
G01 X43.358020 Y52.492538 Z0.000000
G01 X43.358020 Y52.566534 Z0.000000
G01 X43.358020 Y52.640533 Z0.000000
G01 X33.336554 Y55.824518 Z0.000000
G01 X23.315088 Y59.008500 Z0.000000
G01 X13.293620 Y62.192485 Z0.000000
G01 X3.272154 Y65.376470 Z0.000000
G01 X3.175771 Y65.367763 Z0.000000
G01 X3.079388 Y65.359056 Z0.000000
G01 X2.983005 Y65.350349 Z0.000000
G01 X2.886622 Y65.341642 Z0.000000
G01 X2.652277 Y65.416409 Z0.000000
G01 X2.417933 Y65.491179 Z0.000000
G01 X2.183588 Y65.565946 Z0.000000
G01 X1.949244 Y65.640744 Z0.000000
G00 Z5.000000

(End cutting path id: path7270)


(Start cutting path id: path7270)
(Change tool to Default tool)

G00 Z5.000000
G00 X22.547089 Y56.475657

G01 Z0.000000 F100.0(Penetrate)
G01 X22.939439 Y50.650589 Z0.000000 F400.000000
G01 X23.331789 Y44.825520 Z0.000000
G01 X23.724142 Y39.000452 Z0.000000
G01 X24.116492 Y33.175383 Z0.000000
G01 X24.578755 Y32.966724 Z0.000000
G01 X25.041021 Y32.758065 Z0.000000
G01 X25.503285 Y32.549403 Z0.000000
G01 X25.965551 Y32.340744 Z0.000000
G01 X25.788068 Y38.151505 Z0.000000
G01 X25.610586 Y43.962269 Z0.000000
G01 X25.433103 Y49.773031 Z0.000000
G01 X25.255621 Y55.583792 Z0.000000
G01 X24.578487 Y55.806758 Z0.000000
G01 X23.901354 Y56.029725 Z0.000000
G01 X23.224223 Y56.252691 Z0.000000
G01 X22.547089 Y56.475657 Z0.000000
G00 Z5.000000

(End cutting path id: path7270)


(Start cutting path id: path7270)
(Change tool to Default tool)

G00 Z5.000000
G00 X25.255621 Y55.583792

G01 Z0.000000 F100.0(Penetrate)
G01 X25.433103 Y49.773031 Z0.000000 F400.000000
G01 X25.610586 Y43.962269 Z0.000000
G01 X25.788068 Y38.151505 Z0.000000
G01 X25.965551 Y32.340744 Z0.000000
G01 X26.009686 Y32.320759 Z0.000000
G01 X26.053818 Y32.300774 Z0.000000
G01 X26.097953 Y32.280789 Z0.000000
G01 X26.142088 Y32.260805 Z0.000000
G01 X27.263938 Y32.381061 Z0.000000
G01 X28.385788 Y32.501318 Z0.000000
G01 X29.507641 Y32.621572 Z0.000000
G01 X30.629491 Y32.741828 Z0.000000
G01 X30.936003 Y37.908659 Z0.000000
G01 X31.242513 Y43.075490 Z0.000000
G01 X31.549025 Y48.242323 Z0.000000
G01 X31.855538 Y53.409154 Z0.000000
G01 X30.205558 Y53.952804 Z0.000000
G01 X28.555578 Y54.496455 Z0.000000
G01 X26.905601 Y55.040103 Z0.000000
G01 X25.255621 Y55.583792 Z0.000000
G00 Z5.000000

(End cutting path id: path7270)


(Start cutting path id: path7270)
(Change tool to Default tool)

G00 Z5.000000
G00 X43.358020 Y55.499030

G01 Z0.000000 F100.0(Penetrate)
G01 X43.358020 Y55.724462 Z0.000000 F400.000000
G01 X43.358020 Y55.949896 Z0.000000
G01 X43.358020 Y56.175328 Z0.000000
G01 X43.358020 Y56.400760 Z0.000000
G01 X33.580829 Y59.343693 Z0.000000
G01 X23.803639 Y62.286626 Z0.000000
G01 X14.026446 Y65.229559 Z0.000000
G01 X4.249255 Y68.172492 Z0.000000
G01 X4.243055 Y68.003183 Z0.000000
G01 X4.236855 Y67.833874 Z0.000000
G01 X4.230655 Y67.664565 Z0.000000
G01 X4.224455 Y67.495256 Z0.000000
G01 X14.007847 Y64.496200 Z0.000000
G01 X23.791239 Y61.497144 Z0.000000
G01 X33.574632 Y58.498086 Z0.000000
G01 X43.358020 Y55.499030 Z0.000000
G00 Z5.000000

(End cutting path id: path7270)


(Start cutting path id: path7270)
(Change tool to Default tool)

G00 Z5.000000
G00 X46.156806 Y51.523946

G01 Z0.000000 F100.0(Penetrate)
G01 X46.156806 Y53.145314 Z0.000000 F400.000000
G01 X46.156806 Y54.766683 Z0.000000
G01 X46.156806 Y56.388054 Z0.000000
G01 X46.156806 Y58.009422 Z0.000000
G01 X46.324636 Y59.128776 Z0.000000
G01 X46.827051 Y60.008120 Z0.000000
G01 X47.662435 Y60.637185 Z0.000000
G01 X48.829166 Y61.005703 Z0.000000
G01 X50.509513 Y61.221651 Z0.000000
G01 X52.189860 Y61.437599 Z0.000000
G01 X53.870209 Y61.653548 Z0.000000
G01 X55.550556 Y61.869496 Z0.000000
G01 X58.298385 Y63.698686 Z0.000000
G01 X59.429019 Y67.020673 Z0.000000
G01 X59.373958 Y70.731942 Z0.000000
G01 X58.564704 Y73.728967 Z0.000000
G01 X58.464286 Y73.954083 Z0.000000
G01 X58.391011 Y74.164324 Z0.000000
G01 X58.346127 Y74.384004 Z0.000000
G01 X58.330897 Y74.637436 Z0.000000
G01 X58.330897 Y75.811614 Z0.000000
G01 X58.330897 Y76.985795 Z0.000000
G01 X58.330897 Y78.159973 Z0.000000
G01 X58.330897 Y79.334154 Z0.000000
G01 X68.379238 Y79.863939 Z0.000000
G01 X78.427577 Y80.393728 Z0.000000
G01 X88.475919 Y80.923513 Z0.000000
G01 X98.524261 Y81.453302 Z0.000000
G01 X101.440837 Y81.688405 Z0.000000
G01 X104.084937 Y82.027347 Z0.000000
G01 X106.003580 Y82.379570 Z0.000000
G01 X106.743791 Y82.654513 Z0.000000
G01 X106.526997 Y82.927411 Z0.000000
G01 X106.002585 Y83.171296 Z0.000000
G01 X105.359519 Y83.392983 Z0.000000
G01 X104.786759 Y83.599287 Z0.000000
G01 X104.241450 Y84.257580 Z0.000000
G01 X105.274616 Y84.830246 Z0.000000
G01 X107.066952 Y85.255293 Z0.000000
G01 X108.799145 Y85.470721 Z0.000000
G01 X121.723638 Y86.284317 Z0.000000
G01 X134.648129 Y87.097916 Z0.000000
G01 X147.572622 Y87.911513 Z0.000000
G01 X160.497115 Y88.725109 Z0.000000
G01 X168.027100 Y89.173236 Z0.000000
G01 X173.693640 Y89.514806 Z0.000000
G01 X177.264137 Y89.828959 Z0.000000
G01 X178.505990 Y90.194831 Z0.000000
G01 X178.505990 Y85.661013 Z0.000000
G01 X178.505990 Y81.127194 Z0.000000
G01 X178.505990 Y76.593373 Z0.000000
G01 X178.505990 Y72.059555 Z0.000000
G01 X176.473577 Y71.329181 Z0.000000
G01 X171.540949 Y70.684217 Z0.000000
G01 X165.455012 Y70.126253 Z0.000000
G01 X159.962671 Y69.656889 Z0.000000
G01 X150.628978 Y68.797961 Z0.000000
G01 X141.295285 Y67.939033 Z0.000000
G01 X131.961592 Y67.080102 Z0.000000
G01 X122.627898 Y66.221174 Z0.000000
G01 X118.548338 Y65.870510 Z0.000000
G01 X114.478994 Y65.475495 Z0.000000
G01 X110.535419 Y64.904560 Z0.000000
G01 X106.833153 Y64.026134 Z0.000000
G01 X106.833153 Y63.034834 Z0.000000
G01 X106.833153 Y62.043534 Z0.000000
G01 X106.833153 Y61.052232 Z0.000000
G01 X106.833153 Y60.060932 Z0.000000
G01 X106.472869 Y59.699811 Z0.000000
G01 X105.588475 Y59.339094 Z0.000000
G01 X104.474650 Y59.023114 Z0.000000
G01 X103.426069 Y58.796212 Z0.000000
G01 X102.329306 Y58.516448 Z0.000000
G01 X101.503890 Y58.128310 Z0.000000
G01 X100.933333 Y57.630343 Z0.000000
G01 X100.601145 Y57.021091 Z0.000000
G01 X100.441392 Y56.649712 Z0.000000
G01 X100.263478 Y56.458586 Z0.000000
G01 X100.042225 Y56.379084 Z0.000000
G01 X99.752466 Y56.342573 Z0.000000
G01 X86.353553 Y55.137914 Z0.000000
G01 X72.954640 Y53.933259 Z0.000000
G01 X59.555727 Y52.728601 Z0.000000
G01 X46.156806 Y51.523946 Z0.000000
G00 Z5.000000

(End cutting path id: path7270)


(Start cutting path id: path7270)
(Change tool to Default tool)

G00 Z5.000000
G00 X47.193338 Y51.617139

G01 Z0.000000 F100.0(Penetrate)
G01 X47.193338 Y50.801718 Z0.000000 F400.000000
G01 X47.193338 Y49.986295 Z0.000000
G01 X47.193338 Y49.170874 Z0.000000
G01 X47.193338 Y48.355454 Z0.000000
G01 X60.359188 Y49.605673 Z0.000000
G01 X73.525034 Y50.855890 Z0.000000
G01 X86.690883 Y52.106109 Z0.000000
G01 X99.856732 Y53.356328 Z0.000000
G01 X99.856732 Y54.105755 Z0.000000
G01 X99.856732 Y54.855185 Z0.000000
G01 X99.856732 Y55.604611 Z0.000000
G01 X99.856732 Y56.354041 Z0.000000
G01 X86.690883 Y55.169815 Z0.000000
G01 X73.525034 Y53.985590 Z0.000000
G01 X60.359188 Y52.801364 Z0.000000
G01 X47.193338 Y51.617139 Z0.000000
G00 Z5.000000

(End cutting path id: path7270)


(Start cutting path id: path7270)
(Change tool to Default tool)

G00 Z5.000000
G00 X46.692941 Y48.520299

G01 Z0.000000 F100.0(Penetrate)
G01 X46.818015 Y48.479088 Z0.000000 F400.000000
G01 X46.943090 Y48.437880 Z0.000000
G01 X47.068164 Y48.396670 Z0.000000
G01 X47.193239 Y48.355459 Z0.000000
G01 X47.566533 Y48.390907 Z0.000000
G01 X47.939830 Y48.426357 Z0.000000
G01 X48.313124 Y48.461804 Z0.000000
G01 X48.686420 Y48.497251 Z0.000000
G01 X48.681583 Y41.555781 Z0.000000
G01 X48.676746 Y34.614310 Z0.000000
G01 X48.671909 Y27.672837 Z0.000000
G01 X48.667071 Y20.731366 Z0.000000
G01 X48.239396 Y20.918098 Z0.000000
G01 X47.811717 Y21.104832 Z0.000000
G01 X47.384042 Y21.291563 Z0.000000
G01 X46.956366 Y21.478294 Z0.000000
G01 X46.890502 Y28.238797 Z0.000000
G01 X46.824638 Y34.999296 Z0.000000
G01 X46.758777 Y41.759799 Z0.000000
G01 X46.692941 Y48.520299 Z0.000000
G00 Z5.000000

(End cutting path id: path7270)


(Start cutting path id: path7270)
(Change tool to Default tool)

G00 Z5.000000
G00 X48.686420 Y48.497246

G01 Z0.000000 F100.0(Penetrate)
G01 X49.668109 Y48.590466 Z0.000000 F400.000000
G01 X50.649798 Y48.683687 Z0.000000
G01 X51.631487 Y48.776907 Z0.000000
G01 X52.613176 Y48.870128 Z0.000000
G01 X52.414531 Y41.919790 Z0.000000
G01 X52.215887 Y34.969455 Z0.000000
G01 X52.017245 Y28.019117 Z0.000000
G01 X51.818600 Y21.068779 Z0.000000
G01 X51.030724 Y20.984426 Z0.000000
G01 X50.242848 Y20.900070 Z0.000000
G01 X49.454975 Y20.815717 Z0.000000
G01 X48.667099 Y20.731361 Z0.000000
G01 X48.671936 Y27.672831 Z0.000000
G01 X48.676774 Y34.614305 Z0.000000
G01 X48.681611 Y41.555775 Z0.000000
G01 X48.686420 Y48.497246 Z0.000000
G00 Z5.000000

(End cutting path id: path7270)


(Start cutting path id: path7270)
(Change tool to Default tool)

G00 Z5.000000
G00 X54.009671 Y48.707995

G01 Z0.000000 F100.0(Penetrate)
G01 X53.941648 Y42.435103 Z0.000000 F400.000000
G01 X53.873623 Y36.162213 Z0.000000
G01 X53.805600 Y29.889321 Z0.000000
G01 X53.737575 Y23.616429 Z0.000000
G01 X53.843660 Y23.848708 Z0.000000
G01 X53.949744 Y24.080989 Z0.000000
G01 X54.055829 Y24.313268 Z0.000000
G01 X54.161914 Y24.545547 Z0.000000
G01 X54.227239 Y30.553632 Z0.000000
G01 X54.292564 Y36.561717 Z0.000000
G01 X54.357886 Y42.569802 Z0.000000
G01 X54.423211 Y48.577887 Z0.000000
G01 X54.319826 Y48.610415 Z0.000000
G01 X54.216442 Y48.642941 Z0.000000
G01 X54.113055 Y48.675469 Z0.000000
G01 X54.009671 Y48.707995 Z0.000000
G00 Z5.000000

(End cutting path id: path7270)


(Start cutting path id: path7270)
(Change tool to Default tool)

G00 Z5.000000
G00 X57.881622 Y47.514880

G01 Z0.000000 F100.0(Penetrate)
G01 X56.992996 Y45.570942 Z0.000000 F400.000000
G01 X56.104370 Y43.627001 Z0.000000
G01 X55.215741 Y41.683064 Z0.000000
G01 X54.327115 Y39.739123 Z0.000000
G01 X54.324296 Y39.483764 Z0.000000
G01 X54.321449 Y39.228407 Z0.000000
G01 X54.318630 Y38.973048 Z0.000000
G01 X54.315782 Y38.717689 Z0.000000
G01 X55.301452 Y40.873932 Z0.000000
G01 X56.287121 Y43.030177 Z0.000000
G01 X57.272788 Y45.186420 Z0.000000
G01 X58.258457 Y47.342663 Z0.000000
G01 X58.164250 Y47.385717 Z0.000000
G01 X58.070042 Y47.428771 Z0.000000
G01 X57.975835 Y47.471825 Z0.000000
G01 X57.881628 Y47.514880 Z0.000000
G01 X57.881628 Y47.514880 Z0.000000
G01 X57.881625 Y47.514880 Z0.000000
G01 X57.881625 Y47.514880 Z0.000000
G01 X57.881622 Y47.514880 Z0.000000
G00 Z5.000000

(End cutting path id: path7270)


(Start cutting path id: path7270)
(Change tool to Default tool)

G00 Z5.000000
G00 X58.521097 Y47.286565

G01 Z0.000000 F100.0(Penetrate)
G01 X57.213638 Y47.698554 Z0.000000 F400.000000
G01 X55.906181 Y48.110543 Z0.000000
G01 X54.598722 Y48.522529 Z0.000000
G01 X53.291263 Y48.934518 Z0.000000
G01 X54.598722 Y49.058672 Z0.000000
G01 X55.906181 Y49.182829 Z0.000000
G01 X57.213638 Y49.306983 Z0.000000
G01 X58.521097 Y49.431137 Z0.000000
G01 X58.521097 Y48.894994 Z0.000000
G01 X58.521097 Y48.358851 Z0.000000
G01 X58.521097 Y47.822708 Z0.000000
G01 X58.521097 Y47.286565 Z0.000000
G00 Z5.000000

(End cutting path id: path7270)


(Start cutting path id: path7270)
(Change tool to Default tool)

G00 Z5.000000
G00 X58.521194 Y49.431137

G01 Z0.000000 F100.0(Penetrate)
G01 X58.521194 Y48.894994 Z0.000000 F400.000000
G01 X58.521194 Y48.358851 Z0.000000
G01 X58.521194 Y47.822708 Z0.000000
G01 X58.521194 Y47.286565 Z0.000000
G01 X63.201039 Y47.113764 Z0.000000
G01 X66.267390 Y46.418233 Z0.000000
G01 X68.083257 Y45.192957 Z0.000000
G01 X69.011645 Y43.430927 Z0.000000
G01 X71.216230 Y43.640888 Z0.000000
G01 X73.420812 Y43.850847 Z0.000000
G01 X75.625397 Y44.060808 Z0.000000
G01 X77.829982 Y44.270769 Z0.000000
G01 X79.157061 Y46.690691 Z0.000000
G01 X81.330322 Y48.358453 Z0.000000
G01 X84.187045 Y49.418693 Z0.000000
G01 X87.564508 Y50.016051 Z0.000000
G01 X87.564508 Y50.559306 Z0.000000
G01 X87.564508 Y51.102559 Z0.000000
G01 X87.564508 Y51.645814 Z0.000000
G01 X87.564508 Y52.189069 Z0.000000
G01 X80.303680 Y51.499585 Z0.000000
G01 X73.042850 Y50.810102 Z0.000000
G01 X65.782022 Y50.120621 Z0.000000
G01 X58.521194 Y49.431137 Z0.000000
G00 Z5.000000

(End cutting path id: path7270)


(Start cutting path id: path7270)
(Change tool to Default tool)

G00 Z5.000000
G00 X62.754050 Y47.154787

G01 Z0.000000 F100.0(Penetrate)
G01 X63.197180 Y46.731136 Z0.000000 F400.000000
G01 X63.615831 Y46.267303 Z0.000000
G01 X63.970298 Y45.698031 Z0.000000
G01 X64.220878 Y44.958052 Z0.000000
G01 X65.418582 Y44.576228 Z0.000000
G01 X66.616285 Y44.194404 Z0.000000
G01 X67.813989 Y43.812583 Z0.000000
G01 X69.011692 Y43.430759 Z0.000000
G01 X68.351481 Y44.847327 Z0.000000
G01 X67.200737 Y45.937519 Z0.000000
G01 X65.391062 Y46.705338 Z0.000000
G01 X62.754050 Y47.154787 Z0.000000
G00 Z5.000000

(End cutting path id: path7270)


(Start cutting path id: path7270)
(Change tool to Default tool)

G00 Z5.000000
G00 X63.890381 Y45.842361

G01 Z0.000000 F100.0(Penetrate)
G01 X61.042023 Y39.606992 Z0.000000 F400.000000
G01 X58.193668 Y33.371620 Z0.000000
G01 X55.345310 Y27.136251 Z0.000000
G01 X52.496952 Y20.900880 Z0.000000
G01 X52.592105 Y20.859849 Z0.000000
G01 X52.687258 Y20.818821 Z0.000000
G01 X52.782408 Y20.777790 Z0.000000
G01 X52.877560 Y20.736759 Z0.000000
G01 X55.687046 Y26.887100 Z0.000000
G01 X58.496535 Y33.037442 Z0.000000
G01 X61.306021 Y39.187780 Z0.000000
G01 X64.115507 Y45.338121 Z0.000000
G01 X64.065523 Y45.474435 Z0.000000
G01 X64.010809 Y45.603163 Z0.000000
G01 X63.952163 Y45.725432 Z0.000000
G01 X63.890381 Y45.842361 Z0.000000
G00 Z5.000000

(End cutting path id: path7270)


(Start cutting path id: path7270)
(Change tool to Default tool)

G00 Z5.000000
G00 X64.984256 Y44.714571

G01 Z0.000000 F100.0(Penetrate)
G01 X65.475808 Y37.121424 Z0.000000 F400.000000
G01 X65.967360 Y29.528281 Z0.000000
G01 X66.458912 Y21.935134 Z0.000000
G01 X66.950464 Y14.341991 Z0.000000
G01 X66.961935 Y14.336988 Z0.000000
G01 X66.973406 Y14.331985 Z0.000000
G01 X66.984877 Y14.326981 Z0.000000
G01 X66.996349 Y14.321978 Z0.000000
G01 X66.988913 Y14.419561 Z0.000000
G01 X66.981505 Y14.517140 Z0.000000
G01 X66.974070 Y14.614723 Z0.000000
G01 X66.966634 Y14.712305 Z0.000000
G01 X67.639044 Y14.408761 Z0.000000
G01 X68.311451 Y14.105220 Z0.000000
G01 X68.983860 Y13.801677 Z0.000000
G01 X69.656270 Y13.498136 Z0.000000
G01 X69.692845 Y13.502033 Z0.000000
G01 X69.729420 Y13.505958 Z0.000000
G01 X69.765998 Y13.509855 Z0.000000
G01 X69.802573 Y13.513753 Z0.000000
G01 X69.604846 Y20.992984 Z0.000000
G01 X69.407119 Y28.472217 Z0.000000
G01 X69.209392 Y35.951448 Z0.000000
G01 X69.011665 Y43.430681 Z0.000000
G01 X68.004806 Y43.751634 Z0.000000
G01 X66.997946 Y44.072586 Z0.000000
G01 X65.991087 Y44.393541 Z0.000000
G01 X64.984228 Y44.714493 Z0.000000
G01 X64.984228 Y44.714499 Z0.000000
G01 X64.984228 Y44.714504 Z0.000000
G01 X64.984228 Y44.714510 Z0.000000
G01 X64.984256 Y44.714571 Z0.000000
G00 Z5.000000

(End cutting path id: path7270)


(Start cutting path id: path7270)
(Change tool to Default tool)

G00 Z5.000000
G00 X77.130265 Y44.204394

G01 Z0.000000 F100.0(Penetrate)
G01 X75.100623 Y44.010984 Z0.000000 F400.000000
G01 X73.070977 Y43.817575 Z0.000000
G01 X71.041335 Y43.624168 Z0.000000
G01 X69.011692 Y43.430759 Z0.000000
G01 X69.209419 Y35.951525 Z0.000000
G01 X69.407146 Y28.472294 Z0.000000
G01 X69.604873 Y20.993061 Z0.000000
G01 X69.802600 Y13.513830 Z0.000000
G01 X71.158081 Y13.659191 Z0.000000
G01 X72.513561 Y13.804551 Z0.000000
G01 X73.869042 Y13.949912 Z0.000000
G01 X75.224522 Y14.095272 Z0.000000
G01 X75.700957 Y21.622552 Z0.000000
G01 X76.177392 Y29.149832 Z0.000000
G01 X76.653830 Y36.677114 Z0.000000
G01 X77.130265 Y44.204394 Z0.000000
G00 Z5.000000

(End cutting path id: path7270)


(Start cutting path id: path7270)
(Change tool to Default tool)

G00 Z5.000000
G00 X53.902237 Y38.809466

G01 Z0.000000 F100.0(Penetrate)
G01 X53.481812 Y37.889796 Z0.000000 F400.000000
G01 X53.061389 Y36.970129 Z0.000000
G01 X52.640964 Y36.050459 Z0.000000
G01 X52.220539 Y35.130789 Z0.000000
G01 X52.212854 Y34.864633 Z0.000000
G01 X52.205170 Y34.598477 Z0.000000
G01 X52.197486 Y34.332321 Z0.000000
G01 X52.189801 Y34.066165 Z0.000000
G01 X52.615086 Y34.996632 Z0.000000
G01 X53.040368 Y35.927098 Z0.000000
G01 X53.465653 Y36.857565 Z0.000000
G01 X53.890935 Y37.788032 Z0.000000
G01 X53.893754 Y38.043391 Z0.000000
G01 X53.896601 Y38.298751 Z0.000000
G01 X53.899420 Y38.554107 Z0.000000
G01 X53.902268 Y38.809466 Z0.000000
G01 X53.902270 Y38.809466 Z0.000000
G01 X53.902270 Y38.809466 Z0.000000
G01 X53.902273 Y38.809466 Z0.000000
G01 X53.902237 Y38.809466 Z0.000000
G00 Z5.000000

(End cutting path id: path7270)


(Start cutting path id: path7270)
(Change tool to Default tool)

G00 Z5.000000
G00 X54.150576 Y23.523571

G01 Z0.000000 F100.0(Penetrate)
G01 X54.044491 Y23.291292 Z0.000000 F400.000000
G01 X53.938409 Y23.059013 Z0.000000
G01 X53.832324 Y22.826732 Z0.000000
G01 X53.726239 Y22.594453 Z0.000000
G01 X53.719771 Y21.998032 Z0.000000
G01 X53.713303 Y21.401609 Z0.000000
G01 X53.706835 Y20.805188 Z0.000000
G01 X53.700367 Y20.208765 Z0.000000
G01 X53.803076 Y20.129674 Z0.000000
G01 X53.905786 Y20.050584 Z0.000000
G01 X54.008496 Y19.971491 Z0.000000
G01 X54.111206 Y19.892401 Z0.000000
G01 X54.121074 Y20.800193 Z0.000000
G01 X54.130914 Y21.707986 Z0.000000
G01 X54.140782 Y22.615778 Z0.000000
G01 X54.150623 Y23.523571 Z0.000000
G01 X54.150620 Y23.523571 Z0.000000
G01 X54.150617 Y23.523571 Z0.000000
G01 X54.150611 Y23.523571 Z0.000000
G01 X54.150576 Y23.523571 Z0.000000
G00 Z5.000000

(End cutting path id: path7270)


(Start cutting path id: path7270)
(Change tool to Default tool)

G00 Z5.000000
G00 X48.474826 Y18.888472

G01 Z0.000000 F100.0(Penetrate)
G01 X49.964969 Y19.077132 Z0.000000 F400.000000
G01 X51.455110 Y19.265793 Z0.000000
G01 X52.945254 Y19.454454 Z0.000000
G01 X54.435398 Y19.643114 Z0.000000
G01 X54.123545 Y19.882920 Z0.000000
G01 X53.811690 Y20.122723 Z0.000000
G01 X53.499837 Y20.362528 Z0.000000
G01 X53.187984 Y20.602331 Z0.000000
G01 X52.095287 Y20.463989 Z0.000000
G01 X51.002588 Y20.325649 Z0.000000
G01 X49.909891 Y20.187307 Z0.000000
G01 X48.817192 Y20.048964 Z0.000000
G01 X48.731600 Y19.758840 Z0.000000
G01 X48.646009 Y19.468719 Z0.000000
G01 X48.560417 Y19.178595 Z0.000000
G01 X48.474826 Y18.888472 Z0.000000
G00 Z5.000000

(End cutting path id: path7270)


(Start cutting path id: path7270)
(Change tool to Default tool)

G00 Z5.000000
G00 X48.474826 Y18.888472

G01 Z0.000000 F100.0(Penetrate)
G01 X48.474826 Y18.602994 Z0.000000 F400.000000
G01 X48.474826 Y18.317517 Z0.000000
G01 X48.474826 Y18.032040 Z0.000000
G01 X48.474826 Y17.746562 Z0.000000
G01 X46.389231 Y18.658114 Z0.000000
G01 X44.303637 Y19.569663 Z0.000000
G01 X42.218043 Y20.481215 Z0.000000
G01 X40.132449 Y21.392764 Z0.000000
G01 X40.132449 Y21.677155 Z0.000000
G01 X40.132449 Y21.961546 Z0.000000
G01 X40.132449 Y22.245937 Z0.000000
G01 X40.132449 Y22.530328 Z0.000000
G01 X42.218043 Y21.619865 Z0.000000
G01 X44.303637 Y20.709400 Z0.000000
G01 X46.389231 Y19.798937 Z0.000000
G01 X48.474826 Y18.888472 Z0.000000
G00 Z5.000000

(End cutting path id: path7270)


(Start cutting path id: path7270)
(Change tool to Default tool)

G00 Z5.000000
G00 X48.474826 Y17.746562

G01 Z0.000000 F100.0(Penetrate)
G01 X48.474826 Y18.032040 Z0.000000 F400.000000
G01 X48.474826 Y18.317517 Z0.000000
G01 X48.474826 Y18.602994 Z0.000000
G01 X48.474826 Y18.888472 Z0.000000
G01 X49.964969 Y19.077132 Z0.000000
G01 X51.455110 Y19.265793 Z0.000000
G01 X52.945254 Y19.454454 Z0.000000
G01 X54.435398 Y19.643114 Z0.000000
G01 X54.435398 Y19.316258 Z0.000000
G01 X54.435398 Y18.989399 Z0.000000
G01 X54.435398 Y18.662542 Z0.000000
G01 X54.435398 Y18.335683 Z0.000000
G01 X54.341315 Y18.323769 Z0.000000
G01 X54.247232 Y18.311856 Z0.000000
G01 X54.153146 Y18.299943 Z0.000000
G01 X54.059063 Y18.288029 Z0.000000
G01 X54.059063 Y17.352637 Z0.000000
G01 X54.059063 Y16.417244 Z0.000000
G01 X54.059063 Y15.481852 Z0.000000
G01 X54.059063 Y14.546460 Z0.000000
G01 X53.981457 Y14.505970 Z0.000000
G01 X53.903851 Y14.465479 Z0.000000
G01 X53.826243 Y14.424989 Z0.000000
G01 X53.748637 Y14.384498 Z0.000000
G01 X53.748637 Y14.247576 Z0.000000
G01 X53.748637 Y14.110652 Z0.000000
G01 X53.748637 Y13.973730 Z0.000000
G01 X53.748637 Y13.836806 Z0.000000
G01 X52.482184 Y13.676467 Z0.000000
G01 X51.215728 Y13.516127 Z0.000000
G01 X49.949275 Y13.355785 Z0.000000
G01 X48.682821 Y13.195446 Z0.000000
G01 X48.682821 Y14.339807 Z0.000000
G01 X48.682821 Y15.484168 Z0.000000
G01 X48.682821 Y16.628527 Z0.000000
G01 X48.682821 Y17.772888 Z0.000000
G01 X48.630822 Y17.766309 Z0.000000
G01 X48.578824 Y17.759731 Z0.000000
G01 X48.526825 Y17.753152 Z0.000000
G01 X48.474826 Y17.746562 Z0.000000
G00 Z5.000000

(End cutting path id: path7270)


(Start cutting path id: path7270)
(Change tool to Default tool)

G00 Z5.000000
G00 X46.738693 Y16.651018

G01 Z0.000000 F100.0(Penetrate)
G01 X45.729048 Y16.569449 Z0.000000 F400.000000
G01 X44.752248 Y16.437514 Z0.000000
G01 X43.830497 Y16.221170 Z0.000000
G01 X42.986001 Y15.886370 Z0.000000
G01 X42.899674 Y15.852548 Z0.000000
G01 X42.817250 Y15.829550 Z0.000000
G01 X42.734154 Y15.815094 Z0.000000
G01 X42.645804 Y15.806884 Z0.000000
G01 X42.356828 Y15.709622 Z0.000000
G01 X42.092772 Y15.500673 Z0.000000
G01 X41.906187 Y15.213175 Z0.000000
G01 X41.849625 Y14.880260 Z0.000000
G01 X42.760389 Y14.662907 Z0.000000
G01 X43.642740 Y14.633638 Z0.000000
G01 X44.496643 Y14.846449 Z0.000000
G01 X45.322073 Y15.355346 Z0.000000
G01 X45.655452 Y15.545466 Z0.000000
G01 X46.045975 Y15.656615 Z0.000000
G01 X46.461093 Y15.733742 Z0.000000
G01 X46.868262 Y15.821794 Z0.000000
G01 X46.925151 Y16.118386 Z0.000000
G01 X46.915393 Y16.348321 Z0.000000
G01 X46.849673 Y16.522304 Z0.000000
G01 X46.738693 Y16.651018 Z0.000000
G00 Z5.000000

(End cutting path id: path7270)


(Start cutting path id: path7270)
(Change tool to Default tool)

G00 Z5.000000
G00 X46.163730 Y17.534246

G01 Z0.000000 F100.0(Penetrate)
G01 X46.164836 Y17.301967 Z0.000000 F400.000000
G01 X46.165942 Y17.069689 Z0.000000
G01 X46.167047 Y16.837407 Z0.000000
G01 X46.168153 Y16.605128 Z0.000000
G01 X46.310401 Y16.617042 Z0.000000
G01 X46.452530 Y16.629093 Z0.000000
G01 X46.594997 Y16.640647 Z0.000000
G01 X46.738256 Y16.651013 Z0.000000
G01 X46.849228 Y16.522282 Z0.000000
G01 X46.914948 Y16.348298 Z0.000000
G01 X46.924706 Y16.118364 Z0.000000
G01 X46.867817 Y15.821772 Z0.000000
G01 X46.698715 Y15.780055 Z0.000000
G01 X46.525047 Y15.744663 Z0.000000
G01 X46.349060 Y15.712464 Z0.000000
G01 X46.173004 Y15.680325 Z0.000000
G01 X46.173833 Y15.482463 Z0.000000
G01 X46.174662 Y15.284600 Z0.000000
G01 X46.175492 Y15.086738 Z0.000000
G01 X46.176321 Y14.888875 Z0.000000
G01 X46.381472 Y14.800337 Z0.000000
G01 X46.586624 Y14.711799 Z0.000000
G01 X46.791773 Y14.623258 Z0.000000
G01 X46.996924 Y14.534720 Z0.000000
G01 X46.996924 Y15.193497 Z0.000000
G01 X46.996924 Y15.852274 Z0.000000
G01 X46.996924 Y16.511051 Z0.000000
G01 X46.996924 Y17.169828 Z0.000000
G01 X46.788401 Y17.260931 Z0.000000
G01 X46.579874 Y17.352034 Z0.000000
G01 X46.371350 Y17.443137 Z0.000000
G01 X46.162824 Y17.534241 Z0.000000
G01 X46.162821 Y17.534241 Z0.000000
G01 X46.162818 Y17.534241 Z0.000000
G01 X46.162813 Y17.534241 Z0.000000
G01 X46.163730 Y17.534246 Z0.000000
G00 Z5.000000

(End cutting path id: path7270)


(Start cutting path id: path7270)
(Change tool to Default tool)

G00 Z5.000000
G00 X44.587846 Y17.627105

G01 Z0.000000 F100.0(Penetrate)
G01 X43.550794 Y17.504717 Z0.000000 F400.000000
G01 X42.528599 Y17.375723 Z0.000000
G01 X41.471405 Y17.262288 Z0.000000
G01 X40.329347 Y17.186570 Z0.000000
G01 X40.188981 Y17.177946 Z0.000000
G01 X40.048612 Y17.169322 Z0.000000
G01 X39.908247 Y17.160698 Z0.000000
G01 X39.767881 Y17.152074 Z0.000000
G01 X39.141763 Y16.981040 Z0.000000
G01 X38.821280 Y16.703811 Z0.000000
G01 X38.710640 Y16.413167 Z0.000000
G01 X38.714040 Y16.201901 Z0.000000
G01 X39.415241 Y16.002184 Z0.000000
G01 X40.147245 Y15.961883 Z0.000000
G01 X40.890392 Y16.043749 Z0.000000
G01 X41.625022 Y16.210526 Z0.000000
G01 X42.199371 Y16.341051 Z0.000000
G01 X42.984505 Y16.494325 Z0.000000
G01 X43.854352 Y16.661185 Z0.000000
G01 X44.682849 Y16.832456 Z0.000000
G01 X44.734735 Y17.024075 Z0.000000
G01 X44.755604 Y17.227955 Z0.000000
G01 X44.716348 Y17.432761 Z0.000000
G01 X44.587846 Y17.627105 Z0.000000
G00 Z5.000000

(End cutting path id: path7270)


(Start cutting path id: path7270)
(Change tool to Default tool)

G00 Z5.000000
G00 X43.984274 Y18.485499

G01 Z0.000000 F100.0(Penetrate)
G01 X43.984274 Y18.253085 Z0.000000 F400.000000
G01 X43.984274 Y18.020671 Z0.000000
G01 X43.984274 Y17.788256 Z0.000000
G01 X43.984274 Y17.555842 Z0.000000
G01 X44.134085 Y17.574141 Z0.000000
G01 X44.283934 Y17.592412 Z0.000000
G01 X44.434848 Y17.610213 Z0.000000
G01 X44.587849 Y17.627102 Z0.000000
G01 X44.716378 Y17.432705 Z0.000000
G01 X44.755634 Y17.227902 Z0.000000
G01 X44.734765 Y17.024028 Z0.000000
G01 X44.682880 Y16.832412 Z0.000000
G01 X44.517012 Y16.796451 Z0.000000
G01 X44.343734 Y16.760420 Z0.000000
G01 X44.165383 Y16.724348 Z0.000000
G01 X43.984288 Y16.688268 Z0.000000
G01 X43.984288 Y16.581780 Z0.000000
G01 X43.984288 Y16.475288 Z0.000000
G01 X43.984288 Y16.368800 Z0.000000
G01 X43.984288 Y16.262309 Z0.000000
G01 X44.200983 Y16.319117 Z0.000000
G01 X44.421434 Y16.370204 Z0.000000
G01 X44.645470 Y16.415799 Z0.000000
G01 X44.872914 Y16.456122 Z0.000000
G01 X44.872914 Y16.866425 Z0.000000
G01 X44.872914 Y17.276725 Z0.000000
G01 X44.872914 Y17.687028 Z0.000000
G01 X44.872914 Y18.097329 Z0.000000
G01 X44.650758 Y18.194372 Z0.000000
G01 X44.428601 Y18.291412 Z0.000000
G01 X44.206445 Y18.388456 Z0.000000
G01 X43.984274 Y18.485499 Z0.000000
G00 Z5.000000

(End cutting path id: path7270)


(Start cutting path id: path7270)
(Change tool to Default tool)

G00 Z5.000000
G00 X42.352687 Y18.493745

G01 Z0.000000 F100.0(Penetrate)
G01 X42.624891 Y18.304169 Z0.000000 F400.000000
G01 X42.715253 Y18.114441 Z0.000000
G01 X42.702207 Y17.925020 Z0.000000
G01 X42.664191 Y17.736360 Z0.000000
G01 X41.740364 Y17.656957 Z0.000000
G01 X40.816540 Y17.577555 Z0.000000
G01 X39.892712 Y17.498149 Z0.000000
G01 X38.968888 Y17.418747 Z0.000000
G01 X38.139835 Y17.369537 Z0.000000
G01 X37.331767 Y17.367878 Z0.000000
G01 X36.682601 Y17.428335 Z0.000000
G01 X36.330259 Y17.565274 Z0.000000
G01 X36.426481 Y17.929360 Z0.000000
G01 X36.754009 Y18.215473 Z0.000000
G01 X37.211706 Y18.396372 Z0.000000
G01 X37.698438 Y18.444817 Z0.000000
G01 X38.912859 Y18.411898 Z0.000000
G01 X40.069653 Y18.425166 Z0.000000
G01 X41.204403 Y18.460467 Z0.000000
G01 X42.352687 Y18.493745 Z0.000000
G00 Z5.000000

(End cutting path id: path7270)


(Start cutting path id: path7270)
(Change tool to Default tool)

G00 Z5.000000
G00 X41.815073 Y19.432432

G01 Z0.000000 F100.0(Penetrate)
G01 X41.815073 Y19.193674 Z0.000000 F400.000000
G01 X41.815073 Y18.954916 Z0.000000
G01 X41.815073 Y18.716158 Z0.000000
G01 X41.815073 Y18.477400 Z0.000000
G01 X41.949349 Y18.481629 Z0.000000
G01 X42.082799 Y18.486052 Z0.000000
G01 X42.216813 Y18.490198 Z0.000000
G01 X42.352784 Y18.493570 Z0.000000
G01 X42.624988 Y18.303986 Z0.000000
G01 X42.715350 Y18.114239 Z0.000000
G01 X42.702303 Y17.924799 Z0.000000
G01 X42.664288 Y17.736130 Z0.000000
G01 X42.451983 Y17.717915 Z0.000000
G01 X42.239681 Y17.699699 Z0.000000
G01 X42.027376 Y17.681483 Z0.000000
G01 X41.815070 Y17.663268 Z0.000000
G01 X41.815070 Y17.572165 Z0.000000
G01 X41.815070 Y17.481061 Z0.000000
G01 X41.815070 Y17.389958 Z0.000000
G01 X41.815070 Y17.298855 Z0.000000
G01 X42.056040 Y17.323981 Z0.000000
