%
(Header)
(Generated by gcodetools from Inkscape.)
(Using default header. To add your own header create file "header" in the output dir.)
M3
(Header end.)
G21 (All units in mm)

(Start cutting path id: path7270)
(Change tool to Default tool)

G00 Z10.000000
G00 X59.145721 Y72.028770

G01 Z0.000000 F100.0(Penetrate)
G01 X59.153256 Y71.999689 Z0.000000 F400.000000
G01 X59.160707 Y71.970457 Z0.000000
G01 X59.168129 Y71.941083 Z0.000000
G01 X59.175439 Y71.911566 Z0.000000
G01 X59.182720 Y71.881921 Z0.000000
G01 X59.189945 Y71.852155 Z0.000000
G01 X59.197085 Y71.822268 Z0.000000
G01 X59.204169 Y71.792276 Z0.000000
G01 X59.211196 Y71.762180 Z0.000000
G01 X59.218195 Y71.731990 Z0.000000
G01 X59.225138 Y71.701711 Z0.000000
G01 X59.232024 Y71.671355 Z0.000000
G01 X59.238882 Y71.640926 Z0.000000
G01 X59.245712 Y71.610429 Z0.000000
G01 X59.252514 Y71.579875 Z0.000000
G01 X59.259287 Y71.549268 Z0.000000
G01 X59.252570 Y71.579966 Z0.000000
G01 X59.245797 Y71.610576 Z0.000000
G01 X59.238995 Y71.641095 Z0.000000
G01 X59.232137 Y71.671521 Z0.000000
G01 X59.225223 Y71.701857 Z0.000000
G01 X59.218252 Y71.732095 Z0.000000
G01 X59.211224 Y71.762236 Z0.000000
G01 X59.204141 Y71.792276 Z0.000000
G01 X59.197000 Y71.822214 Z0.000000
G01 X59.189804 Y71.852050 Z0.000000
G01 X59.182579 Y71.881780 Z0.000000
G01 X59.175298 Y71.911402 Z0.000000
G01 X59.167988 Y71.940911 Z0.000000
G01 X59.160622 Y71.970313 Z0.000000
G01 X59.153171 Y71.999599 Z0.000000
G01 X59.145721 Y72.028770 Z0.000000
G00 Z10.000000

(End cutting path id: path7270)


(Start cutting path id: path3389)
(Change tool to Default tool)

G00 Z10.000000
G00 X59.145721 Y72.028925

G01 Z0.000000 F100.0(Penetrate)
G01 X59.153200 Y71.999754 Z0.000000 F400.000000
G01 X59.160622 Y71.970465 Z0.000000
G01 X59.168016 Y71.941066 Z0.000000
G01 X59.175326 Y71.911554 Z0.000000
G01 X59.182607 Y71.881932 Z0.000000
G01 X59.189832 Y71.852203 Z0.000000
G01 X59.197029 Y71.822366 Z0.000000
G01 X59.204141 Y71.792428 Z0.000000
G01 X59.211224 Y71.762388 Z0.000000
G01 X59.218252 Y71.732247 Z0.000000
G01 X59.225223 Y71.702010 Z0.000000
G01 X59.232137 Y71.671674 Z0.000000
G01 X59.238995 Y71.641250 Z0.000000
G01 X59.245797 Y71.610728 Z0.000000
G01 X59.252570 Y71.580118 Z0.000000
G01 X59.259287 Y71.549421 Z0.000000
G01 X59.252514 Y71.580028 Z0.000000
G01 X59.245712 Y71.610581 Z0.000000
G01 X59.238882 Y71.641078 Z0.000000
G01 X59.232024 Y71.671507 Z0.000000
G01 X59.225110 Y71.701866 Z0.000000
G01 X59.218167 Y71.732143 Z0.000000
G01 X59.211168 Y71.762335 Z0.000000
G01 X59.204112 Y71.792428 Z0.000000
G01 X59.197029 Y71.822423 Z0.000000
G01 X59.189888 Y71.852307 Z0.000000
G01 X59.182692 Y71.882076 Z0.000000
G01 X59.175410 Y71.911721 Z0.000000
G01 X59.168073 Y71.941236 Z0.000000
G01 X59.160678 Y71.970612 Z0.000000
G01 X59.153200 Y71.999845 Z0.000000
G01 X59.145721 Y72.028925 Z0.000000
G00 Z10.000000

(End cutting path id: path3389)


(Start cutting path id: path3395)
(Change tool to Default tool)

G00 Z10.000000
G00 X59.145721 Y72.028925

G01 Z0.000000 F100.0(Penetrate)
G01 X59.153200 Y71.999754 Z0.000000 F400.000000
G01 X59.160622 Y71.970465 Z0.000000
G01 X59.168016 Y71.941066 Z0.000000
G01 X59.175326 Y71.911554 Z0.000000
G01 X59.182607 Y71.881932 Z0.000000
G01 X59.189832 Y71.852203 Z0.000000
G01 X59.197029 Y71.822366 Z0.000000
G01 X59.204141 Y71.792428 Z0.000000
G01 X59.211224 Y71.762388 Z0.000000
G01 X59.218252 Y71.732247 Z0.000000
G01 X59.225223 Y71.702010 Z0.000000
G01 X59.232137 Y71.671674 Z0.000000
G01 X59.238995 Y71.641250 Z0.000000
G01 X59.245797 Y71.610728 Z0.000000
G01 X59.252570 Y71.580118 Z0.000000
G01 X59.259287 Y71.549421 Z0.000000
G01 X59.252514 Y71.580028 Z0.000000
G01 X59.245712 Y71.610581 Z0.000000
G01 X59.238882 Y71.641078 Z0.000000
G01 X59.232024 Y71.671507 Z0.000000
G01 X59.225110 Y71.701866 Z0.000000
G01 X59.218167 Y71.732143 Z0.000000
G01 X59.211168 Y71.762335 Z0.000000
G01 X59.204112 Y71.792428 Z0.000000
G01 X59.197029 Y71.822423 Z0.000000
G01 X59.189888 Y71.852307 Z0.000000
G01 X59.182692 Y71.882076 Z0.000000
G01 X59.175410 Y71.911721 Z0.000000
G01 X59.168073 Y71.941236 Z0.000000
G01 X59.160678 Y71.970612 Z0.000000
G01 X59.153200 Y71.999845 Z0.000000
G01 X59.145721 Y72.028925 Z0.000000
G00 Z10.000000

(End cutting path id: path3395)


(Start cutting path id: path3337)
(Change tool to Default tool)

G00 Z10.000000
G00 X58.911059 Y72.812588

G01 Z0.000000 F100.0(Penetrate)
G01 X58.922150 Y72.780378 Z0.000000 F400.000000
G01 X58.933157 Y72.747872 Z0.000000
G01 X58.944050 Y72.715078 Z0.000000
G01 X58.954859 Y72.682018 Z0.000000
G01 X58.965584 Y72.648699 Z0.000000
G01 X58.976224 Y72.615140 Z0.000000
G01 X58.986807 Y72.581355 Z0.000000
G01 X58.997306 Y72.547353 Z0.000000
G01 X59.007748 Y72.513153 Z0.000000
G01 X59.018105 Y72.478764 Z0.000000
G01 X59.028435 Y72.444209 Z0.000000
G01 X59.038679 Y72.409493 Z0.000000
G01 X59.048896 Y72.374633 Z0.000000
G01 X59.059056 Y72.339640 Z0.000000
G01 X59.069188 Y72.304535 Z0.000000
G01 X59.079263 Y72.269327 Z0.000000
G01 X59.069244 Y72.304664 Z0.000000
G01 X59.059169 Y72.339849 Z0.000000
G01 X59.049009 Y72.374878 Z0.000000
G01 X59.038821 Y72.409744 Z0.000000
G01 X59.028576 Y72.444435 Z0.000000
G01 X59.018218 Y72.478948 Z0.000000
G01 X59.007833 Y72.513277 Z0.000000
G01 X58.997362 Y72.547409 Z0.000000
G01 X58.986835 Y72.581341 Z0.000000
G01 X58.976224 Y72.615061 Z0.000000
G01 X58.965556 Y72.648569 Z0.000000
G01 X58.954803 Y72.681849 Z0.000000
G01 X58.943966 Y72.714900 Z0.000000
G01 X58.933072 Y72.747711 Z0.000000
G01 X58.922093 Y72.780277 Z0.000000
G01 X58.911059 Y72.812588 Z0.000000
G00 Z10.000000

(End cutting path id: path3337)


(Start cutting path id: path3391)
(Change tool to Default tool)

G00 Z10.000000
G00 X58.911059 Y72.812741

G01 Z0.000000 F100.0(Penetrate)
G01 X58.922122 Y72.780432 Z0.000000 F400.000000
G01 X58.933100 Y72.747866 Z0.000000
G01 X58.943994 Y72.715052 Z0.000000
G01 X58.954831 Y72.682004 Z0.000000
G01 X58.965584 Y72.648721 Z0.000000
G01 X58.976252 Y72.615216 Z0.000000
G01 X58.986863 Y72.581493 Z0.000000
G01 X58.997390 Y72.547562 Z0.000000
G01 X59.007861 Y72.513430 Z0.000000
G01 X59.018247 Y72.479103 Z0.000000
G01 X59.028576 Y72.444590 Z0.000000
G01 X59.038821 Y72.409897 Z0.000000
G01 X59.049037 Y72.375034 Z0.000000
G01 X59.059197 Y72.340004 Z0.000000
G01 X59.069272 Y72.304817 Z0.000000
G01 X59.079291 Y72.269483 Z0.000000
G01 X59.069216 Y72.304690 Z0.000000
G01 X59.059084 Y72.339795 Z0.000000
G01 X59.048924 Y72.374785 Z0.000000
G01 X59.038708 Y72.409648 Z0.000000
G01 X59.028463 Y72.444362 Z0.000000
G01 X59.018162 Y72.478920 Z0.000000
G01 X59.007804 Y72.513306 Z0.000000
G01 X58.997362 Y72.547508 Z0.000000
G01 X58.986863 Y72.581507 Z0.000000
G01 X58.976280 Y72.615295 Z0.000000
G01 X58.965640 Y72.648854 Z0.000000
G01 X58.954916 Y72.682170 Z0.000000
G01 X58.944107 Y72.715230 Z0.000000
G01 X58.933213 Y72.748024 Z0.000000
G01 X58.922206 Y72.780533 Z0.000000
G01 X58.911059 Y72.812741 Z0.000000
G00 Z10.000000

(End cutting path id: path3391)


(Start cutting path id: path3397)
(Change tool to Default tool)

G00 Z10.000000
G00 X58.911059 Y72.812741

G01 Z0.000000 F100.0(Penetrate)
G01 X58.922122 Y72.780432 Z0.000000 F400.000000
G01 X58.933100 Y72.747866 Z0.000000
G01 X58.943994 Y72.715052 Z0.000000
G01 X58.954831 Y72.682004 Z0.000000
G01 X58.965584 Y72.648721 Z0.000000
G01 X58.976252 Y72.615216 Z0.000000
G01 X58.986863 Y72.581493 Z0.000000
G01 X58.997390 Y72.547562 Z0.000000
G01 X59.007861 Y72.513430 Z0.000000
G01 X59.018247 Y72.479103 Z0.000000
G01 X59.028576 Y72.444590 Z0.000000
G01 X59.038821 Y72.409897 Z0.000000
G01 X59.049037 Y72.375034 Z0.000000
G01 X59.059197 Y72.340004 Z0.000000
G01 X59.069272 Y72.304817 Z0.000000
G01 X59.079291 Y72.269483 Z0.000000
G01 X59.069216 Y72.304690 Z0.000000
G01 X59.059084 Y72.339795 Z0.000000
G01 X59.048924 Y72.374785 Z0.000000
G01 X59.038708 Y72.409648 Z0.000000
G01 X59.028463 Y72.444362 Z0.000000
G01 X59.018162 Y72.478920 Z0.000000
G01 X59.007804 Y72.513306 Z0.000000
G01 X58.997362 Y72.547508 Z0.000000
G01 X58.986863 Y72.581507 Z0.000000
G01 X58.976280 Y72.615295 Z0.000000
G01 X58.965640 Y72.648854 Z0.000000
G01 X58.954916 Y72.682170 Z0.000000
G01 X58.944107 Y72.715230 Z0.000000
G01 X58.933213 Y72.748024 Z0.000000
G01 X58.922206 Y72.780533 Z0.000000
G01 X58.911059 Y72.812741 Z0.000000
G00 Z10.000000

(End cutting path id: path3397)


(Start cutting path id: path3339)
(Change tool to Default tool)

G00 Z10.000000
G00 X55.526130 Y76.112864

G01 Z0.000000 F100.0(Penetrate)
G01 X55.490971 Y76.091076 Z0.000000 F400.000000
G01 X55.455812 Y76.069317 Z0.000000
G01 X55.420653 Y76.047558 Z0.000000
G01 X55.385493 Y76.025798 Z0.000000
G01 X55.350334 Y76.004039 Z0.000000
G01 X55.315175 Y75.982251 Z0.000000
G01 X55.280013 Y75.960492 Z0.000000
G01 X55.244856 Y75.938733 Z0.000000
G01 X55.209697 Y75.916945 Z0.000000
G01 X55.174538 Y75.895186 Z0.000000
G01 X55.139379 Y75.873426 Z0.000000
G01 X55.104217 Y75.851667 Z0.000000
G01 X55.069060 Y75.829908 Z0.000000
G01 X55.033901 Y75.808120 Z0.000000
G01 X54.998742 Y75.786361 Z0.000000
G01 X54.963582 Y75.764602 Z0.000000
G01 X54.965276 Y75.704327 Z0.000000
G01 X54.966969 Y75.644056 Z0.000000
G01 X54.968662 Y75.583782 Z0.000000
G01 X54.970356 Y75.523510 Z0.000000
G01 X54.972049 Y75.463239 Z0.000000
G01 X54.973742 Y75.402965 Z0.000000
G01 X54.975436 Y75.342693 Z0.000000
G01 X54.977129 Y75.282419 Z0.000000
G01 X54.978822 Y75.222145 Z0.000000
G01 X54.980516 Y75.161874 Z0.000000
G01 X54.982209 Y75.101600 Z0.000000
G01 X54.983902 Y75.041328 Z0.000000
G01 X54.985596 Y74.981057 Z0.000000
G01 X54.987289 Y74.920783 Z0.000000
G01 X54.988982 Y74.860511 Z0.000000
G01 X54.990676 Y74.800237 Z0.000000
G01 X55.024159 Y74.821178 Z0.000000
G01 X55.057644 Y74.842119 Z0.000000
G01 X55.091130 Y74.863060 Z0.000000
G01 X55.124616 Y74.884001 Z0.000000
G01 X55.158098 Y74.904941 Z0.000000
G01 X55.191584 Y74.925882 Z0.000000
G01 X55.225070 Y74.946823 Z0.000000
G01 X55.258553 Y74.967764 Z0.000000
G01 X55.292038 Y74.988705 Z0.000000
G01 X55.325524 Y75.009646 Z0.000000
G01 X55.359010 Y75.030587 Z0.000000
G01 X55.392495 Y75.051528 Z0.000000
G01 X55.425981 Y75.072469 Z0.000000
G01 X55.459467 Y75.093409 Z0.000000
G01 X55.492949 Y75.114350 Z0.000000
G01 X55.526435 Y75.135291 Z0.000000
G01 X55.526435 Y75.196401 Z0.000000
G01 X55.526435 Y75.257510 Z0.000000
G01 X55.526435 Y75.318623 Z0.000000
G01 X55.526435 Y75.379730 Z0.000000
G01 X55.526435 Y75.440839 Z0.000000
G01 X55.526435 Y75.501951 Z0.000000
G01 X55.526435 Y75.563061 Z0.000000
G01 X55.526435 Y75.624171 Z0.000000
G01 X55.526435 Y75.685283 Z0.000000
G01 X55.526435 Y75.746393 Z0.000000
G01 X55.526435 Y75.807502 Z0.000000
G01 X55.526435 Y75.868615 Z0.000000
G01 X55.526435 Y75.929721 Z0.000000
G01 X55.526435 Y75.990831 Z0.000000
G01 X55.526435 Y76.051943 Z0.000000
G01 X55.526435 Y76.113053 Z0.000000
G01 X55.526435 Y76.113053 Z0.000000
G01 X55.526435 Y76.113053 Z0.000000
G01 X55.526432 Y76.113053 Z0.000000
G01 X55.526432 Y76.113053 Z0.000000
G01 X55.526432 Y76.113053 Z0.000000
G01 X55.526432 Y76.113053 Z0.000000
G01 X55.526430 Y76.113053 Z0.000000
G01 X55.526430 Y76.113053 Z0.000000
G01 X55.526430 Y76.113053 Z0.000000
G01 X55.526427 Y76.113053 Z0.000000
G01 X55.526427 Y76.113053 Z0.000000
G01 X55.526427 Y76.113053 Z0.000000
G01 X55.526427 Y76.113053 Z0.000000
G01 X55.526424 Y76.113053 Z0.000000
G01 X55.526424 Y76.113053 Z0.000000
G01 X55.526130 Y76.112864 Z0.000000
G00 Z10.000000

(End cutting path id: path3339)


(Start cutting path id: path3417)
(Change tool to Default tool)

G00 Z10.000000
G00 X54.963582 Y75.764774

G01 Z0.000000 F100.0(Penetrate)
G01 X54.998742 Y75.786561 Z0.000000 F400.000000
G01 X55.033901 Y75.808321 Z0.000000
G01 X55.069060 Y75.830080 Z0.000000
G01 X55.104217 Y75.851839 Z0.000000
G01 X55.139379 Y75.873599 Z0.000000
G01 X55.174538 Y75.895386 Z0.000000
G01 X55.209697 Y75.917146 Z0.000000
G01 X55.244856 Y75.938905 Z0.000000
G01 X55.280013 Y75.960692 Z0.000000
G01 X55.315175 Y75.982452 Z0.000000
G01 X55.350334 Y76.004211 Z0.000000
G01 X55.385493 Y76.025970 Z0.000000
G01 X55.420653 Y76.047730 Z0.000000
G01 X55.455812 Y76.069517 Z0.000000
G01 X55.490971 Y76.091277 Z0.000000
G01 X55.526130 Y76.113036 Z0.000000
G01 X55.526130 Y76.051924 Z0.000000
G01 X55.526130 Y75.990814 Z0.000000
G01 X55.526130 Y75.929704 Z0.000000
G01 X55.526130 Y75.868595 Z0.000000
G01 X55.526130 Y75.807485 Z0.000000
G01 X55.526130 Y75.746376 Z0.000000
G01 X55.526130 Y75.685263 Z0.000000
G01 X55.526130 Y75.624154 Z0.000000
G01 X55.526130 Y75.563044 Z0.000000
G01 X55.526130 Y75.501932 Z0.000000
G01 X55.526130 Y75.440822 Z0.000000
G01 X55.526130 Y75.379715 Z0.000000
G01 X55.526130 Y75.318603 Z0.000000
G01 X55.526130 Y75.257493 Z0.000000
G01 X55.526130 Y75.196384 Z0.000000
G01 X55.526130 Y75.135271 Z0.000000
G01 X55.492645 Y75.114331 Z0.000000
G01 X55.459159 Y75.093390 Z0.000000
G01 X55.425671 Y75.072449 Z0.000000
G01 X55.392188 Y75.051508 Z0.000000
G01 X55.358699 Y75.030567 Z0.000000
G01 X55.325214 Y75.009626 Z0.000000
G01 X55.291728 Y74.988685 Z0.000000
G01 X55.258242 Y74.967744 Z0.000000
G01 X55.224757 Y74.946803 Z0.000000
G01 X55.191268 Y74.925863 Z0.000000
G01 X55.157785 Y74.904922 Z0.000000
G01 X55.124297 Y74.883981 Z0.000000
G01 X55.090811 Y74.863040 Z0.000000
G01 X55.057328 Y74.842099 Z0.000000
G01 X55.023840 Y74.821158 Z0.000000
G01 X54.990354 Y74.800217 Z0.000000
G01 X54.988661 Y74.860489 Z0.000000
G01 X54.986967 Y74.920760 Z0.000000
G01 X54.985274 Y74.981034 Z0.000000
G01 X54.983581 Y75.041308 Z0.000000
G01 X54.981887 Y75.101580 Z0.000000
G01 X54.980194 Y75.161854 Z0.000000
G01 X54.978501 Y75.222125 Z0.000000
G01 X54.976807 Y75.282400 Z0.000000
G01 X54.975114 Y75.342674 Z0.000000
G01 X54.973421 Y75.402942 Z0.000000
G01 X54.971727 Y75.463216 Z0.000000
G01 X54.970034 Y75.523491 Z0.000000
G01 X54.968341 Y75.583762 Z0.000000
G01 X54.966647 Y75.644036 Z0.000000
G01 X54.964954 Y75.704308 Z0.000000
G01 X54.963582 Y75.764774 Z0.000000
G00 Z10.000000

(End cutting path id: path3417)


(Start cutting path id: path3419)
(Change tool to Default tool)

G00 Z10.000000
G00 X55.526130 Y77.157749

G01 Z0.000000 F100.0(Penetrate)
G01 X53.215856 Y77.622276 Z0.000000 F400.000000
G01 X50.905580 Y78.086805 Z0.000000
G01 X48.595306 Y78.551329 Z0.000000
G01 X46.285029 Y79.015855 Z0.000000
G01 X43.974755 Y79.480379 Z0.000000
G01 X41.664478 Y79.944908 Z0.000000
G01 X39.354201 Y80.409432 Z0.000000
G01 X37.043927 Y80.873958 Z0.000000
G01 X34.733654 Y81.338485 Z0.000000
G01 X32.423377 Y81.803009 Z0.000000
G01 X30.113100 Y82.267535 Z0.000000
G01 X27.802827 Y82.732062 Z0.000000
G01 X25.492550 Y83.196588 Z0.000000
G01 X23.182275 Y83.661115 Z0.000000
G01 X20.872000 Y84.125638 Z0.000000
G01 X18.561725 Y84.590165 Z0.000000
G01 X18.250698 Y84.575179 Z0.000000
G01 X17.939671 Y84.560193 Z0.000000
G01 X17.628644 Y84.545207 Z0.000000
G01 X17.317617 Y84.530192 Z0.000000
G01 X17.006590 Y84.515206 Z0.000000
G01 X16.695563 Y84.500220 Z0.000000
G01 X16.384537 Y84.485234 Z0.000000
G01 X16.073510 Y84.470220 Z0.000000
G01 X15.762483 Y84.455234 Z0.000000
G01 X15.451456 Y84.440248 Z0.000000
G01 X15.140429 Y84.425234 Z0.000000
G01 X14.829402 Y84.410248 Z0.000000
G01 X14.518375 Y84.395262 Z0.000000
G01 X14.207348 Y84.380276 Z0.000000
G01 X13.896322 Y84.365262 Z0.000000
G01 X13.585295 Y84.350276 Z0.000000
G01 X16.171438 Y83.813681 Z0.000000
G01 X18.757581 Y83.277086 Z0.000000
G01 X21.343723 Y82.740489 Z0.000000
G01 X23.929868 Y82.203894 Z0.000000
G01 X26.516009 Y81.667296 Z0.000000
G01 X29.102152 Y81.130699 Z0.000000
G01 X31.688295 Y80.594104 Z0.000000
G01 X34.274438 Y80.057506 Z0.000000
G01 X36.860582 Y79.520912 Z0.000000
G01 X39.446722 Y78.984317 Z0.000000
G01 X42.032869 Y78.447719 Z0.000000
G01 X44.619009 Y77.911122 Z0.000000
G01 X47.205152 Y77.374524 Z0.000000
G01 X49.791296 Y76.837929 Z0.000000
G01 X52.377439 Y76.301332 Z0.000000
G01 X54.963582 Y75.764734 Z0.000000
G01 X54.998742 Y75.786522 Z0.000000
G01 X55.033901 Y75.808281 Z0.000000
G01 X55.069060 Y75.830040 Z0.000000
G01 X55.104217 Y75.851800 Z0.000000
G01 X55.139379 Y75.873559 Z0.000000
G01 X55.174538 Y75.895347 Z0.000000
G01 X55.209697 Y75.917106 Z0.000000
G01 X55.244856 Y75.938865 Z0.000000
G01 X55.280013 Y75.960653 Z0.000000
G01 X55.315175 Y75.982412 Z0.000000
G01 X55.350334 Y76.004172 Z0.000000
G01 X55.385493 Y76.025931 Z0.000000
G01 X55.420653 Y76.047690 Z0.000000
G01 X55.455812 Y76.069478 Z0.000000
G01 X55.490971 Y76.091237 Z0.000000
G01 X55.526130 Y76.112996 Z0.000000
G01 X55.526130 Y76.178291 Z0.000000
G01 X55.526130 Y76.243589 Z0.000000
G01 X55.526130 Y76.308881 Z0.000000
G01 X55.526130 Y76.374179 Z0.000000
G01 X55.526130 Y76.439474 Z0.000000
G01 X55.526130 Y76.504772 Z0.000000
G01 X55.526130 Y76.570064 Z0.000000
G01 X55.526130 Y76.635362 Z0.000000
G01 X55.526130 Y76.700657 Z0.000000
G01 X55.526130 Y76.765951 Z0.000000
G01 X55.526130 Y76.831249 Z0.000000
G01 X55.526130 Y76.896544 Z0.000000
G01 X55.526130 Y76.961839 Z0.000000
G01 X55.526130 Y77.027134 Z0.000000
G01 X55.526130 Y77.092429 Z0.000000
G01 X55.526130 Y77.157749 Z0.000000
G00 Z10.000000

(End cutting path id: path3419)


(Start cutting path id: path3733)
(Change tool to Default tool)

G00 Z10.000000
G00 X55.526130 Y77.937811

G01 Z0.000000 F100.0(Penetrate)
G01 X53.469543 Y78.342687 Z0.000000 F400.000000
G01 X51.412956 Y78.747564 Z0.000000
G01 X49.356366 Y79.152442 Z0.000000
G01 X47.299781 Y79.557321 Z0.000000
G01 X45.243191 Y79.962197 Z0.000000
G01 X43.186604 Y80.367073 Z0.000000
G01 X41.130017 Y80.771955 Z0.000000
G01 X39.073427 Y81.176831 Z0.000000
G01 X37.016840 Y81.581707 Z0.000000
G01 X34.960253 Y81.986586 Z0.000000
G01 X32.903663 Y82.391464 Z0.000000
G01 X30.847075 Y82.796340 Z0.000000
G01 X28.790488 Y83.201219 Z0.000000
G01 X26.733901 Y83.606095 Z0.000000
G01 X24.677312 Y84.010974 Z0.000000
G01 X22.620724 Y84.415853 Z0.000000
G01 X22.620724 Y84.504891 Z0.000000
G01 X22.620724 Y84.593930 Z0.000000
G01 X22.620724 Y84.682971 Z0.000000
G01 X22.620724 Y84.772009 Z0.000000
G01 X22.620724 Y84.861050 Z0.000000
G01 X22.620724 Y84.950088 Z0.000000
G01 X22.620724 Y85.039127 Z0.000000
G01 X22.620724 Y85.128168 Z0.000000
G01 X22.620724 Y85.217209 Z0.000000
G01 X22.620724 Y85.306247 Z0.000000
G01 X22.620724 Y85.395288 Z0.000000
G01 X22.620724 Y85.484324 Z0.000000
G01 X22.620724 Y85.573365 Z0.000000
G01 X22.620724 Y85.662406 Z0.000000
G01 X22.620724 Y85.751444 Z0.000000
G01 X22.620724 Y85.840485 Z0.000000
G01 X24.743020 Y85.446859 Z0.000000
G01 X26.865317 Y85.053232 Z0.000000
G01 X28.987612 Y84.659608 Z0.000000
G01 X31.109906 Y84.265982 Z0.000000
G01 X33.232203 Y83.872355 Z0.000000
G01 X35.354497 Y83.478731 Z0.000000
G01 X37.476794 Y83.085105 Z0.000000
G01 X39.599091 Y82.691478 Z0.000000
G01 X41.721388 Y82.297854 Z0.000000
G01 X43.843682 Y81.904228 Z0.000000
G01 X45.965980 Y81.510601 Z0.000000
G01 X48.088277 Y81.116974 Z0.000000
G01 X50.210571 Y80.723350 Z0.000000
G01 X52.332865 Y80.329724 Z0.000000
G01 X54.455162 Y79.936097 Z0.000000
G01 X56.577459 Y79.542473 Z0.000000
G01 X56.511749 Y79.539087 Z0.000000
G01 X56.446042 Y79.535700 Z0.000000
G01 X56.380335 Y79.532313 Z0.000000
G01 X56.314625 Y79.528955 Z0.000000
G01 X56.248918 Y79.525568 Z0.000000
G01 X56.183211 Y79.522210 Z0.000000
G01 X56.117502 Y79.518823 Z0.000000
G01 X56.051795 Y79.515437 Z0.000000
G01 X55.986088 Y79.512078 Z0.000000
G01 X55.920378 Y79.508691 Z0.000000
G01 X55.854671 Y79.505333 Z0.000000
G01 X55.788964 Y79.501946 Z0.000000
G01 X55.723254 Y79.498588 Z0.000000
G01 X55.657547 Y79.495201 Z0.000000
G01 X55.591840 Y79.491843 Z0.000000
G01 X55.526130 Y79.488456 Z0.000000
G01 X55.526130 Y79.391552 Z0.000000
G01 X55.526130 Y79.294646 Z0.000000
G01 X55.526130 Y79.197739 Z0.000000
G01 X55.526130 Y79.100835 Z0.000000
G01 X55.526130 Y79.003929 Z0.000000
G01 X55.526130 Y78.907022 Z0.000000
G01 X55.526130 Y78.810115 Z0.000000
G01 X55.526130 Y78.713211 Z0.000000
G01 X55.526130 Y78.616305 Z0.000000
G01 X55.526130 Y78.519392 Z0.000000
G01 X55.526130 Y78.422486 Z0.000000
G01 X55.526130 Y78.325576 Z0.000000
G01 X55.526130 Y78.228670 Z0.000000
G01 X55.526130 Y78.131760 Z0.000000
G01 X55.526130 Y78.034851 Z0.000000
G01 X55.526130 Y77.937811 Z0.000000
G00 Z10.000000

(End cutting path id: path3733)


(Start cutting path id: path3383)
(Change tool to Default tool)

G00 Z10.000000
G00 X55.526130 Y79.488146

G01 Z0.000000 F100.0(Penetrate)
G01 X55.526130 Y79.204563 Z0.000000 F400.000000
G01 X55.526130 Y78.920978 Z0.000000
G01 X55.526130 Y78.637392 Z0.000000
G01 X55.526130 Y78.353807 Z0.000000
G01 X55.526130 Y78.070225 Z0.000000
G01 X55.526130 Y77.786642 Z0.000000
G01 X55.526130 Y77.503057 Z0.000000
G01 X55.526130 Y77.219471 Z0.000000
G01 X55.526130 Y76.935889 Z0.000000
G01 X55.526130 Y76.652306 Z0.000000
G01 X55.526130 Y76.368721 Z0.000000
G01 X55.526130 Y76.085138 Z0.000000
G01 X55.526130 Y75.801556 Z0.000000
G01 X55.526130 Y75.517968 Z0.000000
G01 X55.526130 Y75.234385 Z0.000000
G01 X55.526130 Y74.950803 Z0.000000
G01 X55.526695 Y74.898953 Z0.000000
G01 X55.528106 Y74.848587 Z0.000000
G01 X55.530364 Y74.799534 Z0.000000
G01 X55.533496 Y74.751627 Z0.000000
G01 X55.537532 Y74.704691 Z0.000000
G01 X55.542471 Y74.658559 Z0.000000
G01 X55.548313 Y74.613059 Z0.000000
G01 X55.555058 Y74.568025 Z0.000000
G01 X55.562735 Y74.523278 Z0.000000
G01 X55.571342 Y74.478656 Z0.000000
G01 X55.580881 Y74.433986 Z0.000000
G01 X55.591352 Y74.389098 Z0.000000
G01 X55.602754 Y74.343822 Z0.000000
G01 X55.615087 Y74.297983 Z0.000000
G01 X55.628351 Y74.251416 Z0.000000
G01 X55.642575 Y74.203952 Z0.000000
G01 X55.937026 Y73.181385 Z0.000000
G01 X56.173963 Y72.151212 Z0.000000
G01 X56.350135 Y71.122859 Z0.000000
G01 X56.462287 Y70.105761 Z0.000000
G01 X56.507163 Y69.109358 Z0.000000
G01 X56.481509 Y68.143072 Z0.000000
G01 X56.382076 Y67.216342 Z0.000000
G01 X56.205614 Y66.338599 Z0.000000
G01 X55.948863 Y65.519274 Z0.000000
G01 X55.608570 Y64.767799 Z0.000000
G01 X55.181483 Y64.093609 Z0.000000
G01 X54.664351 Y63.506135 Z0.000000
G01 X54.053915 Y63.014812 Z0.000000
G01 X53.346926 Y62.629071 Z0.000000
G01 X52.540129 Y62.358340 Z0.000000
G01 X51.630270 Y62.212056 Z0.000000
G01 X51.362692 Y62.189563 Z0.000000
G01 X51.095112 Y62.167070 Z0.000000
G01 X50.827534 Y62.144577 Z0.000000
G01 X50.559959 Y62.122084 Z0.000000
G01 X50.292378 Y62.099591 Z0.000000
G01 X50.024801 Y62.077097 Z0.000000
G01 X49.757220 Y62.054604 Z0.000000
G01 X49.489643 Y62.032111 Z0.000000
G01 X49.222068 Y62.009618 Z0.000000
G01 X48.954487 Y61.987125 Z0.000000
G01 X48.686909 Y61.964632 Z0.000000
G01 X48.419332 Y61.942139 Z0.000000
G01 X48.151751 Y61.919646 Z0.000000
G01 X47.884176 Y61.897153 Z0.000000
G01 X47.616596 Y61.874659 Z0.000000
G01 X47.349018 Y61.852166 Z0.000000
G01 X46.891730 Y61.803356 Z0.000000
G01 X46.463664 Y61.735132 Z0.000000
G01 X46.064859 Y61.645772 Z0.000000
G01 X45.695348 Y61.533563 Z0.000000
G01 X45.355177 Y61.396784 Z0.000000
G01 X45.044380 Y61.233724 Z0.000000
G01 X44.763002 Y61.042666 Z0.000000
G01 X44.511073 Y60.821889 Z0.000000
G01 X44.288640 Y60.569678 Z0.000000
G01 X44.095735 Y60.284318 Z0.000000
G01 X43.932402 Y59.964088 Z0.000000
G01 X43.798682 Y59.607278 Z0.000000
G01 X43.694607 Y59.212164 Z0.000000
G01 X43.620219 Y58.777036 Z0.000000
G01 X43.575560 Y58.300171 Z0.000000
G01 X43.560659 Y57.779861 Z0.000000
G01 X43.560659 Y57.434161 Z0.000000
G01 X43.560659 Y57.088461 Z0.000000
G01 X43.560659 Y56.742764 Z0.000000
G01 X43.560659 Y56.397068 Z0.000000
G01 X43.560659 Y56.051368 Z0.000000
G01 X43.560659 Y55.705668 Z0.000000
G01 X43.560659 Y55.359969 Z0.000000
G01 X43.560659 Y55.014272 Z0.000000
G01 X43.560659 Y54.668575 Z0.000000
G01 X43.560659 Y54.322873 Z0.000000
G01 X43.560659 Y53.977176 Z0.000000
G01 X43.560659 Y53.631479 Z0.000000
G01 X43.560659 Y53.285779 Z0.000000
G01 X43.560659 Y52.940080 Z0.000000
G01 X43.560659 Y52.594380 Z0.000000
G01 X43.560659 Y52.248683 Z0.000000
G01 X43.734245 Y52.197784 Z0.000000
G01 X43.907832 Y52.146888 Z0.000000
G01 X44.081418 Y52.095992 Z0.000000
G01 X44.255002 Y52.045094 Z0.000000
G01 X44.428588 Y51.994195 Z0.000000
G01 X44.602174 Y51.943302 Z0.000000
G01 X44.775761 Y51.892403 Z0.000000
G01 X44.949347 Y51.841504 Z0.000000
G01 X45.122931 Y51.790605 Z0.000000
G01 X45.296520 Y51.739712 Z0.000000
G01 X45.470104 Y51.688814 Z0.000000
G01 X45.643690 Y51.637918 Z0.000000
G01 X45.817277 Y51.587019 Z0.000000
G01 X45.990863 Y51.536123 Z0.000000
G01 X46.164449 Y51.485227 Z0.000000
G01 X46.338033 Y51.434328 Z0.000000
G01 X46.338033 Y51.836582 Z0.000000
G01 X46.338033 Y52.238836 Z0.000000
G01 X46.338033 Y52.641093 Z0.000000
G01 X46.338033 Y53.043348 Z0.000000
G01 X46.338033 Y53.445602 Z0.000000
G01 X46.338033 Y53.847856 Z0.000000
G01 X46.338033 Y54.250110 Z0.000000
G01 X46.338033 Y54.652364 Z0.000000
G01 X46.338033 Y55.054618 Z0.000000
G01 X46.338033 Y55.456872 Z0.000000
G01 X46.338033 Y55.859129 Z0.000000
G01 X46.338033 Y56.261386 Z0.000000
G01 X46.338033 Y56.663641 Z0.000000
G01 X46.338033 Y57.065895 Z0.000000
G01 X46.338033 Y57.468149 Z0.000000
G01 X46.338033 Y57.870403 Z0.000000
G01 X46.348447 Y58.169883 Z0.000000
G01 X46.379695 Y58.454953 Z0.000000
G01 X46.431748 Y58.725457 Z0.000000
G01 X46.504578 Y58.981233 Z0.000000
G01 X46.598157 Y59.222123 Z0.000000
G01 X46.712469 Y59.447966 Z0.000000
G01 X46.847481 Y59.658605 Z0.000000
G01 X47.003166 Y59.853881 Z0.000000
G01 X47.179507 Y60.033631 Z0.000000
G01 X47.376473 Y60.197701 Z0.000000
G01 X47.594040 Y60.345927 Z0.000000
G01 X47.832188 Y60.478156 Z0.000000
G01 X48.090881 Y60.594220 Z0.000000
G01 X48.370106 Y60.693966 Z0.000000
G01 X48.669832 Y60.777236 Z0.000000
G01 X48.990033 Y60.843865 Z0.000000
G01 X49.406923 Y60.897442 Z0.000000
G01 X49.823808 Y60.951020 Z0.000000
G01 X50.240698 Y61.004594 Z0.000000
G01 X50.657582 Y61.058171 Z0.000000
G01 X51.074473 Y61.111745 Z0.000000
G01 X51.491360 Y61.165322 Z0.000000
G01 X51.908247 Y61.218899 Z0.000000
G01 X52.325135 Y61.272473 Z0.000000
G01 X52.742022 Y61.326048 Z0.000000
G01 X53.158910 Y61.379628 Z0.000000
G01 X53.575797 Y61.433202 Z0.000000
G01 X53.992687 Y61.486776 Z0.000000
G01 X54.409572 Y61.540353 Z0.000000
G01 X54.826462 Y61.593930 Z0.000000
G01 X55.243346 Y61.647504 Z0.000000
G01 X55.660237 Y61.701082 Z0.000000
G01 X56.515839 Y61.956120 Z0.000000
G01 X57.251058 Y62.355078 Z0.000000
G01 X57.872594 Y62.880849 Z0.000000
G01 X58.387130 Y63.516318 Z0.000000
G01 X58.801364 Y64.244375 Z0.000000
G01 X59.121983 Y65.047907 Z0.000000
G01 X59.355674 Y65.909808 Z0.000000
G01 X59.509135 Y66.812964 Z0.000000
G01 X59.589055 Y67.740265 Z0.000000
G01 X59.602122 Y68.674598 Z0.000000
G01 X59.555033 Y69.598853 Z0.000000
G01 X59.454475 Y70.495922 Z0.000000
G01 X59.307138 Y71.348693 Z0.000000
G01 X59.119717 Y72.140055 Z0.000000
G01 X58.898898 Y72.852895 Z0.000000
G01 X58.651375 Y73.470104 Z0.000000
G01 X58.623999 Y73.528659 Z0.000000
G01 X58.598232 Y73.585163 Z0.000000
G01 X58.574130 Y73.639993 Z0.000000
G01 X58.551694 Y73.693525 Z0.000000
G01 X58.530950 Y73.746137 Z0.000000
G01 X58.511900 Y73.798204 Z0.000000
G01 X58.494572 Y73.850102 Z0.000000
G01 X58.478993 Y73.902211 Z0.000000
G01 X58.465164 Y73.954905 Z0.000000
G01 X58.453113 Y74.008561 Z0.000000
G01 X58.442869 Y74.063555 Z0.000000
G01 X58.434459 Y74.120265 Z0.000000
G01 X58.427883 Y74.179066 Z0.000000
G01 X58.423170 Y74.240333 Z0.000000
G01 X58.420319 Y74.304449 Z0.000000
G01 X58.419473 Y74.371787 Z0.000000
G01 X58.419473 Y74.663105 Z0.000000
G01 X58.419473 Y74.954423 Z0.000000
G01 X58.419473 Y75.245742 Z0.000000
G01 X58.419473 Y75.537063 Z0.000000
G01 X58.419473 Y75.828381 Z0.000000
G01 X58.419473 Y76.119699 Z0.000000
G01 X58.419473 Y76.411020 Z0.000000
G01 X58.419473 Y76.702339 Z0.000000
G01 X58.419473 Y76.993657 Z0.000000
G01 X58.419473 Y77.284978 Z0.000000
G01 X58.419473 Y77.576296 Z0.000000
G01 X58.419473 Y77.867614 Z0.000000
G01 X58.419473 Y78.158933 Z0.000000
G01 X58.419473 Y78.450254 Z0.000000
G01 X58.419473 Y78.741572 Z0.000000
G01 X58.419473 Y79.032893 Z0.000000
G01 X58.238653 Y79.061355 Z0.000000
G01 X58.057833 Y79.089817 Z0.000000
G01 X57.877016 Y79.118279 Z0.000000
G01 X57.696196 Y79.146741 Z0.000000
G01 X57.515377 Y79.175201 Z0.000000
G01 X57.334560 Y79.203663 Z0.000000
G01 X57.153740 Y79.232125 Z0.000000
G01 X56.972920 Y79.260587 Z0.000000
G01 X56.792103 Y79.289049 Z0.000000
G01 X56.611283 Y79.317511 Z0.000000
G01 X56.430463 Y79.345973 Z0.000000
G01 X56.249649 Y79.374436 Z0.000000
G01 X56.068830 Y79.402898 Z0.000000
G01 X55.888010 Y79.431360 Z0.000000
G01 X55.707193 Y79.459822 Z0.000000
G01 X55.526130 Y79.488146 Z0.000000
G00 Z10.000000

(End cutting path id: path3383)


(Start cutting path id: path3385)
(Change tool to Default tool)

G00 Z10.000000
G00 X55.526130 Y79.488298

G01 Z0.000000 F100.0(Penetrate)
G01 X58.044202 Y79.618053 Z0.000000 F400.000000
G01 X60.562267 Y79.747807 Z0.000000
G01 X63.080336 Y79.877559 Z0.000000
G01 X65.598402 Y80.007316 Z0.000000
G01 X68.116470 Y80.137071 Z0.000000
G01 X70.634539 Y80.266822 Z0.000000
G01 X73.152604 Y80.396577 Z0.000000
G01 X75.670673 Y80.526331 Z0.000000
G01 X78.188741 Y80.656083 Z0.000000
G01 X80.706810 Y80.785840 Z0.000000
G01 X83.224878 Y80.915592 Z0.000000
G01 X85.742947 Y81.045346 Z0.000000
G01 X88.261013 Y81.175101 Z0.000000
G01 X90.779081 Y81.304852 Z0.000000
G01 X93.297147 Y81.434610 Z0.000000
G01 X95.815215 Y81.564364 Z0.000000
G01 X96.509513 Y81.600379 Z0.000000
G01 X97.262595 Y81.640813 Z0.000000
G01 X98.055278 Y81.686067 Z0.000000
G01 X98.868383 Y81.736523 Z0.000000
G01 X99.682718 Y81.792575 Z0.000000
G01 X100.479107 Y81.854616 Z0.000000
G01 X101.238361 Y81.923035 Z0.000000
G01 X101.941303 Y81.998224 Z0.000000
G01 X102.568745 Y82.080574 Z0.000000
G01 X103.101505 Y82.170473 Z0.000000
G01 X103.520399 Y82.268317 Z0.000000
G01 X103.806245 Y82.374494 Z0.000000
G01 X103.939860 Y82.489398 Z0.000000
G01 X103.902059 Y82.613418 Z0.000000
G01 X103.673662 Y82.746943 Z0.000000
G01 X103.235481 Y82.890368 Z0.000000
G01 X103.173533 Y82.907104 Z0.000000
G01 X103.111586 Y82.923840 Z0.000000
G01 X103.049638 Y82.940576 Z0.000000
G01 X102.987693 Y82.957312 Z0.000000
G01 X102.925745 Y82.974047 Z0.000000
G01 X102.863797 Y82.990783 Z0.000000
G01 X102.801850 Y83.007519 Z0.000000
G01 X102.739905 Y83.024255 Z0.000000
G01 X102.677957 Y83.040990 Z0.000000
G01 X102.616009 Y83.057726 Z0.000000
G01 X102.554061 Y83.074462 Z0.000000
G01 X102.492116 Y83.091198 Z0.000000
G01 X102.430169 Y83.107934 Z0.000000
G01 X102.368221 Y83.124669 Z0.000000
G01 X102.306273 Y83.141405 Z0.000000
G01 X102.244325 Y83.158141 Z0.000000
G01 X101.814171 Y83.307911 Z0.000000
G01 X101.571852 Y83.470341 Z0.000000
G01 X101.506486 Y83.642985 Z0.000000
G01 X101.607192 Y83.823395 Z0.000000
G01 X101.863085 Y84.009123 Z0.000000
G01 X102.263282 Y84.197721 Z0.000000
G01 X102.796902 Y84.386739 Z0.000000
G01 X103.453058 Y84.573731 Z0.000000
G01 X104.220866 Y84.756250 Z0.000000
G01 X105.089444 Y84.931845 Z0.000000
G01 X106.047910 Y85.098074 Z0.000000
G01 X107.085382 Y85.252487 Z0.000000
G01 X108.190970 Y85.392630 Z0.000000
G01 X109.353797 Y85.516065 Z0.000000
G01 X110.562978 Y85.620335 Z0.000000
G01 X111.807628 Y85.702998 Z0.000000
G01 X114.134153 Y85.836006 Z0.000000
G01 X116.461019 Y85.972210 Z0.000000
G01 X118.788203 Y86.111238 Z0.000000
G01 X121.115670 Y86.252733 Z0.000000
G01 X123.443402 Y86.396330 Z0.000000
G01 X125.771363 Y86.541672 Z0.000000
G01 X128.099533 Y86.688388 Z0.000000
G01 X130.427883 Y86.836126 Z0.000000
G01 X132.756383 Y86.984515 Z0.000000
G01 X135.085004 Y87.133196 Z0.000000
G01 X137.413727 Y87.281808 Z0.000000
G01 X139.742518 Y87.429983 Z0.000000
G01 X142.071350 Y87.577368 Z0.000000
G01 X144.400200 Y87.723593 Z0.000000
G01 X146.729039 Y87.868300 Z0.000000
G01 X149.057838 Y88.011124 Z0.000000
G01 X150.436584 Y88.095054 Z0.000000
G01 X151.815332 Y88.178984 Z0.000000
G01 X153.194078 Y88.262914 Z0.000000
G01 X154.572824 Y88.346844 Z0.000000
G01 X155.951573 Y88.430775 Z0.000000
G01 X157.330319 Y88.514705 Z0.000000
G01 X158.709065 Y88.598635 Z0.000000
G01 X160.087813 Y88.682565 Z0.000000
G01 X161.466559 Y88.766495 Z0.000000
G01 X162.845305 Y88.850425 Z0.000000
G01 X164.224054 Y88.934355 Z0.000000
G01 X165.602800 Y89.018288 Z0.000000
G01 X166.981548 Y89.102218 Z0.000000
G01 X168.360297 Y89.186148 Z0.000000
G01 X169.739043 Y89.270078 Z0.000000
G01 X171.117789 Y89.354008 Z0.000000
G01 X171.404916 Y89.376473 Z0.000000
G01 X171.812761 Y89.406736 Z0.000000
G01 X172.309636 Y89.445005 Z0.000000
G01 X172.863861 Y89.491484 Z0.000000
G01 X173.443754 Y89.546388 Z0.000000
G01 X174.017633 Y89.609924 Z0.000000
G01 X174.553816 Y89.682300 Z0.000000
G01 X175.020620 Y89.763724 Z0.000000
G01 X175.386366 Y89.854405 Z0.000000
G01 X175.619366 Y89.954552 Z0.000000
G01 X175.687940 Y90.064376 Z0.000000
G01 X175.560410 Y90.184083 Z0.000000
G01 X175.205086 Y90.313880 Z0.000000
G01 X174.590293 Y90.453980 Z0.000000
G01 X173.684346 Y90.604591 Z0.000000
G01 X172.455564 Y90.765921 Z0.000000
G01 X170.998002 Y90.933998 Z0.000000
G01 X169.534039 Y91.092235 Z0.000000
G01 X168.063732 Y91.241042 Z0.000000
G01 X166.587140 Y91.380841 Z0.000000
G01 X165.104327 Y91.512046 Z0.000000
G01 X163.615351 Y91.635075 Z0.000000
G01 X162.120273 Y91.750340 Z0.000000
G01 X160.619153 Y91.858262 Z0.000000
G01 X159.112055 Y91.959255 Z0.000000
G01 X157.599034 Y92.053735 Z0.000000
G01 X156.080153 Y92.142118 Z0.000000
G01 X154.555476 Y92.224818 Z0.000000
G01 X153.025058 Y92.302257 Z0.000000
G01 X151.488962 Y92.374844 Z0.000000
G01 X149.947247 Y92.443001 Z0.000000
G01 X148.399978 Y92.507139 Z0.000000
G01 X150.813810 Y92.442343 Z0.000000
G01 X153.290624 Y92.365748 Z0.000000
G01 X155.800242 Y92.276919 Z0.000000
G01 X158.312480 Y92.175418 Z0.000000
G01 X160.797168 Y92.060818 Z0.000000
G01 X163.224121 Y91.932670 Z0.000000
G01 X165.563161 Y91.790551 Z0.000000
G01 X167.784118 Y91.634017 Z0.000000
G01 X169.856800 Y91.462634 Z0.000000
G01 X171.751039 Y91.275970 Z0.000000
G01 X173.436654 Y91.073585 Z0.000000
G01 X174.883466 Y90.855044 Z0.000000
G01 X176.061298 Y90.619913 Z0.000000
G01 X176.939968 Y90.367750 Z0.000000
G01 X177.489300 Y90.098129 Z0.000000
G01 X177.679120 Y89.810607 Z0.000000
G00 Z10.000000

(End cutting path id: path3385)


(Start cutting path id: path3371)
(Change tool to Default tool)

G00 Z10.000000
G00 X171.732395 Y68.963156

G01 Z0.000000 F100.0(Penetrate)
G01 X171.378294 Y68.935865 Z0.000000 F400.000000
G01 X171.024187 Y68.908574 Z0.000000
G01 X170.670086 Y68.881283 Z0.000000
G01 X170.315984 Y68.853993 Z0.000000
G01 X169.961877 Y68.826702 Z0.000000
G01 X169.607776 Y68.799411 Z0.000000
G01 X169.253671 Y68.772120 Z0.000000
G01 X168.899567 Y68.744829 Z0.000000
G01 X168.545466 Y68.717538 Z0.000000
G01 X168.191362 Y68.690247 Z0.000000
G01 X167.837257 Y68.662956 Z0.000000
G01 X167.483156 Y68.635665 Z0.000000
G01 X167.129052 Y68.608375 Z0.000000
G01 X166.774948 Y68.581084 Z0.000000
G01 X166.420843 Y68.553793 Z0.000000
G01 X166.066742 Y68.526502 Z0.000000
G01 X166.066742 Y68.438101 Z0.000000
G01 X166.066742 Y68.349701 Z0.000000
G01 X166.066742 Y68.261300 Z0.000000
G01 X166.066742 Y68.172900 Z0.000000
G01 X166.066742 Y68.084500 Z0.000000
G01 X166.066742 Y67.996099 Z0.000000
G01 X166.066742 Y67.907701 Z0.000000
G01 X166.066742 Y67.819298 Z0.000000
G01 X166.066742 Y67.730898 Z0.000000
G01 X166.066742 Y67.642500 Z0.000000
G01 X166.066742 Y67.554097 Z0.000000
G01 X166.066742 Y67.465699 Z0.000000
G01 X166.066742 Y67.377296 Z0.000000
G01 X166.066742 Y67.288898 Z0.000000
G01 X166.066742 Y67.200498 Z0.000000
G01 X166.066742 Y67.112097 Z0.000000
G01 X166.420843 Y67.139727 Z0.000000
G01 X166.774948 Y67.167356 Z0.000000
G01 X167.129052 Y67.194986 Z0.000000
G01 X167.483156 Y67.222615 Z0.000000
G01 X167.837257 Y67.250245 Z0.000000
G01 X168.191362 Y67.277875 Z0.000000
G01 X168.545466 Y67.305504 Z0.000000
G01 X168.899567 Y67.333134 Z0.000000
G01 X169.253671 Y67.360763 Z0.000000
G01 X169.607776 Y67.388393 Z0.000000
G01 X169.961877 Y67.416022 Z0.000000
G01 X170.315984 Y67.443652 Z0.000000
G01 X170.670086 Y67.471281 Z0.000000
G01 X171.024187 Y67.498911 Z0.000000
G01 X171.378294 Y67.526541 Z0.000000
G01 X171.732395 Y67.554170 Z0.000000
G01 X171.732395 Y67.642235 Z0.000000
G01 X171.732395 Y67.730302 Z0.000000
G01 X171.732395 Y67.818367 Z0.000000
G01 X171.732395 Y67.906431 Z0.000000
G01 X171.732395 Y67.994496 Z0.000000
G01 X171.732395 Y68.082563 Z0.000000
G01 X171.732395 Y68.170628 Z0.000000
G01 X171.732395 Y68.258693 Z0.000000
G01 X171.732395 Y68.346757 Z0.000000
G01 X171.732395 Y68.434825 Z0.000000
G01 X171.732395 Y68.522889 Z0.000000
G01 X171.732395 Y68.610957 Z0.000000
G01 X171.732395 Y68.699021 Z0.000000
G01 X171.732395 Y68.787086 Z0.000000
G01 X171.732395 Y68.875151 Z0.000000
G01 X171.732395 Y68.963156 Z0.000000
G00 Z10.000000

(End cutting path id: path3371)


(Start cutting path id: path3373)
(Change tool to Default tool)

G00 Z10.000000
G00 X167.940827 Y67.258373

G01 Z0.000000 F100.0(Penetrate)
G01 X167.823697 Y67.249229 Z0.000000 F400.000000
G01 X167.706566 Y67.240085 Z0.000000
G01 X167.589435 Y67.230941 Z0.000000
G01 X167.472305 Y67.221797 Z0.000000
G01 X167.355174 Y67.212653 Z0.000000
G01 X167.238046 Y67.203509 Z0.000000
G01 X167.120912 Y67.194365 Z0.000000
G01 X167.003782 Y67.185221 Z0.000000
G01 X166.886654 Y67.176077 Z0.000000
G01 X166.769523 Y67.166933 Z0.000000
G01 X166.652393 Y67.157789 Z0.000000
G01 X166.535262 Y67.148645 Z0.000000
G01 X166.418131 Y67.139501 Z0.000000
G01 X166.301000 Y67.130357 Z0.000000
G01 X166.183870 Y67.121213 Z0.000000
G01 X166.066742 Y67.112069 Z0.000000
G01 X165.462733 Y67.166129 Z0.000000
G01 X164.894673 Y67.188848 Z0.000000
G01 X164.362083 Y67.180635 Z0.000000
G01 X163.864491 Y67.141911 Z0.000000
G01 X163.401432 Y67.073091 Z0.000000
G01 X162.972424 Y66.974579 Z0.000000
G01 X162.576999 Y66.846786 Z0.000000
G01 X162.214688 Y66.690133 Z0.000000
G01 X161.885013 Y66.505023 Z0.000000
G01 X161.587500 Y66.291872 Z0.000000
G01 X161.321683 Y66.051094 Z0.000000
G01 X161.087086 Y65.783096 Z0.000000
G01 X160.883237 Y65.488295 Z0.000000
G01 X160.709662 Y65.167103 Z0.000000
G01 X160.565889 Y64.819931 Z0.000000
G01 X160.451451 Y64.447188 Z0.000000
G01 X160.808265 Y64.475620 Z0.000000
G01 X161.165081 Y64.504048 Z0.000000
G01 X161.521894 Y64.532473 Z0.000000
G01 X161.878714 Y64.560904 Z0.000000
G01 X162.235530 Y64.589332 Z0.000000
G01 X162.592344 Y64.617764 Z0.000000
G01 X162.949160 Y64.646189 Z0.000000
G01 X163.305974 Y64.674617 Z0.000000
G01 X163.662790 Y64.703048 Z0.000000
G01 X164.019606 Y64.731477 Z0.000000
G01 X164.376420 Y64.759908 Z0.000000
G01 X164.733239 Y64.788336 Z0.000000
G01 X165.090053 Y64.816761 Z0.000000
G01 X165.446869 Y64.845192 Z0.000000
G01 X165.803685 Y64.873621 Z0.000000
G01 X166.160499 Y64.902052 Z0.000000
G01 X166.201574 Y65.056334 Z0.000000
G01 X166.246029 Y65.210283 Z0.000000
G01 X166.295142 Y65.363764 Z0.000000
G01 X166.350197 Y65.516653 Z0.000000
G01 X166.412478 Y65.668821 Z0.000000
G01 X166.483262 Y65.820135 Z0.000000
G01 X166.563831 Y65.970472 Z0.000000
G01 X166.655472 Y66.119705 Z0.000000
G01 X166.759459 Y66.267700 Z0.000000
G01 X166.877078 Y66.414331 Z0.000000
G01 X167.009612 Y66.559472 Z0.000000
G01 X167.158338 Y66.702993 Z0.000000
G01 X167.324541 Y66.844768 Z0.000000
G01 X167.509504 Y66.984665 Z0.000000
G01 X167.714505 Y67.122556 Z0.000000
G01 X167.940827 Y67.258373 Z0.000000
G00 Z10.000000

(End cutting path id: path3373)


(Start cutting path id: path3381)
(Change tool to Default tool)

G00 Z10.000000
G00 X165.671250 Y64.862992

G01 Z0.000000 F100.0(Penetrate)
G01 X165.352240 Y64.837592 Z0.000000 F400.000000
G01 X165.033227 Y64.812192 Z0.000000
G01 X164.714217 Y64.786792 Z0.000000
G01 X164.395207 Y64.761364 Z0.000000
G01 X164.076195 Y64.735964 Z0.000000
G01 X163.757185 Y64.710564 Z0.000000
G01 X163.438172 Y64.685164 Z0.000000
G01 X163.119162 Y64.659764 Z0.000000
G01 X162.800152 Y64.634336 Z0.000000
G01 X162.481140 Y64.608936 Z0.000000
G01 X162.162130 Y64.583536 Z0.000000
G01 X161.843120 Y64.558107 Z0.000000
G01 X161.524107 Y64.532679 Z0.000000
G01 X161.205097 Y64.507279 Z0.000000
G01 X160.886084 Y64.481879 Z0.000000
G01 X160.567075 Y64.456479 Z0.000000
G01 X160.566801 Y63.081083 Z0.000000
G01 X160.566524 Y61.705690 Z0.000000
G01 X160.566251 Y60.330294 Z0.000000
G01 X160.565977 Y58.954898 Z0.000000
G01 X160.565703 Y57.579508 Z0.000000
G01 X160.565429 Y56.204112 Z0.000000
G01 X160.565153 Y54.828719 Z0.000000
G01 X160.564879 Y53.453323 Z0.000000
G01 X160.564605 Y52.077927 Z0.000000
G01 X160.564331 Y50.702534 Z0.000000
G01 X160.564058 Y49.327141 Z0.000000
G01 X160.563781 Y47.951748 Z0.000000
G01 X160.563507 Y46.576352 Z0.000000
G01 X160.563234 Y45.200956 Z0.000000
G01 X160.562960 Y43.825566 Z0.000000
G01 X160.562686 Y42.450170 Z0.000000
G01 X160.569854 Y42.448477 Z0.000000
G01 X160.577023 Y42.446784 Z0.000000
G01 X160.584191 Y42.445090 Z0.000000
G01 X160.591360 Y42.443397 Z0.000000
G01 X160.598528 Y42.441704 Z0.000000
G01 X160.605697 Y42.440010 Z0.000000
G01 X160.612865 Y42.438317 Z0.000000
G01 X160.620034 Y42.436624 Z0.000000
G01 X160.627202 Y42.434930 Z0.000000
G01 X160.634370 Y42.433237 Z0.000000
G01 X160.641539 Y42.431544 Z0.000000
G01 X160.648707 Y42.429850 Z0.000000
G01 X160.655876 Y42.428157 Z0.000000
G01 X160.663044 Y42.426464 Z0.000000
G01 X160.670213 Y42.424770 Z0.000000
G01 X160.677381 Y42.423077 Z0.000000
G01 X160.879997 Y42.445711 Z0.000000
G01 X161.082616 Y42.468345 Z0.000000
G01 X161.285231 Y42.490980 Z0.000000
G01 X161.487850 Y42.513614 Z0.000000
G01 X161.690469 Y42.536248 Z0.000000
G01 X161.893087 Y42.558882 Z0.000000
G01 X162.095700 Y42.581516 Z0.000000
G01 X162.298319 Y42.604151 Z0.000000
G01 X162.500937 Y42.626785 Z0.000000
G01 X162.703556 Y42.649419 Z0.000000
G01 X162.906172 Y42.672053 Z0.000000
G01 X163.108791 Y42.694688 Z0.000000
G01 X163.311406 Y42.717322 Z0.000000
G01 X163.514022 Y42.739956 Z0.000000
G01 X163.716641 Y42.762590 Z0.000000
G01 X163.919259 Y42.785224 Z0.000000
G01 X164.028821 Y44.165071 Z0.000000
G01 X164.138385 Y45.544920 Z0.000000
G01 X164.247947 Y46.924767 Z0.000000
G01 X164.357508 Y48.304613 Z0.000000
G01 X164.467072 Y49.684463 Z0.000000
G01 X164.576634 Y51.064312 Z0.000000
G01 X164.686198 Y52.444162 Z0.000000
G01 X164.795760 Y53.824008 Z0.000000
G01 X164.905321 Y55.203855 Z0.000000
G01 X165.014886 Y56.583704 Z0.000000
G01 X165.124447 Y57.963551 Z0.000000
G01 X165.234011 Y59.343397 Z0.000000
G01 X165.343573 Y60.723246 Z0.000000
G01 X165.453137 Y62.103093 Z0.000000
G01 X165.562701 Y63.482942 Z0.000000
G01 X165.672263 Y64.862789 Z0.000000
G01 X165.672263 Y64.862789 Z0.000000
G01 X165.672260 Y64.862789 Z0.000000
G01 X165.672260 Y64.862792 Z0.000000
G01 X165.672260 Y64.862792 Z0.000000
G01 X165.672260 Y64.862792 Z0.000000
G01 X165.672257 Y64.862792 Z0.000000
G01 X165.672257 Y64.862795 Z0.000000
G01 X165.672257 Y64.862795 Z0.000000
G01 X165.672271 Y64.862797 Z0.000000
G01 X165.672288 Y64.862803 Z0.000000
G01 X165.672305 Y64.862806 Z0.000000
G01 X165.672325 Y64.862811 Z0.000000
G01 X165.672342 Y64.862817 Z0.000000
G01 X165.672359 Y64.862820 Z0.000000
G01 X165.672373 Y64.862823 Z0.000000
G01 X165.671250 Y64.862992 Z0.000000
G00 Z10.000000

(End cutting path id: path3381)


(Start cutting path id: path3375)
(Change tool to Default tool)

G00 Z10.000000
G00 X160.204464 Y69.505881

G01 Z0.000000 F100.0(Penetrate)
G01 X159.746056 Y69.464225 Z0.000000 F400.000000
G01 X159.287648 Y69.422572 Z0.000000
G01 X158.829238 Y69.380916 Z0.000000
G01 X158.370830 Y69.339260 Z0.000000
G01 X157.912422 Y69.297604 Z0.000000
G01 X157.454014 Y69.255948 Z0.000000
G01 X156.995603 Y69.214294 Z0.000000
G01 X156.537192 Y69.172638 Z0.000000
G01 X156.078785 Y69.130982 Z0.000000
G01 X155.620377 Y69.089326 Z0.000000
G01 X155.161966 Y69.047670 Z0.000000
G01 X154.703558 Y69.006017 Z0.000000
G01 X154.245150 Y68.964361 Z0.000000
G01 X153.786742 Y68.922708 Z0.000000
G01 X153.328331 Y68.881049 Z0.000000
G01 X152.869923 Y68.839396 Z0.000000
G01 X153.143860 Y68.738586 Z0.000000
G01 X153.409721 Y68.625951 Z0.000000
G01 X153.666930 Y68.500656 Z0.000000
G01 X153.914913 Y68.361859 Z0.000000
G01 X154.153098 Y68.208722 Z0.000000
G01 X154.380907 Y68.040405 Z0.000000
G01 X154.597773 Y67.856069 Z0.000000
G01 X154.803120 Y67.654875 Z0.000000
G01 X154.996375 Y67.435981 Z0.000000
G01 X155.176958 Y67.198550 Z0.000000
G01 X155.344301 Y66.941745 Z0.000000
G01 X155.497830 Y66.664721 Z0.000000
G01 X155.636971 Y66.366641 Z0.000000
G01 X155.761146 Y66.046669 Z0.000000
G01 X155.869790 Y65.703958 Z0.000000
G01 X155.962323 Y65.337676 Z0.000000
G01 X156.242894 Y65.282024 Z0.000000
G01 X156.523465 Y65.226373 Z0.000000
G01 X156.804034 Y65.170722 Z0.000000
G01 X157.084605 Y65.115067 Z0.000000
G01 X157.365176 Y65.059416 Z0.000000
G01 X157.645747 Y65.003762 Z0.000000
G01 X157.926316 Y64.948110 Z0.000000
G01 X158.206887 Y64.892459 Z0.000000
G01 X158.487458 Y64.836808 Z0.000000
G01 X158.768029 Y64.781156 Z0.000000
G01 X159.048598 Y64.725505 Z0.000000
G01 X159.329169 Y64.669853 Z0.000000
G01 X159.609740 Y64.614199 Z0.000000
G01 X159.890311 Y64.558545 Z0.000000
G01 X160.170880 Y64.502893 Z0.000000
G01 X160.451451 Y64.447242 Z0.000000
G01 X160.565889 Y64.819984 Z0.000000
G01 X160.709659 Y65.167157 Z0.000000
G01 X160.883234 Y65.488351 Z0.000000
G01 X161.087083 Y65.783149 Z0.000000
G01 X161.321683 Y66.051148 Z0.000000
G01 X161.587500 Y66.291928 Z0.000000
G01 X161.885013 Y66.505077 Z0.000000
G01 X162.214688 Y66.690186 Z0.000000
G01 X162.577002 Y66.846839 Z0.000000
G01 X162.972424 Y66.974630 Z0.000000
G01 X163.401432 Y67.073142 Z0.000000
G01 X163.864491 Y67.141968 Z0.000000
G01 X164.362083 Y67.180688 Z0.000000
G01 X164.894673 Y67.188901 Z0.000000
G01 X165.462733 Y67.166182 Z0.000000
G01 X166.066742 Y67.112123 Z0.000000
G01 X166.066742 Y67.200523 Z0.000000
G01 X166.066742 Y67.288921 Z0.000000
G01 X166.066742 Y67.377324 Z0.000000
G01 X166.066742 Y67.465722 Z0.000000
G01 X166.066742 Y67.554122 Z0.000000
G01 X166.066742 Y67.642523 Z0.000000
G01 X166.066742 Y67.730923 Z0.000000
G01 X166.066742 Y67.819324 Z0.000000
G01 X166.066742 Y67.907724 Z0.000000
G01 X166.066742 Y67.996122 Z0.000000
G01 X166.066742 Y68.084525 Z0.000000
G01 X166.066742 Y68.172925 Z0.000000
G01 X166.066742 Y68.261323 Z0.000000
G01 X166.066742 Y68.349726 Z0.000000
G01 X166.066742 Y68.438124 Z0.000000
G01 X166.066742 Y68.526527 Z0.000000
G01 X166.053788 Y68.525398 Z0.000000
G01 X166.040834 Y68.524269 Z0.000000
G01 X166.027880 Y68.523141 Z0.000000
G01 X166.014926 Y68.522012 Z0.000000
G01 X166.001972 Y68.520883 Z0.000000
G01 X165.989018 Y68.519754 Z0.000000
G01 X165.976064 Y68.518625 Z0.000000
G01 X165.963110 Y68.517496 Z0.000000
G01 X165.950156 Y68.516367 Z0.000000
G01 X165.937202 Y68.515238 Z0.000000
G01 X165.924248 Y68.514109 Z0.000000
G01 X165.911294 Y68.512981 Z0.000000
G01 X165.898340 Y68.511852 Z0.000000
G01 X165.885386 Y68.510723 Z0.000000
G01 X165.872432 Y68.509594 Z0.000000
G01 X165.859478 Y68.508465 Z0.000000
G01 X165.506045 Y68.570681 Z0.000000
G01 X165.152613 Y68.632894 Z0.000000
G01 X164.799177 Y68.695110 Z0.000000
G01 X164.445745 Y68.757326 Z0.000000
G01 X164.092310 Y68.819539 Z0.000000
G01 X163.738877 Y68.881755 Z0.000000
G01 X163.385442 Y68.943968 Z0.000000
G01 X163.032009 Y69.006184 Z0.000000
G01 X162.678577 Y69.068400 Z0.000000
G01 X162.325144 Y69.130615 Z0.000000
G01 X161.971709 Y69.192829 Z0.000000
G01 X161.618276 Y69.255044 Z0.000000
G01 X161.264841 Y69.317260 Z0.000000
G01 X160.911408 Y69.379476 Z0.000000
G01 X160.557976 Y69.441689 Z0.000000
G01 X160.204464 Y69.505881 Z0.000000
G00 Z10.000000

(End cutting path id: path3375)


(Start cutting path id: path3377)
(Change tool to Default tool)

G00 Z10.000000
G00 X160.203369 Y69.505731

G01 Z0.000000 F100.0(Penetrate)
G01 X160.556867 Y69.443518 Z0.000000 F400.000000
G01 X160.910367 Y69.381308 Z0.000000
G01 X161.263864 Y69.319098 Z0.000000
G01 X161.617365 Y69.256884 Z0.000000
G01 X161.970859 Y69.194671 Z0.000000
G01 X162.324359 Y69.132461 Z0.000000
G01 X162.677857 Y69.070245 Z0.000000
G01 X163.031357 Y69.008035 Z0.000000
G01 X163.384855 Y68.945825 Z0.000000
G01 X163.738355 Y68.883612 Z0.000000
G01 X164.091852 Y68.821399 Z0.000000
G01 X164.445353 Y68.759188 Z0.000000
G01 X164.798847 Y68.696975 Z0.000000
G01 X165.152348 Y68.634765 Z0.000000
G01 X165.505845 Y68.572552 Z0.000000
G01 X165.859345 Y68.510342 Z0.000000
G01 X166.312176 Y68.545267 Z0.000000
G01 X166.765008 Y68.580189 Z0.000000
G01 X167.217836 Y68.615114 Z0.000000
G01 X167.670667 Y68.650036 Z0.000000
G01 X168.123498 Y68.684961 Z0.000000
G01 X168.576330 Y68.719886 Z0.000000
G01 X169.029161 Y68.754808 Z0.000000
G01 X169.481992 Y68.789733 Z0.000000
G01 X169.934823 Y68.824658 Z0.000000
G01 X170.387654 Y68.859581 Z0.000000
G01 X170.840486 Y68.894506 Z0.000000
G01 X171.293317 Y68.929431 Z0.000000
G01 X171.746145 Y68.964356 Z0.000000
G01 X172.198979 Y68.999278 Z0.000000
G01 X172.651810 Y69.034203 Z0.000000
G01 X173.104642 Y69.069128 Z0.000000
G01 X173.179555 Y69.075280 Z0.000000
G01 X173.246710 Y69.083069 Z0.000000
G01 X173.306518 Y69.092411 Z0.000000
G01 X173.359404 Y69.103248 Z0.000000
G01 X173.405781 Y69.115440 Z0.000000
G01 X173.446080 Y69.128931 Z0.000000
G01 X173.480708 Y69.143634 Z0.000000
G01 X173.510091 Y69.159467 Z0.000000
G01 X173.534644 Y69.176316 Z0.000000
G01 X173.554766 Y69.194096 Z0.000000
G01 X173.570938 Y69.212722 Z0.000000
G01 X173.583525 Y69.232083 Z0.000000
G01 X173.592951 Y69.252149 Z0.000000
G01 X173.599668 Y69.272779 Z0.000000
G01 X173.604071 Y69.293889 Z0.000000
G01 X173.606611 Y69.315395 Z0.000000
G01 X173.606611 Y69.406691 Z0.000000
G01 X173.606611 Y69.497987 Z0.000000
G01 X173.606611 Y69.589286 Z0.000000
G01 X173.606611 Y69.680582 Z0.000000
G01 X173.606611 Y69.771875 Z0.000000
G01 X173.606611 Y69.863171 Z0.000000
G01 X173.606611 Y69.954470 Z0.000000
G01 X173.606611 Y70.045766 Z0.000000
G01 X173.606611 Y70.137059 Z0.000000
G01 X173.606611 Y70.228355 Z0.000000
G01 X173.606611 Y70.319654 Z0.000000
G01 X173.606611 Y70.410950 Z0.000000
G01 X173.606611 Y70.502244 Z0.000000
G01 X173.606611 Y70.593540 Z0.000000
G01 X173.606611 Y70.684839 Z0.000000
G01 X173.606611 Y70.776135 Z0.000000
G01 X172.768907 Y70.696734 Z0.000000
G01 X171.931207 Y70.617337 Z0.000000
G01 X171.093504 Y70.537939 Z0.000000
G01 X170.255806 Y70.458536 Z0.000000
G01 X169.418103 Y70.379138 Z0.000000
G01 X168.580399 Y70.299738 Z0.000000
G01 X167.742699 Y70.220340 Z0.000000
G01 X166.904996 Y70.140943 Z0.000000
G01 X166.067292 Y70.061542 Z0.000000
G01 X165.229592 Y69.982145 Z0.000000
G01 X164.391888 Y69.902747 Z0.000000
G01 X163.554188 Y69.823347 Z0.000000
G01 X162.716485 Y69.743949 Z0.000000
G01 X161.878781 Y69.664549 Z0.000000
G01 X161.041081 Y69.585151 Z0.000000
G01 X160.203369 Y69.505731 Z0.000000
G00 Z10.000000

(End cutting path id: path3377)


(Start cutting path id: path3379)
(Change tool to Default tool)

G00 Z10.000000
G00 X156.495841 Y65.231594

G01 Z0.000000 F100.0(Penetrate)
G01 X156.573692 Y63.848900 Z0.000000 F400.000000
G01 X156.651549 Y62.466206 Z0.000000
G01 X156.729400 Y61.083514 Z0.000000
G01 X156.807251 Y59.700820 Z0.000000
G01 X156.885102 Y58.318126 Z0.000000
G01 X156.962956 Y56.935432 Z0.000000
G01 X157.040810 Y55.552738 Z0.000000
G01 X157.118661 Y54.170044 Z0.000000
G01 X157.196512 Y52.787349 Z0.000000
G01 X157.274365 Y51.404655 Z0.000000
G01 X157.352216 Y50.021961 Z0.000000
G01 X157.430067 Y48.639270 Z0.000000
G01 X157.507924 Y47.256576 Z0.000000
G01 X157.585775 Y45.873881 Z0.000000
G01 X157.663629 Y44.491187 Z0.000000
G01 X157.741480 Y43.108493 Z0.000000
G01 X157.917745 Y43.067339 Z0.000000
G01 X158.094009 Y43.026186 Z0.000000
G01 X158.270274 Y42.985032 Z0.000000
G01 X158.446539 Y42.943879 Z0.000000
G01 X158.622803 Y42.902728 Z0.000000
G01 X158.799068 Y42.861574 Z0.000000
G01 X158.975333 Y42.820418 Z0.000000
G01 X159.151598 Y42.779267 Z0.000000
G01 X159.327862 Y42.738116 Z0.000000
G01 X159.504127 Y42.696959 Z0.000000
G01 X159.680392 Y42.655809 Z0.000000
G01 X159.856656 Y42.614655 Z0.000000
G01 X160.032921 Y42.573501 Z0.000000
G01 X160.209186 Y42.532351 Z0.000000
G01 X160.385450 Y42.491197 Z0.000000
G01 X160.561718 Y42.450043 Z0.000000
G01 X160.561992 Y43.825439 Z0.000000
G01 X160.562266 Y45.200832 Z0.000000
G01 X160.562539 Y46.576225 Z0.000000
G01 X160.562813 Y47.951621 Z0.000000
G01 X160.563087 Y49.327014 Z0.000000
G01 X160.563363 Y50.702407 Z0.000000
G01 X160.563637 Y52.077803 Z0.000000
G01 X160.563911 Y53.453196 Z0.000000
G01 X160.564185 Y54.828592 Z0.000000
G01 X160.564458 Y56.203985 Z0.000000
G01 X160.564735 Y57.579381 Z0.000000
G01 X160.565009 Y58.954774 Z0.000000
G01 X160.565282 Y60.330167 Z0.000000
G01 X160.565556 Y61.705563 Z0.000000
G01 X160.565830 Y63.080956 Z0.000000
G01 X160.566107 Y64.456352 Z0.000000
G01 X160.558853 Y64.455788 Z0.000000
G01 X160.551600 Y64.455223 Z0.000000
G01 X160.544347 Y64.454659 Z0.000000
G01 X160.537094 Y64.454094 Z0.000000
G01 X160.529841 Y64.453530 Z0.000000
G01 X160.522588 Y64.452966 Z0.000000
G01 X160.515335 Y64.452401 Z0.000000
G01 X160.508082 Y64.451837 Z0.000000
G01 X160.500829 Y64.451272 Z0.000000
G01 X160.493575 Y64.450708 Z0.000000
G01 X160.486322 Y64.450143 Z0.000000
G01 X160.479069 Y64.449579 Z0.000000
G01 X160.471816 Y64.449014 Z0.000000
G01 X160.464563 Y64.448450 Z0.000000
G01 X160.457310 Y64.447886 Z0.000000
G01 X160.450057 Y64.447321 Z0.000000
G01 X160.202971 Y64.496343 Z0.000000
G01 X159.955886 Y64.545365 Z0.000000
G01 X159.708800 Y64.594384 Z0.000000
G01 X159.461715 Y64.643409 Z0.000000
G01 X159.214629 Y64.692431 Z0.000000
G01 X158.967543 Y64.741453 Z0.000000
G01 X158.720458 Y64.790475 Z0.000000
G01 X158.473372 Y64.839497 Z0.000000
G01 X158.226287 Y64.888519 Z0.000000
G01 X157.979201 Y64.937541 Z0.000000
G01 X157.732116 Y64.986563 Z0.000000
G01 X157.485033 Y65.035585 Z0.000000
G01 X157.237945 Y65.084607 Z0.000000
G01 X156.990859 Y65.133629 Z0.000000
G01 X156.743776 Y65.182651 Z0.000000
G01 X156.496691 Y65.231673 Z0.000000
G01 X156.496552 Y65.231673 Z0.000000
G01 X156.496414 Y65.231673 Z0.000000
G01 X156.496279 Y65.231673 Z0.000000
G01 X156.496140 Y65.231673 Z0.000000
G01 X156.496005 Y65.231673 Z0.000000
G01 X156.495867 Y65.231673 Z0.000000
G01 X156.495728 Y65.231673 Z0.000000
G01 X156.495593 Y65.231673 Z0.000000
G01 X156.495455 Y65.231673 Z0.000000
G01 X156.495319 Y65.231673 Z0.000000
G01 X156.495181 Y65.231673 Z0.000000
G01 X156.495045 Y65.231673 Z0.000000
G01 X156.494907 Y65.231673 Z0.000000
G01 X156.494769 Y65.231673 Z0.000000
G01 X156.494633 Y65.231673 Z0.000000
G01 X156.494495 Y65.231673 Z0.000000
G01 X156.494498 Y65.231673 Z0.000000
G01 X156.494503 Y65.231673 Z0.000000
G01 X156.494506 Y65.231673 Z0.000000
G01 X156.494509 Y65.231670 Z0.000000
G01 X156.494515 Y65.231670 Z0.000000
G01 X156.494518 Y65.231670 Z0.000000
G01 X156.494523 Y65.231670 Z0.000000
G01 X156.494526 Y65.231670 Z0.000000
G01 X156.494512 Y65.231670 Z0.000000
G01 X156.494498 Y65.231670 Z0.000000
G01 X156.494484 Y65.231670 Z0.000000
G01 X156.494472 Y65.231670 Z0.000000
G01 X156.494458 Y65.231670 Z0.000000
G01 X156.494447 Y65.231670 Z0.000000
G01 X156.494433 Y65.231670 Z0.000000
G01 X156.495841 Y65.231594 Z0.000000
G00 Z10.000000

(End cutting path id: path3379)


(Start cutting path id: path3707)
(Change tool to Default tool)

G00 Z10.000000
G00 X157.628969 Y43.134898

G01 Z0.000000 F100.0(Penetrate)
G01 X157.819432 Y43.090428 Z0.000000 F400.000000
G01 X158.009893 Y43.045961 Z0.000000
G01 X158.200356 Y43.001491 Z0.000000
G01 X158.390820 Y42.957027 Z0.000000
G01 X158.581283 Y42.912557 Z0.000000
G01 X158.771746 Y42.868091 Z0.000000
G01 X158.962207 Y42.823624 Z0.000000
G01 X159.152670 Y42.779154 Z0.000000
G01 X159.343133 Y42.734687 Z0.000000
G01 X159.533594 Y42.690217 Z0.000000
G01 X159.724057 Y42.645750 Z0.000000
G01 X159.914520 Y42.601280 Z0.000000
G01 X160.104981 Y42.556814 Z0.000000
G01 X160.295444 Y42.512344 Z0.000000
G01 X160.485905 Y42.467877 Z0.000000
G01 X160.676371 Y42.423410 Z0.000000
G01 X160.673549 Y42.294827 Z0.000000
G01 X160.670726 Y42.166243 Z0.000000
G01 X160.667904 Y42.037663 Z0.000000
G01 X160.665082 Y41.909080 Z0.000000
G01 X160.662260 Y41.780496 Z0.000000
G01 X160.659437 Y41.651916 Z0.000000
G01 X160.656615 Y41.523333 Z0.000000
G01 X160.653793 Y41.394752 Z0.000000
G01 X160.650971 Y41.266169 Z0.000000
G01 X160.648149 Y41.137586 Z0.000000
G01 X160.645326 Y41.009005 Z0.000000
G01 X160.642504 Y40.880422 Z0.000000
G01 X160.639682 Y40.751839 Z0.000000
G01 X160.636860 Y40.623258 Z0.000000
G01 X160.634037 Y40.494675 Z0.000000
G01 X160.631215 Y40.366095 Z0.000000
G01 X160.454414 Y40.411634 Z0.000000
G01 X160.277616 Y40.457173 Z0.000000
G01 X160.100815 Y40.502713 Z0.000000
G01 X159.924014 Y40.548255 Z0.000000
G01 X159.747213 Y40.593791 Z0.000000
G01 X159.570412 Y40.639334 Z0.000000
G01 X159.393612 Y40.684870 Z0.000000
G01 X159.216811 Y40.730412 Z0.000000
G01 X159.040012 Y40.775952 Z0.000000
G01 X158.863212 Y40.821488 Z0.000000
G01 X158.686411 Y40.867028 Z0.000000
G01 X158.509610 Y40.912567 Z0.000000
G01 X158.332809 Y40.958109 Z0.000000
G01 X158.156008 Y41.003646 Z0.000000
G01 X157.979207 Y41.049185 Z0.000000
G01 X157.802406 Y41.094725 Z0.000000
G01 X157.791427 Y41.222235 Z0.000000
G01 X157.780449 Y41.349749 Z0.000000
G01 X157.769471 Y41.477257 Z0.000000
G01 X157.758492 Y41.604771 Z0.000000
G01 X157.747514 Y41.732279 Z0.000000
G01 X157.736535 Y41.859790 Z0.000000
G01 X157.725557 Y41.987300 Z0.000000
G01 X157.714578 Y42.114811 Z0.000000
G01 X157.703600 Y42.242322 Z0.000000
G01 X157.692621 Y42.369833 Z0.000000
G01 X157.681643 Y42.497344 Z0.000000
G01 X157.670636 Y42.624855 Z0.000000
G01 X157.659658 Y42.752365 Z0.000000
G01 X157.648679 Y42.879876 Z0.000000
G01 X157.637673 Y43.007387 Z0.000000
G01 X157.628969 Y43.134898 Z0.000000
G00 Z10.000000

(End cutting path id: path3707)


(Start cutting path id: path3709)
(Change tool to Default tool)

G00 Z10.000000
G00 X160.676371 Y42.423410

G01 Z0.000000 F100.0(Penetrate)
G01 X160.882636 Y42.446439 Z0.000000 F400.000000
G01 X161.088903 Y42.469469 Z0.000000
G01 X161.295171 Y42.492526 Z0.000000
G01 X161.501439 Y42.515555 Z0.000000
G01 X161.707704 Y42.538585 Z0.000000
G01 X161.913972 Y42.561614 Z0.000000
G01 X162.120239 Y42.584643 Z0.000000
G01 X162.326507 Y42.607673 Z0.000000
G01 X162.532772 Y42.630730 Z0.000000
G01 X162.739043 Y42.653760 Z0.000000
G01 X162.945308 Y42.676789 Z0.000000
G01 X163.151575 Y42.699818 Z0.000000
G01 X163.357843 Y42.722848 Z0.000000
G01 X163.564111 Y42.745877 Z0.000000
G01 X163.770379 Y42.768935 Z0.000000
G01 X163.976646 Y42.791964 Z0.000000
G01 X163.962027 Y42.663934 Z0.000000
G01 X163.947408 Y42.535898 Z0.000000
G01 X163.932789 Y42.407868 Z0.000000
G01 X163.918170 Y42.279835 Z0.000000
G01 X163.903551 Y42.151802 Z0.000000
G01 X163.888932 Y42.023772 Z0.000000
G01 X163.874313 Y41.895736 Z0.000000
G01 X163.859694 Y41.767706 Z0.000000
G01 X163.845074 Y41.639673 Z0.000000
G01 X163.830455 Y41.511643 Z0.000000
G01 X163.815836 Y41.383607 Z0.000000
G01 X163.801217 Y41.255577 Z0.000000
G01 X163.786598 Y41.127544 Z0.000000
G01 X163.771979 Y40.999514 Z0.000000
G01 X163.757360 Y40.871478 Z0.000000
G01 X163.742741 Y40.743448 Z0.000000
G01 X163.548414 Y40.719855 Z0.000000
G01 X163.354081 Y40.696261 Z0.000000
G01 X163.159751 Y40.672667 Z0.000000
G01 X162.965422 Y40.649073 Z0.000000
G01 X162.771092 Y40.625479 Z0.000000
G01 X162.576765 Y40.601886 Z0.000000
G01 X162.382432 Y40.578292 Z0.000000
G01 X162.188105 Y40.554698 Z0.000000
G01 X161.993776 Y40.531104 Z0.000000
G01 X161.799446 Y40.507511 Z0.000000
G01 X161.605116 Y40.483917 Z0.000000
G01 X161.410786 Y40.460323 Z0.000000
G01 X161.216459 Y40.436729 Z0.000000
G01 X161.022130 Y40.413135 Z0.000000
G01 X160.827800 Y40.389542 Z0.000000
G01 X160.633470 Y40.365948 Z0.000000
G01 X160.636292 Y40.494531 Z0.000000
G01 X160.639115 Y40.623114 Z0.000000
G01 X160.641937 Y40.751695 Z0.000000
G01 X160.644759 Y40.880278 Z0.000000
G01 X160.647581 Y41.008859 Z0.000000
G01 X160.650404 Y41.137442 Z0.000000
G01 X160.653226 Y41.266025 Z0.000000
G01 X160.656048 Y41.394606 Z0.000000
G01 X160.658870 Y41.523189 Z0.000000
G01 X160.661692 Y41.651772 Z0.000000
G01 X160.664515 Y41.780352 Z0.000000
G01 X160.667337 Y41.908936 Z0.000000
G01 X160.670159 Y42.037516 Z0.000000
G01 X160.672981 Y42.166099 Z0.000000
G01 X160.675804 Y42.294683 Z0.000000
G01 X160.676371 Y42.423410 Z0.000000
G00 Z10.000000

(End cutting path id: path3709)


(Start cutting path id: path3357)
(Change tool to Default tool)

G00 Z10.000000
G00 X148.399983 Y92.507094

G01 Z0.000000 F100.0(Penetrate)
G01 X145.226268 Y92.418933 Z0.000000 F400.000000
G01 X142.051203 Y92.326392 Z0.000000
G01 X138.874854 Y92.229680 Z0.000000
G01 X135.697280 Y92.129000 Z0.000000
G01 X132.518540 Y92.024564 Z0.000000
G01 X129.338700 Y91.916572 Z0.000000
G01 X126.157819 Y91.805229 Z0.000000
G01 X122.975958 Y91.690749 Z0.000000
G01 X119.793180 Y91.573333 Z0.000000
G01 X116.609544 Y91.453188 Z0.000000
G01 X113.425117 Y91.330523 Z0.000000
G01 X110.239955 Y91.205541 Z0.000000
G01 X107.054123 Y91.078451 Z0.000000
G01 X103.867682 Y90.949455 Z0.000000
G01 X100.680693 Y90.818764 Z0.000000
G01 X97.493219 Y90.686585 Z0.000000
G01 X97.701662 Y90.136726 Z0.000000
G01 X97.910106 Y89.586872 Z0.000000
G01 X98.118547 Y89.037016 Z0.000000
G01 X98.326993 Y88.487157 Z0.000000
G01 X98.535437 Y87.937303 Z0.000000
G01 X98.743878 Y87.387447 Z0.000000
G01 X98.952324 Y86.837591 Z0.000000
G01 X99.160768 Y86.287734 Z0.000000
G01 X99.369212 Y85.737878 Z0.000000
G01 X99.577655 Y85.188021 Z0.000000
G01 X99.786102 Y84.638165 Z0.000000
G01 X99.994543 Y84.088311 Z0.000000
G01 X100.202986 Y83.538452 Z0.000000
G01 X100.411430 Y82.988596 Z0.000000
G01 X100.619877 Y82.438742 Z0.000000
G01 X100.828320 Y81.888883 Z0.000000
G01 X101.272614 Y81.930655 Z0.000000
G01 X101.696865 Y81.974780 Z0.000000
G01 X102.096971 Y82.021350 Z0.000000
G01 X102.468830 Y82.070456 Z0.000000
G01 X102.808346 Y82.122191 Z0.000000
G01 X103.111416 Y82.176637 Z0.000000
G01 X103.373937 Y82.233888 Z0.000000
G01 X103.591815 Y82.294036 Z0.000000
G01 X103.760942 Y82.357169 Z0.000000
G01 X103.877226 Y82.423375 Z0.000000
G01 X103.936558 Y82.492746 Z0.000000
G01 X103.934865 Y82.565370 Z0.000000
G01 X103.868000 Y82.641341 Z0.000000
G01 X103.731885 Y82.720747 Z0.000000
G01 X103.522422 Y82.803673 Z0.000000
G01 X103.235507 Y82.890219 Z0.000000
G01 X103.173559 Y82.906955 Z0.000000
G01 X103.111611 Y82.923690 Z0.000000
G01 X103.049666 Y82.940426 Z0.000000
G01 X102.987718 Y82.957162 Z0.000000
G01 X102.925771 Y82.973898 Z0.000000
G01 X102.863823 Y82.990634 Z0.000000
G01 X102.801878 Y83.007369 Z0.000000
G01 X102.739930 Y83.024105 Z0.000000
G01 X102.677982 Y83.040841 Z0.000000
G01 X102.616034 Y83.057577 Z0.000000
G01 X102.554090 Y83.074312 Z0.000000
G01 X102.492142 Y83.091048 Z0.000000
G01 X102.430194 Y83.107784 Z0.000000
G01 X102.368246 Y83.124520 Z0.000000
G01 X102.306298 Y83.141256 Z0.000000
G01 X102.244353 Y83.157991 Z0.000000
G01 X101.814196 Y83.307761 Z0.000000
G01 X101.571877 Y83.470191 Z0.000000
G01 X101.506512 Y83.642835 Z0.000000
G01 X101.607220 Y83.823246 Z0.000000
G01 X101.863111 Y84.008970 Z0.000000
G01 X102.263307 Y84.197568 Z0.000000
G01 X102.796928 Y84.386586 Z0.000000
G01 X103.453083 Y84.573581 Z0.000000
G01 X104.220891 Y84.756100 Z0.000000
G01 X105.089472 Y84.931699 Z0.000000
G01 X106.047936 Y85.097928 Z0.000000
G01 X107.085407 Y85.252334 Z0.000000
G01 X108.190999 Y85.392483 Z0.000000
G01 X109.353822 Y85.515913 Z0.000000
G01 X110.563003 Y85.620183 Z0.000000
G01 X111.807654 Y85.702846 Z0.000000
G01 X114.093095 Y85.833464 Z0.000000
G01 X116.378872 Y85.967147 Z0.000000
G01 X118.664948 Y86.103545 Z0.000000
G01 X120.951310 Y86.242327 Z0.000000
G01 X123.237925 Y86.383151 Z0.000000
G01 X125.524763 Y86.525673 Z0.000000
G01 X127.811807 Y86.669555 Z0.000000
G01 X130.099027 Y86.814462 Z0.000000
G01 X132.386395 Y86.960050 Z0.000000
G01 X134.673888 Y87.105973 Z0.000000
G01 X136.961480 Y87.251901 Z0.000000
G01 X139.249148 Y87.397488 Z0.000000
G01 X141.536858 Y87.542395 Z0.000000
G01 X143.824585 Y87.686284 Z0.000000
G01 X146.112310 Y87.828814 Z0.000000
G01 X148.400003 Y87.969646 Z0.000000
G01 X148.400003 Y88.253229 Z0.000000
G01 X148.400003 Y88.536814 Z0.000000
G01 X148.400003 Y88.820396 Z0.000000
G01 X148.400003 Y89.103982 Z0.000000
G01 X148.400003 Y89.387567 Z0.000000
G01 X148.400003 Y89.671150 Z0.000000
G01 X148.400003 Y89.954735 Z0.000000
G01 X148.400003 Y90.238318 Z0.000000
G01 X148.400003 Y90.521900 Z0.000000
G01 X148.400003 Y90.805485 Z0.000000
G01 X148.400003 Y91.089071 Z0.000000
G01 X148.400003 Y91.372653 Z0.000000
G01 X148.400003 Y91.656236 Z0.000000
G01 X148.400003 Y91.939821 Z0.000000
G01 X148.400003 Y92.223407 Z0.000000
G01 X148.399983 Y92.507094 Z0.000000
G00 Z10.000000

(End cutting path id: path3357)


(Start cutting path id: path3387)
(Change tool to Default tool)

G00 Z10.000000
G00 X148.399983 Y92.507249

G01 Z0.000000 F100.0(Penetrate)
G01 X149.947253 Y92.443108 Z0.000000 F400.000000
G01 X151.488968 Y92.374954 Z0.000000
G01 X153.025064 Y92.302364 Z0.000000
G01 X154.555482 Y92.224928 Z0.000000
G01 X156.080159 Y92.142225 Z0.000000
G01 X157.599039 Y92.053842 Z0.000000
G01 X159.112061 Y91.959365 Z0.000000
G01 X160.619159 Y91.858372 Z0.000000
G01 X162.120279 Y91.750453 Z0.000000
G01 X163.615357 Y91.635185 Z0.000000
G01 X165.104336 Y91.512159 Z0.000000
G01 X166.587148 Y91.380951 Z0.000000
G01 X168.063738 Y91.241152 Z0.000000
G01 X169.534048 Y91.092342 Z0.000000
G01 X170.998011 Y90.934105 Z0.000000
G01 X172.455573 Y90.766028 Z0.000000
G01 X173.684354 Y90.604704 Z0.000000
G01 X174.590299 Y90.454096 Z0.000000
G01 X175.205092 Y90.314007 Z0.000000
G01 X175.560412 Y90.184218 Z0.000000
G01 X175.687943 Y90.064525 Z0.000000
G01 X175.619366 Y89.954721 Z0.000000
G01 X175.386366 Y89.854588 Z0.000000
G01 X175.020617 Y89.763925 Z0.000000
G01 X174.553813 Y89.682518 Z0.000000
G01 X174.017628 Y89.610161 Z0.000000
G01 X173.443749 Y89.546642 Z0.000000
G01 X172.863852 Y89.491752 Z0.000000
G01 X172.309627 Y89.445284 Z0.000000
G01 X171.812753 Y89.407026 Z0.000000
G01 X171.404910 Y89.376772 Z0.000000
G01 X171.117780 Y89.354307 Z0.000000
G01 X169.739037 Y89.270360 Z0.000000
G01 X168.360294 Y89.186413 Z0.000000
G01 X166.981551 Y89.102469 Z0.000000
G01 X165.602808 Y89.018522 Z0.000000
G01 X164.224068 Y88.934575 Z0.000000
G01 X162.845322 Y88.850628 Z0.000000
G01 X161.466582 Y88.766681 Z0.000000
G01 X160.087839 Y88.682734 Z0.000000
G01 X158.709096 Y88.598787 Z0.000000
G01 X157.330353 Y88.514840 Z0.000000
G01 X155.951607 Y88.430893 Z0.000000
G01 X154.572866 Y88.346949 Z0.000000
G01 X153.194123 Y88.263002 Z0.000000
G01 X151.815380 Y88.179055 Z0.000000
G01 X150.436637 Y88.095108 Z0.000000
G01 X149.057894 Y88.011161 Z0.000000
G01 X146.729098 Y87.868337 Z0.000000
G01 X144.400257 Y87.723633 Z0.000000
G01 X142.071404 Y87.577411 Z0.000000
G01 X139.742566 Y87.430031 Z0.000000
G01 X137.413772 Y87.281859 Z0.000000
G01 X135.085047 Y87.133255 Z0.000000
G01 X132.756417 Y86.984580 Z0.000000
G01 X130.427914 Y86.836199 Z0.000000
G01 X128.099558 Y86.688470 Z0.000000
G01 X125.771386 Y86.541757 Z0.000000
G01 X123.443419 Y86.396426 Z0.000000
G01 X121.115684 Y86.252832 Z0.000000
G01 X118.788212 Y86.111342 Z0.000000
G01 X116.461027 Y85.972317 Z0.000000
G01 X114.134158 Y85.836117 Z0.000000
G01 X111.807634 Y85.703108 Z0.000000
G01 X110.562983 Y85.620445 Z0.000000
G01 X109.353805 Y85.516175 Z0.000000
G01 X108.190976 Y85.392743 Z0.000000
G01 X107.085387 Y85.252597 Z0.000000
G01 X106.047919 Y85.098187 Z0.000000
G01 X105.089450 Y84.931958 Z0.000000
G01 X104.220871 Y84.756363 Z0.000000
G01 X103.453063 Y84.573844 Z0.000000
G01 X102.796905 Y84.386849 Z0.000000
G01 X102.263288 Y84.197831 Z0.000000
G01 X101.863088 Y84.009233 Z0.000000
G01 X101.607197 Y83.823508 Z0.000000
G01 X101.506492 Y83.643097 Z0.000000
G01 X101.571855 Y83.470451 Z0.000000
G01 X101.814173 Y83.308023 Z0.000000
G01 X102.244331 Y83.158254 Z0.000000
G01 X102.306279 Y83.141518 Z0.000000
G01 X102.368226 Y83.124782 Z0.000000
G01 X102.430174 Y83.108046 Z0.000000
G01 X102.492119 Y83.091311 Z0.000000
G01 X102.554067 Y83.074575 Z0.000000
G01 X102.616015 Y83.057839 Z0.000000
G01 X102.677962 Y83.041103 Z0.000000
G01 X102.739910 Y83.024368 Z0.000000
G01 X102.801855 Y83.007632 Z0.000000
G01 X102.863803 Y82.990896 Z0.000000
G01 X102.925751 Y82.974160 Z0.000000
G01 X102.987699 Y82.957424 Z0.000000
G01 X103.049644 Y82.940689 Z0.000000
G01 X103.111591 Y82.923953 Z0.000000
G01 X103.173539 Y82.907217 Z0.000000
G01 X103.235487 Y82.890481 Z0.000000
G01 X103.673668 Y82.747056 Z0.000000
G01 X103.902065 Y82.613531 Z0.000000
G01 X103.939866 Y82.489508 Z0.000000
G01 X103.806250 Y82.374607 Z0.000000
G01 X103.520404 Y82.268430 Z0.000000
G01 X103.101510 Y82.170583 Z0.000000
G01 X102.568751 Y82.080684 Z0.000000
G01 X101.941309 Y81.998335 Z0.000000
G01 X101.238367 Y81.923148 Z0.000000
G01 X100.479113 Y81.854726 Z0.000000
G01 X99.682724 Y81.792685 Z0.000000
G01 X98.868389 Y81.736633 Z0.000000
G01 X98.055284 Y81.686177 Z0.000000
G01 X97.262601 Y81.640925 Z0.000000
G01 X96.509519 Y81.600489 Z0.000000
G01 X95.815221 Y81.564474 Z0.000000
G01 X93.297153 Y81.434720 Z0.000000
G01 X90.779087 Y81.304965 Z0.000000
G01 X88.261018 Y81.175211 Z0.000000
G01 X85.742950 Y81.045456 Z0.000000
G01 X83.224881 Y80.915705 Z0.000000
G01 X80.706816 Y80.785950 Z0.000000
G01 X78.188744 Y80.656196 Z0.000000
G01 X75.670676 Y80.526441 Z0.000000
G01 X73.152607 Y80.396687 Z0.000000
G01 X70.634541 Y80.266932 Z0.000000
G01 X68.116473 Y80.137178 Z0.000000
G01 X65.598404 Y80.007423 Z0.000000
G01 X63.080336 Y79.877672 Z0.000000
G01 X60.562270 Y79.747917 Z0.000000
G01 X58.044202 Y79.618160 Z0.000000
G01 X55.526130 Y79.488408 Z0.000000
G01 X55.706950 Y79.459946 Z0.000000
G01 X55.887770 Y79.431484 Z0.000000
G01 X56.068587 Y79.403022 Z0.000000
G01 X56.249407 Y79.374563 Z0.000000
G01 X56.430224 Y79.346098 Z0.000000
G01 X56.611041 Y79.317635 Z0.000000
G01 X56.791860 Y79.289173 Z0.000000
G01 X56.972680 Y79.260711 Z0.000000
G01 X57.153497 Y79.232249 Z0.000000
G01 X57.334317 Y79.203787 Z0.000000
G01 X57.515137 Y79.175325 Z0.000000
G01 X57.695954 Y79.146863 Z0.000000
G01 X57.876773 Y79.118401 Z0.000000
G01 X58.057593 Y79.089939 Z0.000000
G01 X58.238410 Y79.061476 Z0.000000
G01 X58.419230 Y79.033014 Z0.000000
G01 X60.912186 Y79.164442 Z0.000000
G01 X63.405140 Y79.295870 Z0.000000
G01 X65.898093 Y79.427299 Z0.000000
G01 X68.391047 Y79.558727 Z0.000000
G01 X70.884003 Y79.690155 Z0.000000
G01 X73.376957 Y79.821586 Z0.000000
G01 X75.869911 Y79.953014 Z0.000000
G01 X78.362867 Y80.084442 Z0.000000
G01 X80.855820 Y80.215873 Z0.000000
G01 X83.348774 Y80.347298 Z0.000000
G01 X85.841730 Y80.478729 Z0.000000
G01 X88.334684 Y80.610154 Z0.000000
G01 X90.827638 Y80.741585 Z0.000000
G01 X93.320594 Y80.873010 Z0.000000
G01 X95.813548 Y81.004441 Z0.000000
G01 X98.306501 Y81.135866 Z0.000000
G01 X99.030861 Y81.179616 Z0.000000
G01 X99.759390 Y81.234023 Z0.000000
G01 X100.485068 Y81.297676 Z0.000000
G01 X101.200868 Y81.369177 Z0.000000
G01 X101.899769 Y81.447118 Z0.000000
G01 X102.574743 Y81.530094 Z0.000000
G01 X103.218771 Y81.616705 Z0.000000
G01 X103.824826 Y81.705543 Z0.000000
G01 X104.385890 Y81.795205 Z0.000000
G01 X104.894931 Y81.884286 Z0.000000
G01 X105.344929 Y81.971379 Z0.000000
G01 X105.728858 Y82.055087 Z0.000000
G01 X106.039700 Y82.133999 Z0.000000
G01 X106.270423 Y82.206713 Z0.000000
G01 X106.414012 Y82.271825 Z0.000000
G01 X106.463432 Y82.327933 Z0.000000
G01 X106.448502 Y82.398706 Z0.000000
G01 X106.405720 Y82.467365 Z0.000000
G01 X106.337998 Y82.534009 Z0.000000
G01 X106.248271 Y82.598754 Z0.000000
G01 X106.139460 Y82.661692 Z0.000000
G01 X106.014501 Y82.722943 Z0.000000
G01 X105.876325 Y82.782602 Z0.000000
G01 X105.727853 Y82.840782 Z0.000000
G01 X105.572027 Y82.897582 Z0.000000
G01 X105.411770 Y82.953112 Z0.000000
G01 X105.250014 Y83.007477 Z0.000000
G01 X105.089687 Y83.060780 Z0.000000
G01 X104.933722 Y83.113132 Z0.000000
G01 X104.785048 Y83.164632 Z0.000000
G01 X104.646592 Y83.215390 Z0.000000
G01 X104.521288 Y83.265512 Z0.000000
G01 X104.194678 Y83.433429 Z0.000000
G01 X104.004082 Y83.598918 Z0.000000
G01 X103.936801 Y83.761013 Z0.000000
G01 X103.980122 Y83.918752 Z0.000000
G01 X104.121346 Y84.071181 Z0.000000
G01 X104.347770 Y84.217335 Z0.000000
G01 X104.646688 Y84.356253 Z0.000000
G01 X105.005396 Y84.486976 Z0.000000
G01 X105.411192 Y84.608540 Z0.000000
G01 X105.851371 Y84.719993 Z0.000000
G01 X106.313227 Y84.820365 Z0.000000
G01 X106.784059 Y84.908698 Z0.000000
G01 X107.251159 Y84.984034 Z0.000000
G01 X107.701829 Y85.045415 Z0.000000
G01 X108.123358 Y85.091874 Z0.000000
G01 X108.503049 Y85.122453 Z0.000000
G01 X111.709568 Y85.324332 Z0.000000
G01 X114.916086 Y85.526214 Z0.000000
G01 X118.122605 Y85.728096 Z0.000000
G01 X121.329123 Y85.929978 Z0.000000
G01 X124.535642 Y86.131857 Z0.000000
G01 X127.742161 Y86.333736 Z0.000000
G01 X130.948679 Y86.535621 Z0.000000
G01 X134.155198 Y86.737500 Z0.000000
G01 X137.361716 Y86.939380 Z0.000000
G01 X140.568235 Y87.141262 Z0.000000
G01 X143.774754 Y87.343141 Z0.000000
G01 X146.981272 Y87.545020 Z0.000000
G01 X150.187791 Y87.746905 Z0.000000
G01 X153.394309 Y87.948784 Z0.000000
G01 X156.600831 Y88.150663 Z0.000000
G01 X159.807349 Y88.352545 Z0.000000
G01 X161.758126 Y88.473201 Z0.000000
G01 X163.612300 Y88.584312 Z0.000000
G01 X165.366692 Y88.686962 Z0.000000
G01 X167.018113 Y88.782243 Z0.000000
G01 X168.563376 Y88.871250 Z0.000000
G01 X169.999294 Y88.955062 Z0.000000
G01 X171.322688 Y89.034775 Z0.000000
G01 X172.530365 Y89.111478 Z0.000000
G01 X173.619141 Y89.186258 Z0.000000
G01 X174.585837 Y89.260195 Z0.000000
G01 X175.427263 Y89.334382 Z0.000000
G01 X176.140232 Y89.409908 Z0.000000
G01 X176.721557 Y89.487860 Z0.000000
G01 X177.168060 Y89.569318 Z0.000000
G01 X177.476552 Y89.655379 Z0.000000
G01 X177.643845 Y89.747124 Z0.000000
G01 X177.646102 Y89.751103 Z0.000000
G01 X177.648360 Y89.755083 Z0.000000
G01 X177.650618 Y89.759062 Z0.000000
G01 X177.652876 Y89.763041 Z0.000000
G01 X177.655134 Y89.767021 Z0.000000
G01 X177.657391 Y89.771000 Z0.000000
G01 X177.659649 Y89.774979 Z0.000000
G01 X177.661907 Y89.778959 Z0.000000
G01 X177.664165 Y89.782938 Z0.000000
G01 X177.666422 Y89.786917 Z0.000000
G01 X177.668680 Y89.790897 Z0.000000
G01 X177.670938 Y89.794876 Z0.000000
G01 X177.673196 Y89.798855 Z0.000000
G01 X177.675454 Y89.802835 Z0.000000
G01 X177.677711 Y89.806814 Z0.000000
G01 X177.679969 Y89.810793 Z0.000000
G01 X177.490149 Y90.098313 Z0.000000
G01 X176.940812 Y90.367934 Z0.000000
G01 X176.062136 Y90.620091 Z0.000000
G01 X174.884298 Y90.855221 Z0.000000
G01 X173.437480 Y91.073757 Z0.000000
G01 X171.751857 Y91.276139 Z0.000000
G01 X169.857610 Y91.462798 Z0.000000
G01 X167.784916 Y91.634175 Z0.000000
G01 X165.563955 Y91.790703 Z0.000000
G01 X163.224900 Y91.932819 Z0.000000
G01 X160.797941 Y92.060957 Z0.000000
G01 X158.313248 Y92.175559 Z0.000000
G01 X155.800999 Y92.277054 Z0.000000
G01 X153.291380 Y92.365881 Z0.000000
G01 X150.814564 Y92.442473 Z0.000000
G01 X148.399983 Y92.507249 Z0.000000
G00 Z10.000000

(End cutting path id: path3387)


(Start cutting path id: path3405)
(Change tool to Default tool)

G00 Z10.000000
G00 X148.399983 Y92.507249

G01 Z0.000000 F100.0(Penetrate)
G01 X145.230800 Y92.424047 Z0.000000 F400.000000
G01 X142.059046 Y92.337331 Z0.000000
G01 X138.884805 Y92.247263 Z0.000000
G01 X135.708157 Y92.154017 Z0.000000
G01 X132.529186 Y92.057759 Z0.000000
G01 X129.347985 Y91.958660 Z0.000000
G01 X126.164629 Y91.856887 Z0.000000
G01 X122.979209 Y91.752612 Z0.000000
G01 X119.791805 Y91.645997 Z0.000000
G01 X116.602505 Y91.537220 Z0.000000
G01 X113.411393 Y91.426448 Z0.000000
G01 X110.218554 Y91.313847 Z0.000000
G01 X107.024072 Y91.199586 Z0.000000
G01 X103.828029 Y91.083833 Z0.000000
G01 X100.630511 Y90.966764 Z0.000000
G01 X97.431604 Y90.848538 Z0.000000
G01 X97.435442 Y90.838407 Z0.000000
G01 X97.439280 Y90.828275 Z0.000000
G01 X97.443118 Y90.818143 Z0.000000
G01 X97.446957 Y90.808011 Z0.000000
G01 X97.450795 Y90.797880 Z0.000000
G01 X97.454633 Y90.787748 Z0.000000
G01 X97.458471 Y90.777616 Z0.000000
G01 X97.462310 Y90.767484 Z0.000000
G01 X97.466148 Y90.757352 Z0.000000
G01 X97.469986 Y90.747221 Z0.000000
G01 X97.473824 Y90.737089 Z0.000000
G01 X97.477662 Y90.726957 Z0.000000
G01 X97.481501 Y90.716825 Z0.000000
G01 X97.485339 Y90.706694 Z0.000000
G01 X97.489177 Y90.696562 Z0.000000
G01 X97.493015 Y90.686430 Z0.000000
G01 X100.680492 Y90.818609 Z0.000000
G01 X103.867481 Y90.949300 Z0.000000
G01 X107.053922 Y91.078296 Z0.000000
G01 X110.239754 Y91.205389 Z0.000000
G01 X113.424914 Y91.330368 Z0.000000
G01 X116.609343 Y91.453033 Z0.000000
G01 X119.792976 Y91.573178 Z0.000000
G01 X122.975757 Y91.690594 Z0.000000
G01 X126.157618 Y91.805074 Z0.000000
G01 X129.338497 Y91.916414 Z0.000000
G01 X132.518340 Y92.024406 Z0.000000
G01 X135.697077 Y92.128845 Z0.000000
G01 X138.874653 Y92.229525 Z0.000000
G01 X142.051002 Y92.326237 Z0.000000
G01 X145.226064 Y92.418778 Z0.000000
G01 X148.399983 Y92.507249 Z0.000000
G00 Z10.000000

(End cutting path id: path3405)


(Start cutting path id: path3719)
(Change tool to Default tool)

G00 Z10.000000
G00 X118.426166 Y106.404594

G01 Z0.000000 F100.0(Penetrate)
G01 X118.445413 Y106.373792 Z0.000000 F400.000000
G01 X118.460371 Y106.341170 Z0.000000
G01 X118.471067 Y106.307001 Z0.000000
G01 X118.477615 Y106.271574 Z0.000000
G01 X118.480155 Y106.235159 Z0.000000
G01 X118.478462 Y106.198038 Z0.000000
G01 X118.473043 Y106.160491 Z0.000000
G01 X118.463814 Y106.122795 Z0.000000
G01 X118.450804 Y106.085231 Z0.000000
G01 X118.434153 Y106.048079 Z0.000000
G01 X118.413917 Y106.011616 Z0.000000
G01 X118.390182 Y105.976124 Z0.000000
G01 X118.363033 Y105.941876 Z0.000000
G01 X118.332553 Y105.909155 Z0.000000
G01 X118.298819 Y105.878241 Z0.000000
G01 X118.261918 Y105.849412 Z0.000000
G01 X118.222878 Y105.823532 Z0.000000
G01 X118.182868 Y105.801349 Z0.000000
G01 X118.142171 Y105.782807 Z0.000000
G01 X118.101085 Y105.767906 Z0.000000
G01 X118.059898 Y105.756645 Z0.000000
G01 X118.018899 Y105.748997 Z0.000000
G01 X117.978381 Y105.744961 Z0.000000
G01 X117.938633 Y105.744397 Z0.000000
G01 X117.899951 Y105.747586 Z0.000000
G01 X117.862619 Y105.754331 Z0.000000
G01 X117.826932 Y105.764660 Z0.000000
G01 X117.793181 Y105.778546 Z0.000000
G01 X117.761654 Y105.795987 Z0.000000
G01 X117.732644 Y105.816956 Z0.000000
G01 X117.706454 Y105.841481 Z0.000000
G01 X117.683368 Y105.869506 Z0.000000
G01 X117.664121 Y105.900308 Z0.000000
G01 X117.649163 Y105.932930 Z0.000000
G01 X117.638467 Y105.967098 Z0.000000
G01 X117.631919 Y106.002526 Z0.000000
G01 X117.629379 Y106.038941 Z0.000000
G01 X117.631072 Y106.076061 Z0.000000
G01 X117.636491 Y106.113608 Z0.000000
G01 X117.645748 Y106.151305 Z0.000000
G01 X117.658758 Y106.188869 Z0.000000
G01 X117.675410 Y106.226017 Z0.000000
G01 X117.695645 Y106.262481 Z0.000000
G01 X117.719380 Y106.297976 Z0.000000
G01 X117.746530 Y106.332220 Z0.000000
G01 X117.777012 Y106.364941 Z0.000000
G01 X117.810746 Y106.395856 Z0.000000
G01 X117.847647 Y106.424685 Z0.000000
G01 X117.886684 Y106.450565 Z0.000000
G01 X117.926695 Y106.472747 Z0.000000
G01 X117.967391 Y106.491289 Z0.000000
G01 X118.008477 Y106.506191 Z0.000000
G01 X118.049664 Y106.517451 Z0.000000
G01 X118.090663 Y106.525100 Z0.000000
G01 X118.131181 Y106.529135 Z0.000000
G01 X118.170930 Y106.529700 Z0.000000
G01 X118.209611 Y106.526511 Z0.000000
G01 X118.246943 Y106.519766 Z0.000000
G01 X118.282630 Y106.509436 Z0.000000
G01 X118.316381 Y106.495551 Z0.000000
G01 X118.347908 Y106.478110 Z0.000000
G01 X118.376918 Y106.457141 Z0.000000
G01 X118.403108 Y106.432615 Z0.000000
G01 X118.426166 Y106.404594 Z0.000000
G00 Z10.000000

(End cutting path id: path3719)


(Start cutting path id: path3721)
(Change tool to Default tool)

G00 Z10.000000
G00 X108.946223 Y95.383827

G01 Z0.000000 F100.0(Penetrate)
G01 X108.965470 Y95.353025 Z0.000000 F400.000000
G01 X108.980428 Y95.320403 Z0.000000
G01 X108.991124 Y95.286237 Z0.000000
G01 X108.997672 Y95.250807 Z0.000000
G01 X109.000212 Y95.214392 Z0.000000
G01 X108.998518 Y95.177271 Z0.000000
G01 X108.993100 Y95.139725 Z0.000000
G01 X108.983871 Y95.102031 Z0.000000
G01 X108.970861 Y95.064467 Z0.000000
G01 X108.954209 Y95.027315 Z0.000000
G01 X108.933974 Y94.990852 Z0.000000
G01 X108.910239 Y94.955357 Z0.000000
G01 X108.883089 Y94.921112 Z0.000000
G01 X108.852607 Y94.888392 Z0.000000
G01 X108.818873 Y94.857477 Z0.000000
G01 X108.781972 Y94.828648 Z0.000000
G01 X108.742935 Y94.802796 Z0.000000
G01 X108.702924 Y94.780614 Z0.000000
G01 X108.662228 Y94.762072 Z0.000000
G01 X108.621142 Y94.747170 Z0.000000
G01 X108.579954 Y94.735910 Z0.000000
G01 X108.538956 Y94.728261 Z0.000000
G01 X108.498437 Y94.724226 Z0.000000
G01 X108.458689 Y94.723661 Z0.000000
G01 X108.420008 Y94.726850 Z0.000000
G01 X108.382676 Y94.733595 Z0.000000
G01 X108.346989 Y94.743925 Z0.000000
G01 X108.313238 Y94.757810 Z0.000000
G01 X108.281711 Y94.775251 Z0.000000
G01 X108.252701 Y94.796249 Z0.000000
G01 X108.226511 Y94.820774 Z0.000000
G01 X108.203425 Y94.848827 Z0.000000
G01 X108.184177 Y94.879629 Z0.000000
G01 X108.169220 Y94.912251 Z0.000000
G01 X108.158523 Y94.946419 Z0.000000
G01 X108.151976 Y94.981847 Z0.000000
G01 X108.149436 Y95.018262 Z0.000000
G01 X108.151129 Y95.055382 Z0.000000
G01 X108.156548 Y95.092929 Z0.000000
G01 X108.165805 Y95.130626 Z0.000000
G01 X108.178815 Y95.168189 Z0.000000
G01 X108.195466 Y95.205338 Z0.000000
G01 X108.215702 Y95.241801 Z0.000000
G01 X108.239436 Y95.277297 Z0.000000
G01 X108.266586 Y95.311541 Z0.000000
G01 X108.297066 Y95.344262 Z0.000000
G01 X108.330800 Y95.375177 Z0.000000
G01 X108.367701 Y95.404006 Z0.000000
G01 X108.406741 Y95.429886 Z0.000000
G01 X108.446751 Y95.452068 Z0.000000
G01 X108.487448 Y95.470610 Z0.000000
G01 X108.528534 Y95.485512 Z0.000000
G01 X108.569721 Y95.496772 Z0.000000
G01 X108.610720 Y95.504421 Z0.000000
G01 X108.651238 Y95.508456 Z0.000000
G01 X108.690986 Y95.509021 Z0.000000
G01 X108.729668 Y95.505832 Z0.000000
G01 X108.767000 Y95.499087 Z0.000000
G01 X108.802687 Y95.488757 Z0.000000
G01 X108.836438 Y95.474872 Z0.000000
G01 X108.867965 Y95.457431 Z0.000000
G01 X108.896975 Y95.436461 Z0.000000
G01 X108.923165 Y95.411936 Z0.000000
G01 X108.946223 Y95.383827 Z0.000000
G00 Z10.000000

(End cutting path id: path3721)


(Start cutting path id: path3343)
(Change tool to Default tool)

G00 Z10.000000
G00 X100.827248 Y81.888883

G01 Z0.000000 F100.0(Penetrate)
G01 X100.762187 Y81.883098 Z0.000000 F400.000000
G01 X100.696841 Y81.877340 Z0.000000
G01 X100.631225 Y81.871639 Z0.000000
G01 X100.565349 Y81.865995 Z0.000000
G01 X100.499227 Y81.860379 Z0.000000
G01 X100.432873 Y81.854819 Z0.000000
G01 X100.366300 Y81.849316 Z0.000000
G01 X100.299521 Y81.843840 Z0.000000
G01 X100.232549 Y81.838422 Z0.000000
G01 X100.165400 Y81.833031 Z0.000000
G01 X100.098082 Y81.827669 Z0.000000
G01 X100.030614 Y81.822363 Z0.000000
G01 X99.963004 Y81.817114 Z0.000000
G01 X99.895274 Y81.811893 Z0.000000
G01 X99.827425 Y81.806728 Z0.000000
G01 X99.759480 Y81.801592 Z0.000000
G01 X99.828348 Y81.806728 Z0.000000
G01 X99.896849 Y81.811893 Z0.000000
G01 X99.965000 Y81.817114 Z0.000000
G01 X100.032818 Y81.822363 Z0.000000
G01 X100.100325 Y81.827669 Z0.000000
G01 X100.167534 Y81.833031 Z0.000000
G01 X100.234463 Y81.838394 Z0.000000
G01 X100.301135 Y81.843812 Z0.000000
G01 X100.367564 Y81.849287 Z0.000000
G01 X100.433765 Y81.854791 Z0.000000
G01 X100.499763 Y81.860350 Z0.000000
G01 X100.565569 Y81.865967 Z0.000000
G01 X100.631202 Y81.871611 Z0.000000
G01 X100.696681 Y81.877312 Z0.000000
G01 X100.762024 Y81.883069 Z0.000000
G01 X100.827248 Y81.888883 Z0.000000
G00 Z10.000000

(End cutting path id: path3343)


(Start cutting path id: path3341)
(Change tool to Default tool)

G00 Z10.000000
G00 X99.630897 Y81.792445

G01 Z0.000000 F100.0(Penetrate)
G01 X99.525636 Y81.784881 Z0.000000 F400.000000
G01 X99.420342 Y81.777403 Z0.000000
G01 X99.315042 Y81.770008 Z0.000000
G01 X99.209762 Y81.762699 Z0.000000
G01 X99.104532 Y81.755474 Z0.000000
G01 X98.999379 Y81.748334 Z0.000000
G01 X98.894330 Y81.741306 Z0.000000
G01 X98.789417 Y81.734364 Z0.000000
G01 X98.684665 Y81.727506 Z0.000000
G01 X98.580099 Y81.720732 Z0.000000
G01 X98.475753 Y81.714072 Z0.000000
G01 X98.371649 Y81.707496 Z0.000000
G01 X98.267823 Y81.701005 Z0.000000
G01 X98.164295 Y81.694627 Z0.000000
G01 X98.061100 Y81.688305 Z0.000000
G01 X97.958259 Y81.682068 Z0.000000
G01 X98.061654 Y81.688305 Z0.000000
G01 X98.165365 Y81.694627 Z0.000000
G01 X98.269358 Y81.701005 Z0.000000
G01 X98.373594 Y81.707468 Z0.000000
G01 X98.478041 Y81.714015 Z0.000000
G01 X98.582664 Y81.720676 Z0.000000
G01 X98.687428 Y81.727421 Z0.000000
G01 X98.792299 Y81.734251 Z0.000000
G01 X98.897243 Y81.741193 Z0.000000
G01 X99.002218 Y81.748221 Z0.000000
G01 X99.107197 Y81.755361 Z0.000000
G01 X99.212147 Y81.762586 Z0.000000
G01 X99.317023 Y81.769895 Z0.000000
G01 X99.421798 Y81.777290 Z0.000000
G01 X99.526432 Y81.784797 Z0.000000
G01 X99.630897 Y81.792445 Z0.000000
G00 Z10.000000

(End cutting path id: path3341)


(Start cutting path id: path3355)
(Change tool to Default tool)

G00 Z10.000000
G00 X93.501812 Y90.517286

G01 Z0.000000 F100.0(Penetrate)
G01 X91.498872 Y90.432774 Z0.000000 F400.000000
G01 X89.495837 Y90.348009 Z0.000000
G01 X87.492719 Y90.263026 Z0.000000
G01 X85.489523 Y90.177866 Z0.000000
G01 X83.486273 Y90.092567 Z0.000000
G01 X81.482972 Y90.007163 Z0.000000
G01 X79.479634 Y89.921695 Z0.000000
G01 X77.476274 Y89.836204 Z0.000000
G01 X75.472906 Y89.750725 Z0.000000
G01 X73.469537 Y89.665296 Z0.000000
G01 X71.466177 Y89.579958 Z0.000000
G01 X69.462845 Y89.494744 Z0.000000
G01 X67.459553 Y89.409693 Z0.000000
G01 X65.456308 Y89.324846 Z0.000000
G01 X63.453129 Y89.240244 Z0.000000
G01 X61.450020 Y89.155919 Z0.000000
G01 X61.235240 Y88.657867 Z0.000000
G01 X61.025160 Y88.157956 Z0.000000
G01 X60.819826 Y87.656041 Z0.000000
G01 X60.619279 Y87.151975 Z0.000000
G01 X60.423561 Y86.645612 Z0.000000
G01 X60.232711 Y86.136805 Z0.000000
G01 X60.046777 Y85.625407 Z0.000000
G01 X59.865797 Y85.111277 Z0.000000
G01 X59.689814 Y84.594263 Z0.000000
G01 X59.518869 Y84.074220 Z0.000000
G01 X59.353007 Y83.551003 Z0.000000
G01 X59.192268 Y83.024466 Z0.000000
G01 X59.036693 Y82.494464 Z0.000000
G01 X58.886327 Y81.960850 Z0.000000
G01 X58.741212 Y81.423473 Z0.000000
G01 X58.601387 Y80.882194 Z0.000000
G01 X58.555413 Y80.902683 Z0.000000
G01 X58.509437 Y80.923172 Z0.000000
G01 X58.463463 Y80.943662 Z0.000000
G01 X58.417489 Y80.964151 Z0.000000
G01 X58.371515 Y80.984640 Z0.000000
G01 X58.325538 Y81.005130 Z0.000000
G01 X58.279564 Y81.025619 Z0.000000
G01 X58.233590 Y81.046108 Z0.000000
G01 X58.187616 Y81.066598 Z0.000000
G01 X58.141639 Y81.087087 Z0.000000
G01 X58.095665 Y81.107576 Z0.000000
G01 X58.049688 Y81.128066 Z0.000000
G01 X58.003714 Y81.148555 Z0.000000
G01 X57.957737 Y81.169044 Z0.000000
G01 X57.911763 Y81.189534 Z0.000000
G01 X57.865789 Y81.210023 Z0.000000
G01 X56.210028 Y81.514569 Z0.000000
G01 X54.554261 Y81.819115 Z0.000000
G01 X52.898498 Y82.123661 Z0.000000
G01 X51.242736 Y82.428204 Z0.000000
G01 X49.586972 Y82.732750 Z0.000000
G01 X47.931206 Y83.037296 Z0.000000
G01 X46.275445 Y83.341842 Z0.000000
G01 X44.619681 Y83.646388 Z0.000000
G01 X42.963917 Y83.950934 Z0.000000
G01 X41.308153 Y84.255480 Z0.000000
G01 X39.652389 Y84.560026 Z0.000000
G01 X37.996625 Y84.864569 Z0.000000
G01 X36.340864 Y85.169115 Z0.000000
G01 X34.685097 Y85.473661 Z0.000000
G01 X33.029333 Y85.778207 Z0.000000
G01 X31.373572 Y86.082753 Z0.000000
G01 X31.409002 Y86.204007 Z0.000000
G01 X31.444613 Y86.324852 Z0.000000
G01 X31.480396 Y86.445310 Z0.000000
G01 X31.516343 Y86.565399 Z0.000000
G01 X31.552447 Y86.685140 Z0.000000
G01 X31.588702 Y86.804559 Z0.000000
G01 X31.625091 Y86.923668 Z0.000000
G01 X31.661614 Y87.042492 Z0.000000
G01 X31.698263 Y87.161051 Z0.000000
G01 X31.735023 Y87.279361 Z0.000000
G01 X31.771892 Y87.397449 Z0.000000
G01 X31.808858 Y87.515333 Z0.000000
G01 X31.845916 Y87.633034 Z0.000000
G01 X31.883054 Y87.750571 Z0.000000
G01 X31.920268 Y87.867967 Z0.000000
G01 X31.957546 Y87.985236 Z0.000000
G01 X30.808371 Y87.943713 Z0.000000
G01 X29.659292 Y87.902539 Z0.000000
G01 X28.510315 Y87.861730 Z0.000000
G01 X27.361448 Y87.821302 Z0.000000
G01 X26.212692 Y87.781271 Z0.000000
G01 X25.064055 Y87.741653 Z0.000000
G01 X23.915538 Y87.702461 Z0.000000
G01 X22.767153 Y87.663717 Z0.000000
G01 X21.618899 Y87.625439 Z0.000000
G01 X20.470784 Y87.587636 Z0.000000
G01 X19.322813 Y87.550326 Z0.000000
G01 X18.174991 Y87.513533 Z0.000000
G01 X17.027322 Y87.477264 Z0.000000
G01 X15.879814 Y87.441538 Z0.000000
G01 X14.732469 Y87.406378 Z0.000000
G01 X13.585295 Y87.371789 Z0.000000
G01 X13.585295 Y87.182935 Z0.000000
G01 X13.585295 Y86.994077 Z0.000000
G01 X13.585295 Y86.805225 Z0.000000
G01 X13.585295 Y86.616368 Z0.000000
G01 X13.585295 Y86.427513 Z0.000000
G01 X13.585295 Y86.238656 Z0.000000
G01 X13.585295 Y86.049804 Z0.000000
G01 X13.585295 Y85.860946 Z0.000000
G01 X13.585295 Y85.672092 Z0.000000
G01 X13.585295 Y85.483237 Z0.000000
G01 X13.585295 Y85.294382 Z0.000000
G01 X13.585295 Y85.105528 Z0.000000
G01 X13.585295 Y84.916673 Z0.000000
G01 X13.585295 Y84.727816 Z0.000000
G01 X13.585295 Y84.538964 Z0.000000
G01 X13.585295 Y84.350106 Z0.000000
G01 X13.896336 Y84.365121 Z0.000000
G01 X14.207378 Y84.380135 Z0.000000
G01 X14.518420 Y84.395149 Z0.000000
G01 X14.829461 Y84.410163 Z0.000000
G01 X15.140503 Y84.425178 Z0.000000
G01 X15.451545 Y84.440192 Z0.000000
G01 X15.762586 Y84.455206 Z0.000000
G01 X16.073628 Y84.470220 Z0.000000
G01 X16.384670 Y84.485234 Z0.000000
G01 X16.695712 Y84.500249 Z0.000000
G01 X17.006753 Y84.515263 Z0.000000
G01 X17.317795 Y84.530277 Z0.000000
G01 X17.628837 Y84.545291 Z0.000000
G01 X17.939878 Y84.560306 Z0.000000
G01 X18.250920 Y84.575320 Z0.000000
G01 X18.561962 Y84.590334 Z0.000000
G01 X20.872222 Y84.125799 Z0.000000
G01 X23.182484 Y83.661261 Z0.000000
G01 X25.492744 Y83.196726 Z0.000000
G01 X27.803002 Y82.732189 Z0.000000
G01 X30.113264 Y82.267651 Z0.000000
G01 X32.423524 Y81.803113 Z0.000000
G01 X34.733783 Y81.338578 Z0.000000
G01 X37.044046 Y80.874040 Z0.000000
G01 X39.354306 Y80.409505 Z0.000000
G01 X41.664566 Y79.944970 Z0.000000
G01 X43.974828 Y79.480433 Z0.000000
G01 X46.285088 Y79.015895 Z0.000000
G01 X48.595348 Y78.551357 Z0.000000
G01 X50.905611 Y78.086822 Z0.000000
G01 X53.215871 Y77.622284 Z0.000000
G01 X55.526130 Y77.157749 Z0.000000
G01 X55.526130 Y77.303410 Z0.000000
G01 X55.526130 Y77.449068 Z0.000000
G01 X55.526130 Y77.594725 Z0.000000
G01 X55.526130 Y77.740386 Z0.000000
G01 X55.526130 Y77.886043 Z0.000000
G01 X55.526130 Y78.031704 Z0.000000
G01 X55.526130 Y78.177365 Z0.000000
G01 X55.526130 Y78.323022 Z0.000000
G01 X55.526130 Y78.468683 Z0.000000
G01 X55.526130 Y78.614341 Z0.000000
G01 X55.526130 Y78.760001 Z0.000000
G01 X55.526130 Y78.905662 Z0.000000
G01 X55.526130 Y79.051319 Z0.000000
G01 X55.526130 Y79.196983 Z0.000000
G01 X55.526130 Y79.342640 Z0.000000
G01 X55.526130 Y79.488301 Z0.000000
G01 X58.044202 Y79.618053 Z0.000000
G01 X60.562267 Y79.747810 Z0.000000
G01 X63.080336 Y79.877564 Z0.000000
G01 X65.598404 Y80.007316 Z0.000000
G01 X68.116473 Y80.137071 Z0.000000
G01 X70.634539 Y80.266825 Z0.000000
G01 X73.152607 Y80.396579 Z0.000000
G01 X75.670676 Y80.526334 Z0.000000
G01 X78.188744 Y80.656086 Z0.000000
G01 X80.706813 Y80.785843 Z0.000000
G01 X83.224881 Y80.915597 Z0.000000
G01 X85.742950 Y81.045349 Z0.000000
G01 X88.261018 Y81.175104 Z0.000000
G01 X90.779084 Y81.304858 Z0.000000
G01 X93.297153 Y81.434613 Z0.000000
G01 X95.815221 Y81.564367 Z0.000000
G01 X95.847346 Y81.566060 Z0.000000
G01 X95.880237 Y81.567754 Z0.000000
G01 X95.913807 Y81.569447 Z0.000000
G01 X95.947967 Y81.571423 Z0.000000
G01 X95.982641 Y81.573398 Z0.000000
G01 X96.017735 Y81.575374 Z0.000000
G01 X96.053165 Y81.577349 Z0.000000
G01 X96.088844 Y81.579325 Z0.000000
G01 X96.124689 Y81.581300 Z0.000000
G01 X96.160610 Y81.583276 Z0.000000
G01 X96.196523 Y81.585252 Z0.000000
G01 X96.232337 Y81.587227 Z0.000000
G01 X96.267976 Y81.589203 Z0.000000
G01 X96.303347 Y81.591178 Z0.000000
G01 X96.338368 Y81.593154 Z0.000000
G01 X96.372946 Y81.595129 Z0.000000
G01 X96.193500 Y82.152854 Z0.000000
G01 X96.014055 Y82.710582 Z0.000000
G01 X95.834610 Y83.268306 Z0.000000
G01 X95.655162 Y83.826031 Z0.000000
G01 X95.475719 Y84.383759 Z0.000000
G01 X95.296271 Y84.941483 Z0.000000
G01 X95.116823 Y85.499208 Z0.000000
G01 X94.937380 Y86.056933 Z0.000000
G01 X94.757932 Y86.614660 Z0.000000
G01 X94.578487 Y87.172385 Z0.000000
G01 X94.399041 Y87.730113 Z0.000000
G01 X94.219596 Y88.287837 Z0.000000
G01 X94.040148 Y88.845565 Z0.000000
G01 X93.860702 Y89.403293 Z0.000000
G01 X93.681257 Y89.961017 Z0.000000
G01 X93.501812 Y90.517286 Z0.000000
G00 Z10.000000

(End cutting path id: path3355)


(Start cutting path id: path3403)
(Change tool to Default tool)

G00 Z10.000000
G00 X93.443414 Y90.698526

G01 Z0.000000 F100.0(Penetrate)
G01 X91.456056 Y90.624045 Z0.000000 F400.000000
G01 X89.468213 Y90.549400 Z0.000000
G01 X87.479909 Y90.474617 Z0.000000
G01 X85.491177 Y90.399726 Z0.000000
G01 X83.502043 Y90.324751 Z0.000000
G01 X81.512529 Y90.249725 Z0.000000
G01 X79.522668 Y90.174674 Z0.000000
G01 X77.532484 Y90.099628 Z0.000000
G01 X75.542008 Y90.024608 Z0.000000
G01 X73.551263 Y89.949652 Z0.000000
G01 X71.560278 Y89.874781 Z0.000000
G01 X69.569082 Y89.800026 Z0.000000
G01 X67.577699 Y89.725413 Z0.000000
G01 X65.586159 Y89.650971 Z0.000000
G01 X63.594486 Y89.576729 Z0.000000
G01 X61.602711 Y89.502711 Z0.000000
G01 X61.593115 Y89.481065 Z0.000000
G01 X61.583520 Y89.459418 Z0.000000
G01 X61.573924 Y89.437772 Z0.000000
G01 X61.564357 Y89.416125 Z0.000000
G01 X61.554789 Y89.394479 Z0.000000
G01 X61.545222 Y89.372832 Z0.000000
G01 X61.535683 Y89.351158 Z0.000000
G01 X61.526144 Y89.329483 Z0.000000
G01 X61.516605 Y89.307808 Z0.000000
G01 X61.507094 Y89.286134 Z0.000000
G01 X61.497583 Y89.264459 Z0.000000
G01 X61.488072 Y89.242784 Z0.000000
G01 X61.478589 Y89.221110 Z0.000000
G01 X61.469107 Y89.199435 Z0.000000
G01 X61.459624 Y89.177732 Z0.000000
G01 X61.450170 Y89.156029 Z0.000000
G01 X63.453278 Y89.240354 Z0.000000
G01 X65.456458 Y89.324959 Z0.000000
G01 X67.459705 Y89.409803 Z0.000000
G01 X69.462998 Y89.494854 Z0.000000
G01 X71.466329 Y89.580065 Z0.000000
G01 X73.469684 Y89.665406 Z0.000000
G01 X75.473055 Y89.750835 Z0.000000
G01 X77.476424 Y89.836315 Z0.000000
G01 X79.479784 Y89.921811 Z0.000000
G01 X81.483119 Y90.007276 Z0.000000
G01 X83.486419 Y90.092677 Z0.000000
G01 X85.489672 Y90.177978 Z0.000000
G01 X87.492866 Y90.263136 Z0.000000
G01 X89.495986 Y90.348122 Z0.000000
G01 X91.499022 Y90.432884 Z0.000000
G01 X93.501961 Y90.517396 Z0.000000
G01 X93.498321 Y90.528713 Z0.000000
G01 X93.494680 Y90.540030 Z0.000000
G01 X93.491039 Y90.551347 Z0.000000
G01 X93.487399 Y90.562664 Z0.000000
G01 X93.483758 Y90.573981 Z0.000000
G01 X93.480117 Y90.585327 Z0.000000
G01 X93.476477 Y90.596644 Z0.000000
G01 X93.472836 Y90.607961 Z0.000000
G01 X93.469195 Y90.619278 Z0.000000
G01 X93.465555 Y90.630595 Z0.000000
G01 X93.461914 Y90.641940 Z0.000000
G01 X93.458273 Y90.653258 Z0.000000
G01 X93.454633 Y90.664575 Z0.000000
G01 X93.450992 Y90.675892 Z0.000000
G01 X93.447351 Y90.687209 Z0.000000
G01 X93.443414 Y90.698526 Z0.000000
G00 Z10.000000

(End cutting path id: path3403)


(Start cutting path id: path3745)
(Change tool to Default tool)

G00 Z10.000000
G00 X63.971839 Y99.854650

G01 Z0.000000 F100.0(Penetrate)
G01 X64.002912 Y99.645535 Z0.000000 F400.000000
G01 X64.033987 Y99.436422 Z0.000000
G01 X64.065060 Y99.227310 Z0.000000
G01 X64.096133 Y99.018194 Z0.000000
G01 X64.127211 Y98.809085 Z0.000000
G01 X64.158284 Y98.599969 Z0.000000
G01 X64.189356 Y98.390857 Z0.000000
G01 X64.220432 Y98.181741 Z0.000000
G01 X64.251505 Y97.972629 Z0.000000
G01 X64.282577 Y97.763516 Z0.000000
G01 X64.313653 Y97.554401 Z0.000000
G01 X64.344725 Y97.345288 Z0.000000
G01 X64.375801 Y97.136173 Z0.000000
G01 X64.406876 Y96.927060 Z0.000000
G01 X64.437949 Y96.717948 Z0.000000
G01 X64.469024 Y96.508833 Z0.000000
G01 X63.994073 Y95.658520 Z0.000000
G01 X63.522866 Y94.801823 Z0.000000
G01 X63.056389 Y93.937091 Z0.000000
G01 X62.595608 Y93.062659 Z0.000000
G01 X62.141501 Y92.176879 Z0.000000
G01 X61.695042 Y91.278089 Z0.000000
G01 X61.257211 Y90.364635 Z0.000000
G01 X60.828979 Y89.434856 Z0.000000
G01 X60.411324 Y88.487100 Z0.000000
G01 X60.005220 Y87.519708 Z0.000000
G01 X59.611641 Y86.531024 Z0.000000
G01 X59.231564 Y85.519390 Z0.000000
G01 X58.865965 Y84.483152 Z0.000000
G01 X58.515823 Y83.420650 Z0.000000
G01 X58.182104 Y82.330228 Z0.000000
G01 X57.865789 Y81.210232 Z0.000000
G01 X57.911763 Y81.189742 Z0.000000
G01 X57.957737 Y81.169253 Z0.000000
G01 X58.003714 Y81.148764 Z0.000000
G01 X58.049688 Y81.128274 Z0.000000
G01 X58.095665 Y81.107785 Z0.000000
G01 X58.141639 Y81.087296 Z0.000000
G01 X58.187616 Y81.066806 Z0.000000
G01 X58.233590 Y81.046317 Z0.000000
G01 X58.279564 Y81.025828 Z0.000000
G01 X58.325538 Y81.005338 Z0.000000
G01 X58.371515 Y80.984849 Z0.000000
G01 X58.417489 Y80.964360 Z0.000000
G01 X58.463463 Y80.943870 Z0.000000
G01 X58.509437 Y80.923381 Z0.000000
G01 X58.555413 Y80.902892 Z0.000000
G01 X58.601387 Y80.882402 Z0.000000
G01 X58.874883 Y81.919823 Z0.000000
G01 X59.167675 Y82.943356 Z0.000000
G01 X59.479508 Y83.954022 Z0.000000
G01 X59.810117 Y84.952843 Z0.000000
G01 X60.159246 Y85.940844 Z0.000000
G01 X60.526634 Y86.919048 Z0.000000
G01 X60.912025 Y87.888476 Z0.000000
G01 X61.315160 Y88.850154 Z0.000000
G01 X61.735776 Y89.805101 Z0.000000
G01 X62.173612 Y90.754347 Z0.000000
G01 X62.628416 Y91.698908 Z0.000000
G01 X63.099928 Y92.639809 Z0.000000
G01 X63.587882 Y93.578073 Z0.000000
G01 X64.092021 Y94.514721 Z0.000000
G01 X64.612091 Y95.450781 Z0.000000
G01 X65.147831 Y96.387271 Z0.000000
G01 X65.119778 Y96.593369 Z0.000000
G01 X65.091725 Y96.799471 Z0.000000
G01 X65.063672 Y97.005572 Z0.000000
G01 X65.035619 Y97.211670 Z0.000000
G01 X65.007567 Y97.417772 Z0.000000
G01 X64.979514 Y97.623870 Z0.000000
G01 X64.951461 Y97.829974 Z0.000000
G01 X64.923408 Y98.036072 Z0.000000
G01 X64.895355 Y98.242171 Z0.000000
G01 X64.867302 Y98.448269 Z0.000000
G01 X64.839249 Y98.654373 Z0.000000
G01 X64.811196 Y98.860472 Z0.000000
G01 X64.783143 Y99.066570 Z0.000000
G01 X64.755091 Y99.272669 Z0.000000
G01 X64.727038 Y99.478770 Z0.000000
G01 X64.698985 Y99.684871 Z0.000000
G01 X64.653547 Y99.695483 Z0.000000
G01 X64.608106 Y99.706094 Z0.000000
G01 X64.562669 Y99.716706 Z0.000000
G01 X64.517228 Y99.727317 Z0.000000
G01 X64.471790 Y99.737929 Z0.000000
G01 X64.426350 Y99.748540 Z0.000000
G01 X64.380909 Y99.759152 Z0.000000
G01 X64.335471 Y99.769764 Z0.000000
G01 X64.290031 Y99.780375 Z0.000000
G01 X64.244593 Y99.790987 Z0.000000
G01 X64.199152 Y99.801598 Z0.000000
G01 X64.153715 Y99.812210 Z0.000000
G01 X64.108277 Y99.822821 Z0.000000
G01 X64.062839 Y99.833433 Z0.000000
G01 X64.017398 Y99.844044 Z0.000000
G01 X63.971839 Y99.854650 Z0.000000
G00 Z10.000000

(End cutting path id: path3745)


(Start cutting path id: path3447)
(Change tool to Default tool)

G00 Z10.000000
G00 X60.988194 Y89.780770

G01 Z0.000000 F100.0(Penetrate)
G01 X60.981675 Y89.766518 Z0.000000 F400.000000
G01 X60.975127 Y89.752322 Z0.000000
G01 X60.968580 Y89.738127 Z0.000000
G01 X60.962004 Y89.723931 Z0.000000
G01 X60.955428 Y89.709763 Z0.000000
G01 X60.948853 Y89.695624 Z0.000000
G01 X60.942277 Y89.681456 Z0.000000
G01 X60.935701 Y89.667289 Z0.000000
G01 X60.929125 Y89.653121 Z0.000000
G01 X60.922549 Y89.638982 Z0.000000
G01 X60.915974 Y89.624786 Z0.000000
G01 X60.909426 Y89.610590 Z0.000000
G01 X60.902879 Y89.596366 Z0.000000
G01 X60.896359 Y89.582142 Z0.000000
G01 X60.889840 Y89.567890 Z0.000000
G01 X60.883349 Y89.553610 Z0.000000
G01 X60.883383 Y89.553610 Z0.000000
G01 X60.883417 Y89.553610 Z0.000000
G01 X60.883450 Y89.553610 Z0.000000
G01 X60.883487 Y89.553610 Z0.000000
G01 X60.883518 Y89.553610 Z0.000000
G01 X60.883555 Y89.553610 Z0.000000
G01 X60.883589 Y89.553610 Z0.000000
G01 X60.883623 Y89.553610 Z0.000000
G01 X60.883656 Y89.553610 Z0.000000
G01 X60.883690 Y89.553610 Z0.000000
G01 X60.883727 Y89.553610 Z0.000000
G01 X60.883761 Y89.553610 Z0.000000
G01 X60.883792 Y89.553610 Z0.000000
G01 X60.883829 Y89.553610 Z0.000000
G01 X60.883862 Y89.553610 Z0.000000
G01 X60.883896 Y89.553610 Z0.000000
G01 X60.890387 Y89.567890 Z0.000000
G01 X60.896879 Y89.582142 Z0.000000
G01 X60.903370 Y89.596366 Z0.000000
G01 X60.909889 Y89.610562 Z0.000000
G01 X60.916408 Y89.624786 Z0.000000
G01 X60.922928 Y89.638982 Z0.000000
G01 X60.929447 Y89.653178 Z0.000000
G01 X60.935995 Y89.667345 Z0.000000
G01 X60.942542 Y89.681513 Z0.000000
G01 X60.949090 Y89.695680 Z0.000000
G01 X60.955637 Y89.709848 Z0.000000
G01 X60.962185 Y89.724044 Z0.000000
G01 X60.968732 Y89.738240 Z0.000000
G01 X60.975252 Y89.752435 Z0.000000
G01 X60.981771 Y89.766631 Z0.000000
G01 X60.988290 Y89.780827 Z0.000000
G01 X60.988290 Y89.780827 Z0.000000
G01 X60.988287 Y89.780827 Z0.000000
G01 X60.988287 Y89.780827 Z0.000000
