%
(Header)
(Generated by gcodetools from Inkscape.)
(Using default header. To add your own header create file "header" in the output dir.)
M3
(Header end.)
G21 (All units in mm)

(Start cutting path id: path13315-6)
(Change tool to Cylindrical cutter)

G00 Z-20.000000
G00 X35.264330 Y21.565442

G01 Z20.000000 F100.0(Penetrate)
G01 X35.236082 Y21.087262 Z20.000000 F400.000000
G01 X35.151331 Y20.611839 Z20.000000
G01 X35.010085 Y20.139173 Z20.000000
G01 X34.812334 Y19.669262 Z20.000000
G01 X34.569112 Y19.218643 Z20.000000
G01 X34.280413 Y18.803853 Z20.000000
G01 X33.946237 Y18.424893 Z20.000000
G01 X33.566588 Y18.081762 Z20.000000
G01 X33.107012 Y17.748277 Z20.000000
G01 X32.610230 Y17.453377 Z20.000000
G01 X32.076241 Y17.197060 Z20.000000
G01 X31.505043 Y16.979331 Z20.000000
G01 X30.890439 Y16.805700 Z20.000000
G01 X30.215200 Y16.681674 Z20.000000
G01 X29.479328 Y16.607261 Z20.000000
G01 X28.682820 Y16.582454 Z20.000000
G01 X27.817414 Y16.603112 Z20.000000
G01 X26.996103 Y16.665125 Z20.000000
G01 X26.218890 Y16.768477 Z20.000000
G01 X25.485773 Y16.913173 Z20.000000
G01 X24.776773 Y17.098519 Z20.000000
G01 X24.060882 Y17.323826 Z20.000000
G01 X23.338101 Y17.589101 Z20.000000
G01 X22.608430 Y17.894335 Z20.000000
G01 X22.608430 Y18.577841 Z20.000000
G01 X22.608430 Y19.261349 Z20.000000
G01 X22.608430 Y19.944855 Z20.000000
G01 X22.608430 Y20.628363 Z20.000000
G01 X22.647015 Y20.628363 Z20.000000
G01 X22.685599 Y20.628363 Z20.000000
G01 X22.724185 Y20.628363 Z20.000000
G01 X22.762770 Y20.628363 Z20.000000
G01 X23.409759 Y20.139848 Z20.000000
G01 X24.104979 Y19.710588 Z20.000000
G01 X24.848431 Y19.340586 Z20.000000
G01 X25.640114 Y19.029839 Z20.000000
G01 X26.443510 Y18.783860 Z20.000000
G01 X27.222102 Y18.608160 Z20.000000
G01 X27.975888 Y18.502739 Z20.000000
G01 X28.704870 Y18.467599 Z20.000000
G01 X29.662606 Y18.515142 Z20.000000
G01 X30.507345 Y18.657769 Z20.000000
G01 X31.239082 Y18.895479 Z20.000000
G01 X31.857820 Y19.228276 Z20.000000
G01 X32.354605 Y19.640309 Z20.000000
G01 X32.709449 Y20.115732 Z20.000000
G01 X32.922354 Y20.654545 Z20.000000
G01 X32.993325 Y21.256748 Z20.000000
G01 X32.959562 Y21.766622 Z20.000000
G01 X32.858276 Y22.204840 Z20.000000
G01 X32.689467 Y22.571398 Z20.000000
G01 X32.453134 Y22.866298 Z20.000000
G01 X32.153411 Y23.110900 Z20.000000
G01 X31.783407 Y23.326560 Z20.000000
G01 X31.343123 Y23.513287 Z20.000000
G01 X30.832561 Y23.671071 Z20.000000
G01 X30.410193 Y23.776490 Z20.000000
G01 X29.969909 Y23.872265 Z20.000000
G01 X29.511710 Y23.958391 Z20.000000
G01 X29.035598 Y24.034873 Z20.000000
G01 X28.548463 Y24.111352 Z20.000000
G01 X28.046168 Y24.197481 Z20.000000
G01 X27.528715 Y24.293256 Z20.000000
G01 X26.996103 Y24.398674 Z20.000000
G01 X25.974977 Y24.670838 Z20.000000
G01 X25.094410 Y25.024304 Z20.000000
G01 X24.354404 Y25.459076 Z20.000000
G01 X23.754957 Y25.975151 Z20.000000
G01 X23.296760 Y26.579419 Z20.000000
G01 X22.969476 Y27.267751 Z20.000000
G01 X22.773105 Y28.040140 Z20.000000
G01 X22.707648 Y28.896591 Z20.000000
G01 X22.816513 Y29.880511 Z20.000000
G01 X23.143109 Y30.770724 Z20.000000
G01 X23.687434 Y31.567229 Z20.000000
G01 X24.449489 Y32.270030 Z20.000000
G01 X25.378975 Y32.848806 Z20.000000
G01 X26.425595 Y33.262216 Z20.000000
G01 X27.589349 Y33.510264 Z20.000000
G01 X28.870233 Y33.592947 Z20.000000
G01 X29.717726 Y33.572288 Z20.000000
G01 X30.529392 Y33.510275 Z20.000000
G01 X31.305226 Y33.406923 Z20.000000
G01 X32.045233 Y33.262227 Z20.000000
G01 X32.746657 Y33.087216 Z20.000000
G01 X33.406735 Y32.892914 Z20.000000
G01 X34.025476 Y32.679317 Z20.000000
G01 X34.602872 Y32.446430 Z20.000000
G01 X34.602872 Y31.801507 Z20.000000
G01 X34.602872 Y31.156584 Z20.000000
G01 X34.602872 Y30.511664 Z20.000000
G01 X34.602872 Y29.866741 Z20.000000
G01 X34.564289 Y29.866741 Z20.000000
G01 X34.525704 Y29.866741 Z20.000000
G01 X34.487118 Y29.866741 Z20.000000
G01 X34.448533 Y29.866741 Z20.000000
G01 X33.942793 Y30.246389 Z20.000000
G01 X33.362638 Y30.591589 Z20.000000
G01 X32.708071 Y30.902336 Z20.000000
G01 X31.979088 Y31.178634 Z20.000000
G01 X31.213589 Y31.410144 Z20.000000
G01 X30.438443 Y31.575509 Z20.000000
G01 X29.653648 Y31.674727 Z20.000000
G01 X28.859209 Y31.707801 Z20.000000
G01 X28.025498 Y31.662326 Z20.000000
G01 X27.277223 Y31.525900 Z20.000000
G01 X26.614387 Y31.298525 Z20.000000
G01 X26.036989 Y30.980198 Z20.000000
G01 X25.573968 Y30.590212 Z20.000000
G01 X25.243239 Y30.147863 Z20.000000
G01 X25.044801 Y29.653147 Z20.000000
G01 X24.978655 Y29.106065 Z20.000000
G01 X25.011728 Y28.620995 Z20.000000
G01 X25.110947 Y28.191047 Z20.000000
G01 X25.276311 Y27.816222 Z20.000000
G01 X25.507822 Y27.496517 Z20.000000
G01 X25.822704 Y27.221599 Z20.000000
G01 X26.238183 Y26.981129 Z20.000000
G01 X26.754258 Y26.775112 Z20.000000
G01 X27.370930 Y26.603547 Z20.000000
G01 X27.760914 Y26.522244 Z20.000000
G01 X28.225313 Y26.432670 Z20.000000
G01 X28.764126 Y26.334832 Z20.000000
G01 X29.377352 Y26.228722 Z20.000000
G01 X30.002983 Y26.117789 Z20.000000
G01 X30.579001 Y26.005478 Z20.000000
G01 X31.105413 Y25.891791 Z20.000000
G01 X31.582213 Y25.776726 Z20.000000
G01 X32.440731 Y25.503185 Z20.000000
G01 X33.186249 Y25.167631 Z20.000000
G01 X33.818768 Y24.770067 Z20.000000
G01 X34.338288 Y24.310491 Z20.000000
G01 X34.743433 Y23.770989 Z20.000000
G01 X35.032820 Y23.133647 Z20.000000
G01 X35.206455 Y22.398464 Z20.000000
G01 X35.264330 Y21.565442 Z20.000000
G00 Z-20.000000

(End cutting path id: path13315-6)


(Start cutting path id: path13315)
(Change tool to Cylindrical cutter)

G00 Z-20.000000
G00 X18.971256 Y21.215490

G01 Z20.000000 F100.0(Penetrate)
G01 X18.943006 Y20.737309 Z20.000000 F400.000000
G01 X18.858257 Y20.261886 Z20.000000
G01 X18.717008 Y19.789220 Z20.000000
G01 X18.519259 Y19.319309 Z20.000000
G01 X18.276036 Y18.868691 Z20.000000
G01 X17.987337 Y18.453900 Z20.000000
G01 X17.653162 Y18.074941 Z20.000000
G01 X17.273513 Y17.731809 Z20.000000
G01 X16.813937 Y17.398324 Z20.000000
G01 X16.317154 Y17.103424 Z20.000000
G01 X15.783165 Y16.847107 Z20.000000
G01 X15.211968 Y16.629379 Z20.000000
G01 X14.597363 Y16.455747 Z20.000000
G01 X13.922124 Y16.331722 Z20.000000
G01 X13.186252 Y16.257308 Z20.000000
G01 X12.389746 Y16.232501 Z20.000000
G01 X11.524338 Y16.253159 Z20.000000
G01 X10.703027 Y16.315172 Z20.000000
G01 X9.925813 Y16.418525 Z20.000000
G01 X9.192697 Y16.563220 Z20.000000
G01 X8.483696 Y16.748567 Z20.000000
G01 X7.767805 Y16.973873 Z20.000000
G01 X7.045024 Y17.239148 Z20.000000
G01 X6.315353 Y17.544383 Z20.000000
G01 X6.315353 Y18.227888 Z20.000000
G01 X6.315353 Y18.911396 Z20.000000
G01 X6.315353 Y19.594902 Z20.000000
G01 X6.315353 Y20.278410 Z20.000000
G01 X6.353938 Y20.278410 Z20.000000
G01 X6.392523 Y20.278410 Z20.000000
G01 X6.431108 Y20.278410 Z20.000000
G01 X6.469693 Y20.278410 Z20.000000
G01 X7.116682 Y19.789895 Z20.000000
G01 X7.811903 Y19.360635 Z20.000000
G01 X8.555354 Y18.990633 Z20.000000
G01 X9.347037 Y18.679887 Z20.000000
G01 X10.150434 Y18.433908 Z20.000000
G01 X10.929025 Y18.258207 Z20.000000
G01 X11.682812 Y18.152786 Z20.000000
G01 X12.411794 Y18.117646 Z20.000000
G01 X13.369531 Y18.165190 Z20.000000
G01 X14.214268 Y18.307816 Z20.000000
G01 X14.946006 Y18.545526 Z20.000000
G01 X15.564746 Y18.878323 Z20.000000
G01 X16.061528 Y19.290356 Z20.000000
G01 X16.416373 Y19.765779 Z20.000000
G01 X16.629280 Y20.304592 Z20.000000
G01 X16.700249 Y20.906795 Z20.000000
G01 X16.666487 Y21.416669 Z20.000000
G01 X16.565201 Y21.854887 Z20.000000
G01 X16.396392 Y22.221445 Z20.000000
G01 X16.160058 Y22.516345 Z20.000000
G01 X15.860335 Y22.760947 Z20.000000
G01 X15.490331 Y22.976607 Z20.000000
G01 X15.050048 Y23.163334 Z20.000000
G01 X14.539485 Y23.321119 Z20.000000
G01 X14.117116 Y23.426537 Z20.000000
G01 X13.676833 Y23.522312 Z20.000000
G01 X13.218636 Y23.608438 Z20.000000
G01 X12.742523 Y23.684920 Z20.000000
G01 X12.255387 Y23.761399 Z20.000000
G01 X11.753092 Y23.847528 Z20.000000
G01 X11.235638 Y23.943303 Z20.000000
G01 X10.703027 Y24.048721 Z20.000000
G01 X9.681900 Y24.320885 Z20.000000
G01 X8.801334 Y24.674352 Z20.000000
G01 X8.061327 Y25.109124 Z20.000000
G01 X7.461881 Y25.625198 Z20.000000
G01 X7.003683 Y26.229467 Z20.000000
G01 X6.676399 Y26.917798 Z20.000000
G01 X6.480029 Y27.690187 Z20.000000
G01 X6.414572 Y28.546638 Z20.000000
G01 X6.523437 Y29.530558 Z20.000000
G01 X6.850032 Y30.420772 Z20.000000
G01 X7.394357 Y31.217276 Z20.000000
G01 X8.156412 Y31.920077 Z20.000000
G01 X9.085899 Y32.498853 Z20.000000
G01 X10.132519 Y32.912263 Z20.000000
G01 X11.296272 Y33.160311 Z20.000000
G01 X12.577159 Y33.242994 Z20.000000
G01 X13.424652 Y33.222335 Z20.000000
G01 X14.236317 Y33.160322 Z20.000000
G01 X15.012152 Y33.056970 Z20.000000
G01 X15.752159 Y32.912274 Z20.000000
G01 X16.453580 Y32.737263 Z20.000000
G01 X17.113660 Y32.542961 Z20.000000
G01 X17.732400 Y32.329364 Z20.000000
G01 X18.309798 Y32.096477 Z20.000000
G01 X18.309798 Y31.451554 Z20.000000
G01 X18.309798 Y30.806631 Z20.000000
G01 X18.309798 Y30.161711 Z20.000000
G01 X18.309798 Y29.516788 Z20.000000
G01 X18.271212 Y29.516788 Z20.000000
G01 X18.232627 Y29.516788 Z20.000000
G01 X18.194042 Y29.516788 Z20.000000
G01 X18.155457 Y29.516788 Z20.000000
G01 X17.649717 Y29.896437 Z20.000000
G01 X17.069563 Y30.241637 Z20.000000
G01 X16.414995 Y30.552383 Z20.000000
G01 X15.686013 Y30.828681 Z20.000000
G01 X14.920513 Y31.060191 Z20.000000
G01 X14.145366 Y31.225556 Z20.000000
G01 X13.360573 Y31.324774 Z20.000000
G01 X12.566134 Y31.357848 Z20.000000
G01 X11.732421 Y31.312374 Z20.000000
G01 X10.984147 Y31.175947 Z20.000000
G01 X10.321310 Y30.948572 Z20.000000
G01 X9.743912 Y30.630245 Z20.000000
G01 X9.280891 Y30.240259 Z20.000000
G01 X8.950162 Y29.797910 Z20.000000
G01 X8.751725 Y29.303194 Z20.000000
G01 X8.685579 Y28.756112 Z20.000000
G01 X8.718652 Y28.271043 Z20.000000
G01 X8.817871 Y27.841094 Z20.000000
G01 X8.983235 Y27.466269 Z20.000000
G01 X9.214746 Y27.146565 Z20.000000
G01 X9.529628 Y26.871646 Z20.000000
G01 X9.945106 Y26.631176 Z20.000000
G01 X10.461181 Y26.425160 Z20.000000
G01 X11.077853 Y26.253594 Z20.000000
G01 X11.467838 Y26.172291 Z20.000000
G01 X11.932237 Y26.082717 Z20.000000
G01 X12.471050 Y25.984879 Z20.000000
G01 X13.084277 Y25.878769 Z20.000000
G01 X13.709906 Y25.767836 Z20.000000
G01 X14.285926 Y25.655525 Z20.000000
G01 X14.812337 Y25.541838 Z20.000000
G01 X15.289138 Y25.426773 Z20.000000
G01 X16.147656 Y25.153232 Z20.000000
G01 X16.893174 Y24.817678 Z20.000000
G01 X17.525694 Y24.420115 Z20.000000
G01 X18.045214 Y23.960538 Z20.000000
G01 X18.450357 Y23.421037 Z20.000000
G01 X18.739745 Y22.783694 Z20.000000
G01 X18.913378 Y22.048511 Z20.000000
G01 X18.971256 Y21.215490 Z20.000000
G00 Z-20.000000

(End cutting path id: path13315)


(Footer)
M5
G00 X0.0000 Y0.0000
M2
(Using default footer. To add your own footer create file "footer" in the output dir.)
(end)
%