%
(Header)
(Generated by gcodetools from Inkscape.)
(Using default header. To add your own header create file "header" in the output dir.)
M3
(Header end.)
G21 (All units in mm)

(Start cutting path id: path37092)
(Change tool to Cylindrical cutter)

#G00 Z-20.000000
G00 X4.206086 Y16.499391

G01 Z20.000000 F100.0(Penetrate)
G01 X4.328997 Y15.368036 Z20.000000 F400.000000
G01 X4.697728 Y14.343132 Z20.000000
G01 X5.312280 Y13.424696 Z20.000000
G01 X6.172652 Y12.612715 Z20.000000
G01 X7.238198 Y11.948815 Z20.000000
G01 X8.483755 Y11.474597 Z20.000000
G01 X9.909322 Y11.190061 Z20.000000
G01 X11.514899 Y11.095206 Z20.000000
G01 X12.455598 Y11.123428 Z20.000000
G01 X13.357586 Y11.207615 Z20.000000
G01 X14.220862 Y11.347964 Z20.000000
G01 X15.045426 Y11.544419 Z20.000000
G01 X15.810955 Y11.781514 Z20.000000
G01 X16.512609 Y12.028317 Z20.000000
G01 X17.150388 Y12.284772 Z20.000000
G01 X17.724292 Y12.550908 Z20.000000
G01 X17.724292 Y13.367744 Z20.000000
G01 X17.724292 Y14.184551 Z20.000000
G01 X17.724292 Y15.001379 Z20.000000
G01 X17.724292 Y15.818203 Z20.000000
G01 X17.685580 Y15.818203 Z20.000000
G01 X17.646868 Y15.818203 Z20.000000
G01 X17.608156 Y15.818203 Z20.000000
G01 X17.569445 Y15.818203 Z20.000000
G01 X16.861016 Y15.325593 Z20.000000
G01 X16.113876 Y14.885244 Z20.000000
G01 X15.328024 Y14.497141 Z20.000000
G01 X14.503460 Y14.161324 Z20.000000
G01 X13.668250 Y13.897108 Z20.000000
G01 X12.850460 Y13.708414 Z20.000000
G01 X12.050091 Y13.595158 Z20.000000
G01 X11.267142 Y13.557425 Z20.000000
G01 X10.359348 Y13.596146 Z20.000000
G01 X9.556075 Y13.712281 Z20.000000
G01 X8.857325 Y13.905829 Z20.000000
G01 X8.263097 Y14.176818 Z20.000000
G01 X7.788876 Y14.531035 Z20.000000
G01 X7.450146 Y14.974285 Z20.000000
G01 X7.246908 Y15.506573 Z20.000000
G01 X7.179162 Y16.127900 Z20.000000
G01 X7.215939 Y16.607929 Z20.000000
G01 X7.326268 Y17.026015 Z20.000000
G01 X7.510150 Y17.382166 Z20.000000
G01 X7.767584 Y17.676377 Z20.000000
G01 X8.129540 Y17.929939 Z20.000000
G01 X8.626989 Y18.164147 Z20.000000
G01 X9.259929 Y18.378997 Z20.000000
G01 X10.028361 Y18.574492 Z20.000000
G01 X10.362251 Y18.647077 Z20.000000
G01 X10.744531 Y18.725470 Z20.000000
G01 X11.175202 Y18.809668 Z20.000000
G01 X11.654262 Y18.899675 Z20.000000
G01 X12.139129 Y18.994518 Z20.000000
G01 X12.602704 Y19.093234 Z20.000000
G01 X13.044988 Y19.195819 Z20.000000
G01 X13.465980 Y19.302276 Z20.000000
G01 X14.521848 Y19.639071 Z20.000000
G01 X15.413190 Y20.045548 Z20.000000
G01 X16.140006 Y20.521704 Z20.000000
G01 X16.702297 Y21.067542 Z20.000000
G01 X17.115547 Y21.688868 Z20.000000
G01 X17.410726 Y22.376003 Z20.000000
G01 X17.587832 Y23.128952 Z20.000000
G01 X17.646868 Y23.947710 Z20.000000
G01 X17.619769 Y24.474193 Z20.000000
G01 X17.538474 Y24.985190 Z20.000000
G01 X17.402983 Y25.480702 Z20.000000
G01 X17.213294 Y25.960728 Z20.000000
G01 X16.960699 Y26.420434 Z20.000000
G01 X16.651971 Y26.854974 Z20.000000
G01 X16.287111 Y27.264355 Z20.000000
G01 X15.866119 Y27.648569 Z20.000000
G01 X15.403511 Y27.993106 Z20.000000
G01 X14.882836 Y28.298931 Z20.000000
G01 X14.304093 Y28.566043 Z20.000000
G01 X13.667281 Y28.794442 Z20.000000
G01 X12.974338 Y28.984129 Z20.000000
G01 X12.242682 Y29.119621 Z20.000000
G01 X11.472315 Y29.200916 Z20.000000
G01 X10.663236 Y29.228009 Z20.000000
G01 X9.887062 Y29.203822 Z20.000000
G01 X9.107016 Y29.131238 Z20.000000
G01 X8.323099 Y29.010263 Z20.000000
G01 X7.535312 Y28.840899 Z20.000000
G01 X6.771719 Y28.644435 Z20.000000
G01 X6.075872 Y28.426681 Z20.000000
G01 X5.447771 Y28.187636 Z20.000000
G01 X4.887416 Y27.927297 Z20.000000
G01 X4.887416 Y27.149188 Z20.000000
G01 X4.887416 Y26.371079 Z20.000000
G01 X4.887416 Y25.592967 Z20.000000
G01 X4.887416 Y24.814858 Z20.000000
G01 X4.926128 Y24.814858 Z20.000000
G01 X4.964840 Y24.814858 Z20.000000
G01 X5.003552 Y24.814858 Z20.000000
G01 X5.042264 Y24.814858 Z20.000000
G01 X5.629717 Y25.208752 Z20.000000
G01 X6.277174 Y25.569740 Z20.000000
G01 X6.984635 Y25.897823 Z20.000000
G01 X7.752099 Y26.193002 Z20.000000
G01 X8.545693 Y26.443661 Z20.000000
G01 X9.331545 Y26.622705 Z20.000000
G01 X10.109655 Y26.730131 Z20.000000
G01 X10.880022 Y26.765939 Z20.000000
G01 X11.646518 Y26.727226 Z20.000000
G01 X12.351076 Y26.611092 Z20.000000
G01 X12.993694 Y26.417533 Z20.000000
G01 X13.574373 Y26.146549 Z20.000000
G01 X14.055368 Y25.806852 Z20.000000
G01 X14.398937 Y25.391666 Z20.000000
G01 X14.605078 Y24.900995 Z20.000000
G01 X14.673791 Y24.334832 Z20.000000
G01 X14.632176 Y23.833512 Z20.000000
G01 X14.507330 Y23.398003 Z20.000000
G01 X14.299254 Y23.028303 Z20.000000
G01 X14.007946 Y22.724415 Z20.000000
G01 X13.632441 Y22.466012 Z20.000000
G01 X13.156284 Y22.232773 Z20.000000
G01 X12.579476 Y22.024696 Z20.000000
G01 X11.902017 Y21.841782 Z20.000000
G01 X11.487800 Y21.748874 Z20.000000
G01 X11.050355 Y21.655964 Z20.000000
G01 X10.589683 Y21.563056 Z20.000000
G01 X10.105784 Y21.470149 Z20.000000
G01 X9.623820 Y21.379175 Z20.000000
G01 X9.184440 Y21.292075 Z20.000000
G01 X8.787643 Y21.208842 Z20.000000
G01 X8.433429 Y21.129484 Z20.000000
G01 X7.477244 Y20.855596 Z20.000000
G01 X6.637195 Y20.498480 Z20.000000
G01 X5.913282 Y20.058129 Z20.000000
G01 X5.305505 Y19.534550 Z20.000000
G01 X4.824509 Y18.915160 Z20.000000
G01 X4.480940 Y18.202859 Z20.000000
G01 X4.274800 Y17.397651 Z20.000000
G01 X4.206086 Y16.499391 Z20.000000
G00 Z-20.000000

(End cutting path id: path37092)


(Start cutting path id: path37090)
(Change tool to Cylindrical cutter)

G00 X22.292303 Y11.513290

G01 Z20.000000 F100.0(Penetrate)
G01 X23.020087 Y11.513290 Z20.000000 F400.000000
G01 X23.747871 Y11.513290 Z20.000000
G01 X24.475655 Y11.513290 Z20.000000
G01 X25.203440 Y11.513290 Z20.000000
G01 X25.203440 Y11.993321 Z20.000000
G01 X25.203440 Y12.473353 Z20.000000
G01 X25.203440 Y12.953385 Z20.000000
G01 X25.203440 Y13.433417 Z20.000000
G01 X25.931224 Y12.886611 Z20.000000
G01 X26.643523 Y12.407539 Z20.000000
G01 X27.340338 Y11.996228 Z20.000000
G01 X28.021668 Y11.652651 Z20.000000
G01 X28.712677 Y11.381661 Z20.000000
G01 X29.438524 Y11.188113 Z20.000000
G01 X30.199214 Y11.071979 Z20.000000
G01 X30.994745 Y11.033258 Z20.000000
G01 X32.281916 Y11.136805 Z20.000000
G01 X33.418111 Y11.447475 Z20.000000
G01 X34.403329 Y11.965240 Z20.000000
G01 X35.237573 Y12.690128 Z20.000000
G01 X35.901481 Y13.623098 Z20.000000
G01 X36.375701 Y14.749617 Z20.000000
G01 X36.660235 Y16.069688 Z20.000000
G01 X36.755079 Y17.583325 Z20.000000
G01 X36.755079 Y20.389941 Z20.000000
G01 X36.755079 Y23.196556 Z20.000000
G01 X36.755079 Y26.003171 Z20.000000
G01 X36.755079 Y28.809787 Z20.000000
G01 X36.027295 Y28.809787 Z20.000000
G01 X35.299512 Y28.809787 Z20.000000
G01 X34.571726 Y28.809787 Z20.000000
G01 X33.843942 Y28.809787 Z20.000000
G01 X33.843942 Y26.347708 Z20.000000
G01 X33.843942 Y23.885630 Z20.000000
G01 X33.843942 Y21.423548 Z20.000000
G01 X33.843942 Y18.961470 Z20.000000
G01 X33.836209 Y18.326594 Z20.000000
G01 X33.812983 Y17.738175 Z20.000000
G01 X33.774270 Y17.196207 Z20.000000
G01 X33.720072 Y16.700695 Z20.000000
G01 X33.640711 Y16.252605 Z20.000000
G01 X33.526513 Y15.837420 Z20.000000
G01 X33.377471 Y15.455138 Z20.000000
G01 X33.193589 Y15.105764 Z20.000000
G01 X32.969062 Y14.788329 Z20.000000
G01 X32.713563 Y14.517348 Z20.000000
G01 X32.427094 Y14.292812 Z20.000000
G01 X32.109656 Y14.114729 Z20.000000
G01 X31.738991 Y13.979235 Z20.000000
G01 X31.292834 Y13.882461 Z20.000000
G01 X30.771191 Y13.824407 Z20.000000
G01 X30.174060 Y13.804934 Z20.000000
G01 X29.596283 Y13.841708 Z20.000000
G01 X28.993347 Y13.952028 Z20.000000
G01 X28.365244 Y14.135924 Z20.000000
G01 X27.711981 Y14.393339 Z20.000000
G01 X27.050007 Y14.707876 Z20.000000
G01 X26.411261 Y15.063064 Z20.000000
G01 X25.795741 Y15.458897 Z20.000000
G01 X25.203448 Y15.895374 Z20.000000
G01 X25.203448 Y19.123948 Z20.000000
G01 X25.203448 Y22.352522 Z20.000000
G01 X25.203448 Y25.581099 Z20.000000
G01 X25.203448 Y28.809674 Z20.000000
G01 X24.475664 Y28.809674 Z20.000000
G01 X23.747880 Y28.809674 Z20.000000
G01 X23.020095 Y28.809674 Z20.000000
G01 X22.292311 Y28.809674 Z20.000000
G01 X22.292311 Y24.485549 Z20.000000
G01 X22.292311 Y20.161425 Z20.000000
G01 X22.292311 Y15.837301 Z20.000000
G01 X22.292303 Y11.513290 Z20.000000
G00 Z-20.000000

(End cutting path id: path37090)


(Start cutting path id: path37088)
(Change tool to Cylindrical cutter)

G00 X42.267652 Y11.513290

G01 Z20.000000 F100.0(Penetrate)
G01 X42.991566 Y11.513290 Z20.000000 F400.000000
G01 X43.715477 Y11.513290 Z20.000000
G01 X44.439392 Y11.513290 Z20.000000
G01 X45.163306 Y11.513290 Z20.000000
G01 X45.163306 Y11.973961 Z20.000000
G01 X45.163306 Y12.434632 Z20.000000
G01 X45.163306 Y12.895304 Z20.000000
G01 X45.163306 Y13.355975 Z20.000000
G01 X45.374287 Y13.210800 Z20.000000
G01 X45.620105 Y13.038560 Z20.000000
G01 X45.900769 Y12.839170 Z20.000000
G01 X46.216271 Y12.612715 Z20.000000
G01 X46.539514 Y12.392073 Z20.000000
G01 X46.858888 Y12.194631 Z20.000000
G01 X47.174390 Y12.020415 Z20.000000
G01 X47.486020 Y11.869454 Z20.000000
G01 X47.863461 Y11.699105 Z20.000000
G01 X48.268001 Y11.544249 Z20.000000
G01 X48.699640 Y11.404888 Z20.000000
G01 X49.158376 Y11.281021 Z20.000000
G01 X49.650986 Y11.172619 Z20.000000
G01 X50.184242 Y11.095206 Z20.000000
G01 X50.758147 Y11.048752 Z20.000000
G01 X51.372700 Y11.033230 Z20.000000
G01 X52.497282 Y11.130004 Z20.000000
G01 X53.532826 Y11.420354 Z20.000000
G01 X54.479331 Y11.904252 Z20.000000
G01 X55.336802 Y12.581727 Z20.000000
G01 X56.048129 Y13.409202 Z20.000000
G01 X56.556222 Y14.343104 Z20.000000
G01 X56.861081 Y15.383496 Z20.000000
G01 X56.962701 Y16.530334 Z20.000000
G01 X56.910439 Y17.466195 Z20.000000
G01 X56.753656 Y18.307211 Z20.000000
G01 X56.492352 Y19.053384 Z20.000000
G01 X56.126524 Y19.704711 Z20.000000
G01 X55.656176 Y20.283455 Z20.000000
G01 X55.096786 Y20.796389 Z20.000000
G01 X54.448363 Y21.243510 Z20.000000
G01 X53.710900 Y21.624824 Z20.000000
G01 X52.881496 Y21.945166 Z20.000000
G01 X51.972732 Y22.209374 Z20.000000
G01 X50.984610 Y22.417450 Z20.000000
G01 X49.917130 Y22.569396 Z20.000000
G01 X48.789647 Y22.685530 Z20.000000
G01 X47.621515 Y22.786182 Z20.000000
G01 X46.412734 Y22.871348 Z20.000000
G01 X45.163306 Y22.941029 Z20.000000
G01 X45.163306 Y23.053294 Z20.000000
G01 X45.163306 Y23.165557 Z20.000000
G01 X45.163306 Y23.277822 Z20.000000
G01 X45.163306 Y23.390087 Z20.000000
G01 X45.185573 Y23.864308 Z20.000000
G01 X45.252352 Y24.295947 Z20.000000
G01 X45.363650 Y24.685002 Z20.000000
G01 X45.519464 Y25.031474 Z20.000000
G01 X45.709152 Y25.339232 Z20.000000
G01 X45.937551 Y25.612152 Z20.000000
G01 X46.204663 Y25.850229 Z20.000000
G01 X46.510488 Y26.053469 Z20.000000
G01 X46.835670 Y26.217028 Z20.000000
G01 X47.191820 Y26.351549 Z20.000000
G01 X47.578939 Y26.457041 Z20.000000
G01 X47.997026 Y26.533495 Z20.000000
G01 X48.435438 Y26.587690 Z20.000000
G01 X48.883531 Y26.626403 Z20.000000
G01 X49.341298 Y26.649629 Z20.000000
G01 X49.808746 Y26.657362 Z20.000000
G01 X50.398136 Y26.638002 Z20.000000
G01 X51.020430 Y26.579932 Z20.000000
G01 X51.675629 Y26.483155 Z20.000000
G01 X52.363732 Y26.347663 Z20.000000
G01 X53.074096 Y26.183136 Z20.000000
G01 X53.796074 Y25.983771 Z20.000000
G01 X54.529666 Y25.749564 Z20.000000
G01 X55.274871 Y25.480515 Z20.000000
G01 X55.313583 Y25.480515 Z20.000000
G01 X55.352293 Y25.480515 Z20.000000
G01 X55.391005 Y25.480515 Z20.000000
G01 X55.429718 Y25.480515 Z20.000000
G01 X55.429718 Y26.219912 Z20.000000
G01 X55.429718 Y26.959309 Z20.000000
G01 X55.429718 Y27.698709 Z20.000000
G01 X55.429718 Y28.438106 Z20.000000
G01 X54.956465 Y28.557144 Z20.000000
G01 X54.388366 Y28.681991 Z20.000000
G01 X53.725426 Y28.812643 Z20.000000
G01 X52.967639 Y28.949103 Z20.000000
G01 X52.165335 Y29.071045 Z20.000000
G01 X51.368836 Y29.158148 Z20.000000
G01 X50.578145 Y29.210407 Z20.000000
G01 X49.793260 Y29.227820 Z20.000000
G01 X48.909662 Y29.208459 Z20.000000
G01 X48.086064 Y29.150389 Z20.000000
G01 X47.322472 Y29.053612 Z20.000000
G01 X46.618884 Y28.918120 Z20.000000
G01 X45.960781 Y28.743916 Z20.000000
G01 X45.349132 Y28.515516 Z20.000000
G01 X44.783937 Y28.232919 Z20.000000
G01 X44.265198 Y27.896126 Z20.000000
G01 X43.806463 Y27.513845 Z20.000000
G01 X43.405792 Y27.079304 Z20.000000
G01 X43.063191 Y26.592502 Z20.000000
G01 X42.778658 Y26.053438 Z20.000000
G01 X42.555095 Y25.454370 Z20.000000
G01 X42.395408 Y24.787558 Z20.000000
G01 X42.299597 Y24.052999 Z20.000000
G01 X42.267660 Y23.250695 Z20.000000
G01 X42.267660 Y20.316329 Z20.000000
G01 X42.267660 Y17.381962 Z20.000000
G01 X42.267660 Y14.447608 Z20.000000
G01 X42.267652 Y11.513290 Z20.000000
G00 Z-20.000000

(End cutting path id: path37088)


(Start cutting path id: path37088)
(Change tool to Cylindrical cutter)

G00 X45.163306 Y15.771608

G01 Z20.000000 F100.0(Penetrate)
G01 X45.163306 Y16.975548 Z20.000000 F400.000000
G01 X45.163306 Y18.179489 Z20.000000
G01 X45.163306 Y19.383432 Z20.000000
G01 X45.163306 Y20.587372 Z20.000000
G01 X45.859153 Y20.543819 Z20.000000
G01 X46.615003 Y20.490592 Z20.000000
G01 X47.430857 Y20.427685 Z20.000000
G01 X48.306714 Y20.355100 Z20.000000
G01 X49.158376 Y20.268966 Z20.000000
G01 X49.917130 Y20.165413 Z20.000000
G01 X50.582974 Y20.044438 Z20.000000
G01 X51.155911 Y19.906042 Z20.000000
G01 X51.753042 Y19.702806 Z20.000000
G01 X52.290170 Y19.449240 Z20.000000
G01 X52.767295 Y19.145352 Z20.000000
G01 X53.184417 Y18.791138 Z20.000000
G01 X53.523146 Y18.383693 Z20.000000
G01 X53.765098 Y17.904635 Z20.000000
G01 X53.910267 Y17.353958 Z20.000000
G01 X53.958657 Y16.731663 Z20.000000
G01 X53.902526 Y16.033880 Z20.000000
G01 X53.734126 Y15.427068 Z20.000000
G01 X53.453465 Y14.911228 Z20.000000
G01 X53.060538 Y14.486360 Z20.000000
G01 X52.552445 Y14.161183 Z20.000000
G01 X51.926279 Y13.928914 Z20.000000
G01 X51.182042 Y13.789553 Z20.000000
G01 X50.319734 Y13.743099 Z20.000000
G01 X49.569692 Y13.779873 Z20.000000
G01 X48.852554 Y13.890222 Z20.000000
G01 X48.168320 Y14.074089 Z20.000000
G01 X47.516991 Y14.331533 Z20.000000
G01 X46.893729 Y14.647988 Z20.000000
G01 X46.293693 Y14.993502 Z20.000000
G01 X45.716887 Y15.368036 Z20.000000
G01 X45.163306 Y15.771608 Z20.000000
G00 Z-20.000000

(End cutting path id: path37088)


(Start cutting path id: path37086)
(Change tool to Cylindrical cutter)

G00 X61.313924 Y11.513290

G01 Z20.000000 F100.0(Penetrate)
G01 X62.041710 Y11.513290 Z20.000000 F400.000000
G01 X62.769494 Y11.513290 Z20.000000
G01 X63.497277 Y11.513290 Z20.000000
G01 X64.225063 Y11.513290 Z20.000000
G01 X64.225063 Y13.975368 Z20.000000
G01 X64.225063 Y16.437452 Z20.000000
G01 X64.225063 Y18.899531 Z20.000000
G01 X64.225063 Y21.361612 Z20.000000
G01 X64.233784 Y21.948098 Z20.000000
G01 X64.259918 Y22.515226 Z20.000000
G01 X64.303467 Y23.063000 Z20.000000
G01 X64.364439 Y23.591419 Z20.000000
G01 X64.448637 Y24.088866 Z20.000000
G01 X64.561870 Y24.528247 Z20.000000
G01 X64.704135 Y24.909557 Z20.000000
G01 X64.875436 Y25.232803 Z20.000000
G01 X65.090289 Y25.536692 Z20.000000
G01 X65.347723 Y25.797999 Z20.000000
G01 X65.647740 Y26.016721 Z20.000000
G01 X65.990341 Y26.192858 Z20.000000
G01 X66.381331 Y26.335127 Z20.000000
G01 X66.826517 Y26.436746 Z20.000000
G01 X67.325901 Y26.497718 Z20.000000
G01 X67.879483 Y26.518038 Z20.000000
G01 X68.482419 Y26.481261 Z20.000000
G01 X69.098908 Y26.370932 Z20.000000
G01 X69.728944 Y26.187050 Z20.000000
G01 X70.372529 Y25.929616 Z20.000000
G01 X71.016114 Y25.615082 Z20.000000
G01 X71.646153 Y25.259900 Z20.000000
G01 X72.262639 Y24.864069 Z20.000000
G01 X72.865579 Y24.427592 Z20.000000
G01 X72.865579 Y21.199015 Z20.000000
G01 X72.865579 Y17.970441 Z20.000000
G01 X72.865579 Y14.741853 Z20.000000
G01 X72.865579 Y11.513287 Z20.000000
G01 X73.593362 Y11.513287 Z20.000000
G01 X74.321145 Y11.513287 Z20.000000
G01 X75.048932 Y11.513287 Z20.000000
G01 X75.776715 Y11.513287 Z20.000000
G01 X75.776715 Y17.536866 Z20.000000
G01 X75.776715 Y23.560442 Z20.000000
G01 X75.776715 Y29.584021 Z20.000000
G01 X75.776715 Y35.607597 Z20.000000
G01 X75.048932 Y35.607597 Z20.000000
G01 X74.321145 Y35.607597 Z20.000000
G01 X73.593362 Y35.607597 Z20.000000
G01 X72.865579 Y35.607597 Z20.000000
G01 X72.865579 Y33.428116 Z20.000000
G01 X72.865579 Y31.248635 Z20.000000
G01 X72.865579 Y29.069152 Z20.000000
G01 X72.865579 Y26.889671 Z20.000000
G01 X72.178441 Y27.423895 Z20.000000
G01 X71.479693 Y27.896182 Z20.000000
G01 X70.769328 Y28.306528 Z20.000000
G01 X70.047350 Y28.654934 Z20.000000
G01 X69.314726 Y28.932692 Z20.000000
G01 X68.572426 Y29.131091 Z20.000000
G01 X67.820447 Y29.250129 Z20.000000
G01 X67.058789 Y29.289810 Z20.000000
G01 X65.740647 Y29.184321 Z20.000000
G01 X64.588969 Y28.867851 Z20.000000
G01 X63.603751 Y28.340400 Z20.000000
G01 X62.784993 Y27.601971 Z20.000000
G01 X62.141408 Y26.665143 Z20.000000
G01 X61.681702 Y25.542497 Z20.000000
G01 X61.405880 Y24.234033 Z20.000000
G01 X61.313938 Y22.739754 Z20.000000
G01 X61.313938 Y19.933136 Z20.000000
G01 X61.313938 Y17.126520 Z20.000000
G01 X61.313938 Y14.319902 Z20.000000
G01 X61.313924 Y11.513290 Z20.000000
G00 Z-20.000000

(End cutting path id: path37086)


(Start cutting path id: path37084)
(Change tool to Cylindrical cutter)

G00 X78.548476 Y25.635407

G01 Z20.000000 F100.0(Penetrate)
G01 X78.587188 Y25.635407 Z20.000000 F400.000000
G01 X78.625898 Y25.635407 Z20.000000
G01 X78.664610 Y25.635407 Z20.000000
G01 X78.703323 Y25.635407 Z20.000000
G01 X79.026569 Y25.707024 Z20.000000
G01 X79.345943 Y25.767027 Z20.000000
G01 X79.661445 Y25.815417 Z20.000000
G01 X79.973075 Y25.852194 Z20.000000
G01 X80.289544 Y25.886066 Z20.000000
G01 X80.635049 Y25.910252 Z20.000000
G01 X81.009586 Y25.924759 Z20.000000
G01 X81.413159 Y25.929613 Z20.000000
G01 X82.080939 Y25.891868 Z20.000000
G01 X82.737105 Y25.778635 Z20.000000
G01 X83.381659 Y25.589916 Z20.000000
G01 X84.014598 Y25.325705 Z20.000000
G01 X84.635925 Y25.009235 Z20.000000
G01 X85.245638 Y24.648248 Z20.000000
G01 X85.843737 Y24.242740 Z20.000000
G01 X86.430223 Y23.792714 Z20.000000
G01 X86.430223 Y20.722856 Z20.000000
G01 X86.430223 Y17.653000 Z20.000000
G01 X86.430223 Y14.583128 Z20.000000
G01 X86.430223 Y11.513284 Z20.000000
G01 X87.158006 Y11.513284 Z20.000000
G01 X87.885790 Y11.513284 Z20.000000
G01 X88.613576 Y11.513284 Z20.000000
G01 X89.341359 Y11.513284 Z20.000000
G01 X89.341359 Y15.837408 Z20.000000
G01 X89.341359 Y20.161532 Z20.000000
G01 X89.341359 Y24.485657 Z20.000000
G01 X89.341359 Y28.809781 Z20.000000
G01 X88.613576 Y28.809781 Z20.000000
G01 X87.885790 Y28.809781 Z20.000000
G01 X87.158006 Y28.809781 Z20.000000
G01 X86.430223 Y28.809781 Z20.000000
G01 X86.430223 Y28.171033 Z20.000000
G01 X86.430223 Y27.532288 Z20.000000
G01 X86.430223 Y26.893540 Z20.000000
G01 X86.430223 Y26.254792 Z20.000000
G01 X85.589206 Y26.900313 Z20.000000
G01 X84.800452 Y27.443250 Z20.000000
G01 X84.063956 Y27.883598 Z20.000000
G01 X83.379723 Y28.221359 Z20.000000
G01 X82.710974 Y28.478794 Z20.000000
G01 X82.036421 Y28.662675 Z20.000000
G01 X81.356059 Y28.773005 Z20.000000
G01 X80.669890 Y28.809781 Z20.000000
G01 X80.316643 Y28.806874 Z20.000000
G01 X80.015659 Y28.798153 Z20.000000
G01 X79.766934 Y28.783647 Z20.000000
G01 X79.570470 Y28.763327 Z20.000000
G01 X79.378847 Y28.743007 Z20.000000
G01 X79.144639 Y28.713007 Z20.000000
G01 X78.867850 Y28.673327 Z20.000000
G01 X78.548476 Y28.623969 Z20.000000
G01 X78.548476 Y27.876828 Z20.000000
G01 X78.548476 Y27.129689 Z20.000000
G01 X78.548476 Y26.382548 Z20.000000
G01 X78.548476 Y25.635407 Z20.000000
G00 Z-20.000000

(End cutting path id: path37084)


(Start cutting path id: path37082)
(Change tool to Cylindrical cutter)

G00 X93.754525 Y19.859589

G01 Z20.000000 F100.0(Penetrate)
G01 X96.940517 Y19.859589 Z20.000000 F400.000000
G01 X100.126510 Y19.859589 Z20.000000
G01 X103.312500 Y19.859589 Z20.000000
G01 X106.498492 Y19.859589 Z20.000000
G01 X106.468492 Y19.087285 Z20.000000
G01 X106.378486 Y18.365307 Z20.000000
G01 X106.228476 Y17.693654 Z20.000000
G01 X106.018466 Y17.072328 Z20.000000
G01 X105.756191 Y16.510037 Z20.000000
G01 X105.449402 Y16.000008 Z20.000000
G01 X105.098089 Y15.542240 Z20.000000
G01 X104.702261 Y15.136732 Z20.000000
G01 X104.281270 Y14.788320 Z20.000000
G01 X103.823500 Y14.486360 Z20.000000
G01 X103.328953 Y14.230864 Z20.000000
G01 X102.797633 Y14.021822 Z20.000000
G01 X102.226633 Y13.859234 Z20.000000
G01 X101.628533 Y13.743099 Z20.000000
G01 X101.003335 Y13.673419 Z20.000000
G01 X100.351037 Y13.650276 Z20.000000
G01 X99.467439 Y13.693823 Z20.000000
G01 X98.581902 Y13.824492 Z20.000000
G01 X97.694432 Y14.042227 Z20.000000
G01 X96.805025 Y14.347083 Z20.000000
G01 X95.971750 Y14.701300 Z20.000000
G01 X95.268162 Y15.051648 Z20.000000
G01 X94.694257 Y15.398124 Z20.000000
G01 X94.250039 Y15.740725 Z20.000000
G01 X94.211327 Y15.740725 Z20.000000
G01 X94.172614 Y15.740725 Z20.000000
G01 X94.133902 Y15.740725 Z20.000000
G01 X94.095190 Y15.740725 Z20.000000
G01 X94.095190 Y14.947130 Z20.000000
G01 X94.095190 Y14.153535 Z20.000000
G01 X94.095190 Y13.359954 Z20.000000
G01 X94.095190 Y12.566345 Z20.000000
G01 X94.834589 Y12.269222 Z20.000000
G01 X95.581730 Y11.997273 Z20.000000
G01 X96.336613 Y11.750497 Z20.000000
G01 X97.099236 Y11.528868 Z20.000000
G01 X97.875409 Y11.345960 Z20.000000
G01 X98.670940 Y11.215319 Z20.000000
G01 X99.485826 Y11.136918 Z20.000000
G01 X100.320069 Y11.110671 Z20.000000
G01 X102.354381 Y11.255847 Z20.000000
G01 X104.152551 Y11.691344 Z20.000000
G01 X105.714578 Y12.417191 Z20.000000
G01 X107.040460 Y13.433389 Z20.000000
G01 X108.097295 Y14.724414 Z20.000000
G01 X108.852180 Y16.259353 Z20.000000
G01 X109.305108 Y18.038163 Z20.000000
G01 X109.456085 Y20.060861 Z20.000000
G01 X109.311884 Y22.072914 Z20.000000
G01 X108.879277 Y23.866244 Z20.000000
G01 X108.158267 Y25.440852 Z20.000000
G01 X107.148854 Y26.796738 Z20.000000
G01 X105.896524 Y27.887445 Z20.000000
G01 X104.462245 Y28.666522 Z20.000000
G01 X102.846020 Y29.133970 Z20.000000
G01 X101.047853 Y29.289785 Z20.000000
G01 X99.398724 Y29.162034 Z20.000000
G01 X97.950898 Y28.778787 Z20.000000
G01 X96.704374 Y28.140039 Z20.000000
G01 X95.659152 Y27.245796 Z20.000000
G01 X94.825877 Y26.116376 Z20.000000
G01 X94.230682 Y24.772104 Z20.000000
G01 X93.873563 Y23.212981 Z20.000000
G01 X93.754525 Y21.439006 Z20.000000
G01 X93.754525 Y21.044146 Z20.000000
G01 X93.754525 Y20.649283 Z20.000000
G01 X93.754525 Y20.254420 Z20.000000
G01 X93.754525 Y19.859589 Z20.000000
G00 Z-20.000000

(End cutting path id: path37082)


(Start cutting path id: path37082)
(Change tool to Cylindrical cutter)

G00 X96.588239 Y22.089395

G01 Z20.000000 F100.0(Penetrate)
G01 X96.666635 Y23.170425 Z20.000000 F400.000000
G01 X96.886325 Y24.121771 Z20.000000
G01 X97.247313 Y24.943432 Z20.000000
G01 X97.749598 Y25.635407 Z20.000000
G01 X98.389311 Y26.184149 Z20.000000
G01 X99.178068 Y26.576108 Z20.000000
G01 X100.115864 Y26.811281 Z20.000000
G01 X101.202702 Y26.889674 Z20.000000
G01 X102.312767 Y26.803539 Z20.000000
G01 X103.304758 Y26.545137 Z20.000000
G01 X104.178679 Y26.114468 Z20.000000
G01 X104.934530 Y25.511529 Z20.000000
G01 X105.549083 Y24.780841 Z20.000000
G01 X106.014594 Y23.966924 Z20.000000
G01 X106.331064 Y23.069773 Z20.000000
G01 X106.498492 Y22.089395 Z20.000000
G01 X104.020928 Y22.089395 Z20.000000
G01 X101.543367 Y22.089395 Z20.000000
G01 X99.065803 Y22.089395 Z20.000000
G01 X96.588239 Y22.089395 Z20.000000
G00 Z-20.000000

(End cutting path id: path37082)


(Start cutting path id: path37080)
(Change tool to Cylindrical cutter)

G00 X113.962152 Y11.513290

G01 Z20.000000 F100.0(Penetrate)
G01 X114.689936 Y11.513290 Z20.000000 F400.000000
G01 X115.417719 Y11.513290 Z20.000000
G01 X116.145505 Y11.513290 Z20.000000
G01 X116.873289 Y11.513290 Z20.000000
G01 X116.873289 Y11.993321 Z20.000000
G01 X116.873289 Y12.473353 Z20.000000
G01 X116.873289 Y12.953385 Z20.000000
G01 X116.873289 Y13.433417 Z20.000000
G01 X117.601072 Y12.886611 Z20.000000
G01 X118.313373 Y12.407539 Z20.000000
G01 X119.010188 Y11.996228 Z20.000000
G01 X119.691518 Y11.652651 Z20.000000
G01 X120.382525 Y11.381661 Z20.000000
G01 X121.108375 Y11.188113 Z20.000000
G01 X121.869062 Y11.071979 Z20.000000
G01 X122.664593 Y11.033258 Z20.000000
G01 X123.951764 Y11.136805 Z20.000000
G01 X125.087959 Y11.447475 Z20.000000
G01 X126.073177 Y11.965240 Z20.000000
G01 X126.907421 Y12.690128 Z20.000000
G01 X127.571331 Y13.623098 Z20.000000
G01 X128.045552 Y14.749617 Z20.000000
G01 X128.330086 Y16.069688 Z20.000000
G01 X128.424929 Y17.583325 Z20.000000
G01 X128.424929 Y20.389941 Z20.000000
G01 X128.424929 Y23.196556 Z20.000000
G01 X128.424929 Y26.003171 Z20.000000
G01 X128.424929 Y28.809787 Z20.000000
G01 X127.697143 Y28.809787 Z20.000000
G01 X126.969360 Y28.809787 Z20.000000
G01 X126.241574 Y28.809787 Z20.000000
G01 X125.513790 Y28.809787 Z20.000000
G01 X125.513790 Y26.347708 Z20.000000
G01 X125.513790 Y23.885630 Z20.000000
G01 X125.513790 Y21.423548 Z20.000000
G01 X125.513790 Y18.961470 Z20.000000
G01 X125.506057 Y18.326594 Z20.000000
G01 X125.482831 Y17.738175 Z20.000000
G01 X125.444121 Y17.196207 Z20.000000
G01 X125.389923 Y16.700695 Z20.000000
G01 X125.310565 Y16.252605 Z20.000000
G01 X125.196364 Y15.837420 Z20.000000
G01 X125.047325 Y15.455138 Z20.000000
G01 X124.863443 Y15.105764 Z20.000000
G01 X124.638913 Y14.788329 Z20.000000
G01 X124.383414 Y14.517348 Z20.000000
G01 X124.096944 Y14.292812 Z20.000000
G01 X123.779506 Y14.114729 Z20.000000
G01 X123.408841 Y13.979235 Z20.000000
G01 X122.962685 Y13.882461 Z20.000000
G01 X122.441042 Y13.824407 Z20.000000
G01 X121.843911 Y13.804934 Z20.000000
G01 X121.266134 Y13.841708 Z20.000000
G01 X120.663197 Y13.952028 Z20.000000
G01 X120.035098 Y14.135924 Z20.000000
G01 X119.381832 Y14.393339 Z20.000000
G01 X118.719858 Y14.707876 Z20.000000
G01 X118.081112 Y15.063064 Z20.000000
G01 X117.465591 Y15.458897 Z20.000000
G01 X116.873300 Y15.895374 Z20.000000
G01 X116.873300 Y19.123948 Z20.000000
G01 X116.873300 Y22.352522 Z20.000000
G01 X116.873300 Y25.581099 Z20.000000
G01 X116.873300 Y28.809674 Z20.000000
G01 X116.145517 Y28.809674 Z20.000000
G01 X115.417730 Y28.809674 Z20.000000
G01 X114.689947 Y28.809674 Z20.000000
G01 X113.962164 Y28.809674 Z20.000000
G01 X113.962164 Y24.485549 Z20.000000
G01 X113.962164 Y20.161425 Z20.000000
G01 X113.962164 Y15.837301 Z20.000000
G01 X113.962152 Y11.513290 Z20.000000
G00 Z-20.000000

(End cutting path id: path37080)


(Start cutting path id: path37078)
(Change tool to Cylindrical cutter)

G00 X132.714211 Y19.859589

G01 Z20.000000 F100.0(Penetrate)
G01 X135.900203 Y19.859589 Z20.000000 F400.000000
G01 X139.086196 Y19.859589 Z20.000000
G01 X142.272185 Y19.859589 Z20.000000
G01 X145.458178 Y19.859589 Z20.000000
G01 X145.428175 Y19.087285 Z20.000000
G01 X145.338171 Y18.365307 Z20.000000
G01 X145.188162 Y17.693654 Z20.000000
G01 X144.978149 Y17.072328 Z20.000000
G01 X144.715877 Y16.510037 Z20.000000
G01 X144.409085 Y16.000008 Z20.000000
G01 X144.057774 Y15.542240 Z20.000000
G01 X143.661944 Y15.136732 Z20.000000
G01 X143.240953 Y14.788320 Z20.000000
G01 X142.783183 Y14.486360 Z20.000000
G01 X142.288639 Y14.230864 Z20.000000
G01 X141.757316 Y14.021822 Z20.000000
G01 X141.186316 Y13.859234 Z20.000000
G01 X140.588216 Y13.743099 Z20.000000
G01 X139.963021 Y13.673419 Z20.000000
G01 X139.310723 Y13.650276 Z20.000000
G01 X138.427125 Y13.693823 Z20.000000
G01 X137.541588 Y13.824492 Z20.000000
G01 X136.654117 Y14.042227 Z20.000000
G01 X135.764711 Y14.347083 Z20.000000
G01 X134.931436 Y14.701300 Z20.000000
G01 X134.227847 Y15.051648 Z20.000000
G01 X133.653943 Y15.398124 Z20.000000
G01 X133.209722 Y15.740725 Z20.000000
G01 X133.171010 Y15.740725 Z20.000000
G01 X133.132300 Y15.740725 Z20.000000
G01 X133.093588 Y15.740725 Z20.000000
G01 X133.054875 Y15.740725 Z20.000000
G01 X133.054875 Y14.947130 Z20.000000
G01 X133.054875 Y14.153535 Z20.000000
G01 X133.054875 Y13.359954 Z20.000000
G01 X133.054875 Y12.566345 Z20.000000
G01 X133.794272 Y12.269222 Z20.000000
G01 X134.541413 Y11.997273 Z20.000000
G01 X135.296296 Y11.750497 Z20.000000
G01 X136.058922 Y11.528868 Z20.000000
G01 X136.835095 Y11.345960 Z20.000000
G01 X137.630626 Y11.215319 Z20.000000
G01 X138.445512 Y11.136918 Z20.000000
G01 X139.279755 Y11.110671 Z20.000000
G01 X141.314066 Y11.255847 Z20.000000
G01 X143.112234 Y11.691344 Z20.000000
G01 X144.674261 Y12.417191 Z20.000000
G01 X146.000143 Y13.433389 Z20.000000
G01 X147.056978 Y14.724414 Z20.000000
G01 X147.811863 Y16.259353 Z20.000000
G01 X148.264791 Y18.038163 Z20.000000
G01 X148.415768 Y20.060861 Z20.000000
G01 X148.271567 Y22.072914 Z20.000000
G01 X147.838962 Y23.866244 Z20.000000
G01 X147.117952 Y25.440852 Z20.000000
G01 X146.108539 Y26.796738 Z20.000000
G01 X144.856209 Y27.887445 Z20.000000
G01 X143.421931 Y28.666522 Z20.000000
G01 X141.805709 Y29.133970 Z20.000000
G01 X140.007538 Y29.289785 Z20.000000
G01 X138.358409 Y29.162034 Z20.000000
G01 X136.910584 Y28.778787 Z20.000000
G01 X135.664059 Y28.140039 Z20.000000
G01 X134.618838 Y27.245796 Z20.000000
G01 X133.785563 Y26.116376 Z20.000000
G01 X133.190367 Y24.772104 Z20.000000
G01 X132.833249 Y23.212981 Z20.000000
G01 X132.714211 Y21.439006 Z20.000000
G01 X132.714211 Y21.044146 Z20.000000
G01 X132.714211 Y20.649283 Z20.000000
G01 X132.714211 Y20.254420 Z20.000000
G01 X132.714211 Y19.859589 Z20.000000
G00 Z-20.000000

(End cutting path id: path37078)


(Start cutting path id: path37078)
(Change tool to Cylindrical cutter)

G00 X135.547925 Y22.089395

G01 Z20.000000 F100.0(Penetrate)
G01 X135.626321 Y23.170425 Z20.000000 F400.000000
G01 X135.846011 Y24.121771 Z20.000000
G01 X136.206998 Y24.943432 Z20.000000
G01 X136.709281 Y25.635407 Z20.000000
G01 X137.348997 Y26.184149 Z20.000000
G01 X138.137751 Y26.576108 Z20.000000
G01 X139.075547 Y26.811281 Z20.000000
G01 X140.162385 Y26.889674 Z20.000000
G01 X141.272450 Y26.803539 Z20.000000
G01 X142.264444 Y26.545137 Z20.000000
G01 X143.138365 Y26.114468 Z20.000000
G01 X143.894215 Y25.511529 Z20.000000
G01 X144.508768 Y24.780841 Z20.000000
G01 X144.974280 Y23.966924 Z20.000000
G01 X145.290750 Y23.069773 Z20.000000
G01 X145.458178 Y22.089395 Z20.000000
G01 X142.980614 Y22.089395 Z20.000000
G01 X140.503053 Y22.089395 Z20.000000
G01 X138.025489 Y22.089395 Z20.000000
G01 X135.547925 Y22.089395 Z20.000000
G00 Z-20.000000

(End cutting path id: path37078)


(Start cutting path id: path37076)
(Change tool to Cylindrical cutter)

G00 X150.723003 Y11.668145

G01 Z20.000000 F100.0(Penetrate)
G01 X151.143025 Y11.564598 Z20.000000 F400.000000
G01 X151.582406 Y11.470731 Z20.000000
G01 X152.041141 Y11.386515 Z20.000000
G01 X152.519234 Y11.311981 Z20.000000
G01 X152.986682 Y11.251021 Z20.000000
G01 X153.428963 Y11.207445 Z20.000000
G01 X153.846085 Y11.181481 Z20.000000
G01 X154.238044 Y11.172732 Z20.000000
G01 X155.482632 Y11.261773 Z20.000000
G01 X156.568502 Y11.528897 Z20.000000
G01 X157.495653 Y11.974074 Z20.000000
G01 X158.264085 Y12.597333 Z20.000000
G01 X158.867024 Y13.417048 Z20.000000
G01 X159.297693 Y14.451646 Z20.000000
G01 X159.556095 Y15.701069 Z20.000000
G01 X159.642230 Y17.165351 Z20.000000
G01 X159.642230 Y19.464839 Z20.000000
G01 X159.642230 Y21.764329 Z20.000000
G01 X159.642230 Y24.063816 Z20.000000
G01 X159.642230 Y26.363304 Z20.000000
G01 X160.133872 Y26.363304 Z20.000000
G01 X160.625512 Y26.363304 Z20.000000
G01 X161.117154 Y26.363304 Z20.000000
G01 X161.608796 Y26.363304 Z20.000000
G01 X161.608796 Y26.974953 Z20.000000
G01 X161.608796 Y27.586602 Z20.000000
G01 X161.608796 Y28.198251 Z20.000000
G01 X161.608796 Y28.809899 Z20.000000
G01 X161.117154 Y28.809899 Z20.000000
G01 X160.625512 Y28.809899 Z20.000000
G01 X160.133872 Y28.809899 Z20.000000
G01 X159.642230 Y28.809899 Z20.000000
G01 X159.642230 Y30.052552 Z20.000000
G01 X159.642230 Y31.295205 Z20.000000
G01 X159.642230 Y32.537858 Z20.000000
G01 X159.642230 Y33.780510 Z20.000000
G01 X158.914446 Y33.780510 Z20.000000
G01 X158.186660 Y33.780510 Z20.000000
G01 X157.458877 Y33.780510 Z20.000000
G01 X156.731093 Y33.780510 Z20.000000
G01 X156.731093 Y32.537858 Z20.000000
G01 X156.731093 Y31.295205 Z20.000000
G01 X156.731093 Y30.052552 Z20.000000
G01 X156.731093 Y28.809899 Z20.000000
G01 X155.229070 Y28.809899 Z20.000000
G01 X153.727046 Y28.809899 Z20.000000
G01 X152.225026 Y28.809899 Z20.000000
G01 X150.723003 Y28.809899 Z20.000000
G01 X150.723003 Y28.198251 Z20.000000
G01 X150.723003 Y27.586602 Z20.000000
G01 X150.723003 Y26.974953 Z20.000000
G01 X150.723003 Y26.363304 Z20.000000
G01 X152.225026 Y26.363304 Z20.000000
G01 X153.727046 Y26.363304 Z20.000000
G01 X155.229070 Y26.363304 Z20.000000
G01 X156.731093 Y26.363304 Z20.000000
G01 X156.731093 Y24.392868 Z20.000000
G01 X156.731093 Y22.422432 Z20.000000
G01 X156.731093 Y20.451993 Z20.000000
G01 X156.731093 Y18.481557 Z20.000000
G01 X156.727227 Y17.837003 Z20.000000
G01 X156.715599 Y17.266003 Z20.000000
G01 X156.696239 Y16.768552 Z20.000000
G01 X156.669145 Y16.344658 Z20.000000
G01 X156.618820 Y15.971088 Z20.000000
G01 X156.529781 Y15.609130 Z20.000000
G01 X156.402033 Y15.258788 Z20.000000
G01 X156.235570 Y14.920059 Z20.000000
G01 X156.049752 Y14.630688 Z20.000000
G01 X155.832966 Y14.381966 Z20.000000
G01 X155.585212 Y14.173883 Z20.000000
G01 X155.306486 Y14.006469 Z20.000000
G01 X154.965821 Y13.884521 Z20.000000
G01 X154.547732 Y13.797399 Z20.000000
G01 X154.052217 Y13.745131 Z20.000000
G01 X153.479281 Y13.727633 Z20.000000
G01 X153.119261 Y13.740333 Z20.000000
G01 X152.751497 Y13.778067 Z20.000000
G01 X152.375992 Y13.840974 Z20.000000
G01 X151.992743 Y13.929055 Z20.000000
G01 X151.632723 Y14.032631 Z20.000000
G01 X151.326899 Y14.126498 Z20.000000
G01 X151.075272 Y14.210685 Z20.000000
G01 X150.877841 Y14.285220 Z20.000000
G01 X150.839129 Y14.285220 Z20.000000
G01 X150.800419 Y14.285220 Z20.000000
G01 X150.761707 Y14.285220 Z20.000000
G01 X150.722994 Y14.285220 Z20.000000
G01 X150.722994 Y13.631001 Z20.000000
G01 X150.722994 Y12.976753 Z20.000000
G01 X150.722994 Y12.322534 Z20.000000
G01 X150.723003 Y11.668145 Z20.000000
G00 Z-20.000000

(End cutting path id: path37076)


(Start cutting path id: path37074)
(Change tool to Cylindrical cutter)

G00 X163.885057 Y16.499391

G01 Z20.000000 F100.0(Penetrate)
G01 X164.007967 Y15.368036 Z20.000000 F400.000000
G01 X164.376699 Y14.343132 Z20.000000
G01 X164.991249 Y13.424696 Z20.000000
G01 X165.851624 Y12.612715 Z20.000000
G01 X166.917171 Y11.948815 Z20.000000
G01 X168.162725 Y11.474597 Z20.000000
G01 X169.588294 Y11.190061 Z20.000000
G01 X171.193870 Y11.095206 Z20.000000
G01 X172.134571 Y11.123428 Z20.000000
G01 X173.036556 Y11.207615 Z20.000000
G01 X173.899834 Y11.347964 Z20.000000
G01 X174.724397 Y11.544419 Z20.000000
G01 X175.489925 Y11.781514 Z20.000000
G01 X176.191580 Y12.028317 Z20.000000
G01 X176.829360 Y12.284772 Z20.000000
G01 X177.403264 Y12.550908 Z20.000000
G01 X177.403264 Y13.367744 Z20.000000
G01 X177.403264 Y14.184551 Z20.000000
G01 X177.403264 Y15.001379 Z20.000000
G01 X177.403264 Y15.818203 Z20.000000
G01 X177.364552 Y15.818203 Z20.000000
G01 X177.325839 Y15.818203 Z20.000000
G01 X177.287127 Y15.818203 Z20.000000
G01 X177.248415 Y15.818203 Z20.000000
G01 X176.539986 Y15.325593 Z20.000000
G01 X175.792845 Y14.885244 Z20.000000
G01 X175.006994 Y14.497141 Z20.000000
G01 X174.182431 Y14.161324 Z20.000000
G01 X173.347220 Y13.897108 Z20.000000
G01 X172.529430 Y13.708414 Z20.000000
G01 X171.729062 Y13.595158 Z20.000000
G01 X170.946113 Y13.557425 Z20.000000
G01 X170.038320 Y13.596146 Z20.000000
G01 X169.235045 Y13.712281 Z20.000000
G01 X168.536296 Y13.905829 Z20.000000
G01 X167.942066 Y14.176818 Z20.000000
G01 X167.467845 Y14.531035 Z20.000000
G01 X167.129117 Y14.974285 Z20.000000
G01 X166.925877 Y15.506573 Z20.000000
G01 X166.858133 Y16.127900 Z20.000000
G01 X166.894909 Y16.607929 Z20.000000
G01 X167.005238 Y17.026015 Z20.000000
G01 X167.189120 Y17.382166 Z20.000000
G01 X167.446555 Y17.676377 Z20.000000
G01 X167.808510 Y17.929939 Z20.000000
G01 X168.305961 Y18.164147 Z20.000000
G01 X168.938901 Y18.378997 Z20.000000
G01 X169.707332 Y18.574492 Z20.000000
G01 X170.041224 Y18.647077 Z20.000000
G01 X170.423502 Y18.725470 Z20.000000
G01 X170.854171 Y18.809668 Z20.000000
G01 X171.333232 Y18.899675 Z20.000000
G01 X171.818098 Y18.994518 Z20.000000
G01 X172.281676 Y19.093234 Z20.000000
G01 X172.723958 Y19.195819 Z20.000000
G01 X173.144951 Y19.302276 Z20.000000
G01 X174.200818 Y19.639071 Z20.000000
G01 X175.092161 Y20.045548 Z20.000000
G01 X175.818976 Y20.521704 Z20.000000
G01 X176.381267 Y21.067542 Z20.000000
G01 X176.794517 Y21.688868 Z20.000000
G01 X177.089696 Y22.376003 Z20.000000
G01 X177.266804 Y23.128952 Z20.000000
G01 X177.325839 Y23.947710 Z20.000000
G01 X177.298746 Y24.474193 Z20.000000
G01 X177.217452 Y24.985190 Z20.000000
G01 X177.081960 Y25.480702 Z20.000000
G01 X176.892270 Y25.960728 Z20.000000
G01 X176.639675 Y26.420434 Z20.000000
G01 X176.330947 Y26.854974 Z20.000000
G01 X175.966087 Y27.264352 Z20.000000
G01 X175.545096 Y27.648569 Z20.000000
G01 X175.082489 Y27.993106 Z20.000000
G01 X174.561811 Y28.298931 Z20.000000
G01 X173.983070 Y28.566043 Z20.000000
G01 X173.346258 Y28.794442 Z20.000000
G01 X172.653315 Y28.984129 Z20.000000
G01 X171.921659 Y29.119621 Z20.000000
G01 X171.151294 Y29.200916 Z20.000000
G01 X170.342214 Y29.228009 Z20.000000
G01 X169.566041 Y29.203822 Z20.000000
G01 X168.785993 Y29.131238 Z20.000000
G01 X168.002078 Y29.010263 Z20.000000
G01 X167.214289 Y28.840899 Z20.000000
G01 X166.450697 Y28.644435 Z20.000000
G01 X165.754850 Y28.426681 Z20.000000
G01 X165.126747 Y28.187636 Z20.000000
G01 X164.566392 Y27.927297 Z20.000000
G01 X164.566392 Y27.149188 Z20.000000
G01 X164.566392 Y26.371079 Z20.000000
G01 X164.566392 Y25.592967 Z20.000000
G01 X164.566392 Y24.814858 Z20.000000
G01 X164.605105 Y24.814858 Z20.000000
G01 X164.643817 Y24.814858 Z20.000000
G01 X164.682529 Y24.814858 Z20.000000
G01 X164.721242 Y24.814858 Z20.000000
G01 X165.308696 Y25.208752 Z20.000000
G01 X165.956150 Y25.569740 Z20.000000
G01 X166.663611 Y25.897823 Z20.000000
G01 X167.431075 Y26.193002 Z20.000000
G01 X168.224669 Y26.443661 Z20.000000
G01 X169.010523 Y26.622705 Z20.000000
G01 X169.788632 Y26.730131 Z20.000000
G01 X170.559000 Y26.765939 Z20.000000
G01 X171.325496 Y26.727226 Z20.000000
G01 X172.030052 Y26.611092 Z20.000000
G01 X172.672672 Y26.417533 Z20.000000
G01 X173.253350 Y26.146549 Z20.000000
G01 X173.734347 Y25.806852 Z20.000000
G01 X174.077916 Y25.391666 Z20.000000
G01 X174.284057 Y24.900995 Z20.000000
G01 X174.352769 Y24.334832 Z20.000000
G01 X174.311153 Y23.833512 Z20.000000
G01 X174.186309 Y23.398003 Z20.000000
G01 X173.978230 Y23.028303 Z20.000000
G01 X173.686923 Y22.724415 Z20.000000
G01 X173.311417 Y22.466012 Z20.000000
G01 X172.835261 Y22.232773 Z20.000000
G01 X172.258455 Y22.024696 Z20.000000
G01 X171.580994 Y21.841782 Z20.000000
G01 X171.166777 Y21.748874 Z20.000000
G01 X170.729332 Y21.655964 Z20.000000
G01 X170.268658 Y21.563056 Z20.000000
G01 X169.784760 Y21.470149 Z20.000000
G01 X169.302798 Y21.379175 Z20.000000
G01 X168.863417 Y21.292075 Z20.000000
G01 X168.466619 Y21.208842 Z20.000000
G01 X168.112404 Y21.129484 Z20.000000
G01 X167.156221 Y20.855596 Z20.000000
G01 X166.316173 Y20.498480 Z20.000000
G01 X165.592259 Y20.058129 Z20.000000
G01 X164.984482 Y19.534550 Z20.000000
G01 X164.503485 Y18.915160 Z20.000000
G01 X164.159919 Y18.202859 Z20.000000
G01 X163.953775 Y17.397651 Z20.000000
G01 X163.885057 Y16.499391 Z20.000000
G00 Z-20.000000

(End cutting path id: path37074)


(Footer)
M5
G00 X0.0000 Y0.0000
M2
(Using default footer. To add your own footer create file "footer" in the output dir.)
(end)
%